luts/drone/hdr-log-correction.cube
TITLE "HDR LOG Correction"
LUT_3D_SIZE 33
0.000000 0.000000 0.000000
0.019240 0.000000 0.000000
0.038481 0.000000 0.000000
0.057721 0.000000 0.000000
0.080882 0.000000 0.000000
0.107353 0.000000 0.000000
0.141422 0.000000 0.000000
0.183088 0.000000 0.000000
0.236274 0.000000 0.000000
0.297059 0.000000 0.000000
0.354902 0.000000 0.000000
0.412745 0.000000 0.000000
0.470588 0.000000 0.000000
0.530024 0.000000 0.000000
0.584068 0.000000 0.000000
0.632108 0.000000 0.000000
0.672549 0.000000 0.000000
0.705392 0.000000 0.000000
0.734559 0.000000 0.000000
0.757721 0.000000 0.000000
0.779412 0.000000 0.000000
0.798774 0.000000 0.000000
0.814216 0.000000 0.000000
0.829657 0.000000 0.000000
0.845098 0.000000 0.000000
0.859682 0.000000 0.000000
0.872059 0.000000 0.000000
0.891421 0.000000 0.000000
0.906862 0.000000 0.000000
0.922304 0.000000 0.000000
0.941666 0.000000 0.000000
0.957231 0.000000 0.000000
0.976471 0.000000 0.000000
0.000000 0.015441 0.000000
0.015560 0.015441 0.000000
0.034804 0.015441 0.000000
0.053811 0.015441 0.000000
0.073162 0.015441 0.000000
0.099633 0.012113 0.000000
0.130514 0.008333 0.000000
0.168478 0.003799 0.000000
0.216911 0.000000 0.000000
0.274966 0.000000 0.000000
0.335577 0.000000 0.000000
0.390931 0.000000 0.000000
0.448852 0.000000 0.000000
0.506813 0.000000 0.000000
0.560907 0.000000 0.000000
0.612745 0.000000 0.000000
0.657108 0.000000 0.000000
0.691732 0.000000 0.000000
0.724632 0.000000 0.000000
0.750000 0.000000 0.000000
0.773115 0.000000 0.000000
0.792360 0.000000 0.000000
0.810294 0.000000 0.000000
0.825735 0.000000 0.000000
0.841177 0.000000 0.000000
0.856618 0.000000 0.000000
0.872059 0.000000 0.000000
0.891318 0.000000 0.000000
0.906862 0.000000 0.000000
0.926114 0.000000 0.000000
0.941904 0.000000 0.000000
0.961148 0.000000 0.000000
0.980392 0.000000 0.000000
0.000000 0.034804 0.000000
0.015441 0.034804 0.000000
0.034574 0.034804 0.000000
0.050245 0.034582 0.000000
0.069822 0.030883 0.000000
0.092525 0.030883 0.000000
0.122794 0.026961 0.000000
0.160662 0.019976 0.000000
0.205209 0.012255 0.000000
0.259437 0.002068 0.000000
0.317402 0.000000 0.000000
0.375368 0.000000 0.000000
0.431863 0.000000 0.000000
0.487523 0.000000 0.000000
0.545343 0.000000 0.000000
0.597189 0.000000 0.000000
0.643505 0.000000 0.000000
0.682223 0.000000 0.000000
0.716912 0.000000 0.000000
0.743773 0.000000 0.000000
0.769118 0.000000 0.000000
0.790931 0.000000 0.000000
0.810294 0.000000 0.000000
0.829412 0.000000 0.000000
0.845098 0.000000 0.000000
0.860540 0.000000 0.000000
0.875981 0.000000 0.000000
0.895098 0.000000 0.000000
0.911244 0.000000 0.000000
0.930270 0.000000 0.000000
0.949510 0.000000 0.000000
0.968750 0.000000 0.000000
0.991667 0.000000 0.000000
0.000000 0.050245 0.000000
0.015441 0.050245 0.000000
0.030883 0.050245 0.000000
0.049912 0.050245 0.000000
0.069117 0.049923 0.000000
0.091724 0.046324 0.000000
0.118628 0.043068 0.000000
0.152941 0.039258 0.000000
0.194485 0.031618 0.000000
0.247813 0.023529 0.000000
0.304657 0.012002 0.000000
0.362259 0.001222 0.000000
0.417754 0.000000 0.000000
0.474047 0.000000 0.000000
0.529902 0.000000 0.000000
0.583750 0.000000 0.000000
0.631924 0.000000 0.000000
0.676226 0.000000 0.000000
0.710746 0.000000 0.000000
0.742184 0.000000 0.000000
0.769118 0.000000 0.000000
0.792279 0.000000 0.000000
0.811520 0.000000 0.000000
0.833211 0.000000 0.000000
0.849633 0.000000 0.000000
0.868015 0.000000 0.000000
0.883456 0.000000 0.000000
0.902819 0.000000 0.000000
0.921860 0.000000 0.000000
0.941211 0.000000 0.000000
0.960784 0.000000 0.000000
0.980381 0.000000 0.000000
0.999632 0.000000 0.000000
0.000000 0.069117 0.000000
0.012010 0.069117 0.000000
0.030883 0.069117 0.000000
0.046324 0.069117 0.000000
0.065687 0.066115 0.000000
0.088358 0.065273 0.000000
0.118137 0.062408 0.000000
0.152084 0.058211 0.000000
0.193628 0.050980 0.000000
0.246691 0.042907 0.000000
0.303094 0.035049 0.000000
0.360953 0.023407 0.000000
0.416483 0.015686 0.000000
0.472748 0.004826 0.000000
0.528676 0.000000 0.000000
0.584329 0.000000 0.000000
0.634314 0.000000 0.000000
0.678799 0.000000 0.000000
0.715686 0.000000 0.000000
0.748606 0.000000 0.000000
0.775980 0.000000 0.000000
0.802574 0.000000 0.000000
0.822304 0.000000 0.000000
0.844010 0.000000 0.000000
0.863358 0.000000 0.000000
0.882598 0.000000 0.000000
0.898774 0.000000 0.000000
0.917938 0.003968 0.000000
0.937194 0.007292 0.000000
0.959880 0.014047 0.000000
0.978676 0.020833 0.000000
0.997595 0.028064 0.000000
1.000000 0.035785 0.000000
0.000000 0.085049 0.000000
0.011416 0.085049 0.000000
0.026961 0.085049 0.000000
0.043015 0.085049 0.000000
0.062301 0.085049 0.000000
0.085049 0.085049 0.000000
0.112017 0.084437 0.000000
0.145343 0.080649 0.000000
0.186887 0.073652 0.000000
0.236029 0.065932 0.000000
0.292961 0.058211 0.000000
0.350823 0.049877 0.000000
0.406388 0.040089 0.000000
0.463971 0.031128 0.000000
0.521936 0.023062 0.000000
0.575980 0.015399 0.000000
0.628064 0.011581 0.000000
0.674100 0.006618 0.000000
0.714460 0.005170 0.000000
0.751470 0.003309 0.000000
0.780499 0.006618 0.000000
0.807353 0.006618 0.000000
0.830515 0.009927 0.000000
0.853504 0.014166 0.000000
0.872917 0.018137 0.000000
0.894742 0.025245 0.000000
0.913970 0.029542 0.000000
0.933429 0.036765 0.000000
0.953186 0.044485 0.000000
0.976348 0.052206 0.000000
0.998851 0.059926 0.000000
1.000000 0.070956 0.000000
1.000000 0.079289 0.003309
0.000000 0.104411 0.000000
0.004512 0.104411 0.000000
0.019853 0.107598 0.000000
0.039216 0.107598 0.000000
0.058487 0.107598 0.000000
0.081250 0.107598 0.000000
0.107598 0.107598 0.000000
0.138480 0.104373 0.000000
0.179167 0.100552 0.000000
0.228309 0.093015 0.000000
0.282858 0.085294 0.000000
0.342892 0.076838 0.000000
0.398284 0.069118 0.000000
0.454956 0.061397 0.000000
0.512500 0.053677 0.000000
0.568260 0.049142 0.000000
0.622304 0.042157 0.000000
0.670588 0.039460 0.000000
0.714460 0.036275 0.000000
0.751470 0.036275 0.000000
0.785539 0.039460 0.000000
0.812982 0.041291 0.000000
0.838235 0.044608 0.000000
0.861397 0.051226 0.000000
0.884559 0.056128 0.000000
0.906985 0.063687 0.000000
0.926225 0.070236 0.000000
0.948775 0.075865 0.000000
0.968627 0.086275 0.000000
0.991491 0.093995 0.000299
1.000000 0.102451 0.006618
1.000000 0.113358 0.017525
1.000000 0.121813 0.025245
0.000000 0.126838 0.000000
0.000000 0.129806 0.000000
0.012937 0.130760 0.000000
0.031495 0.130760 0.000000
0.050858 0.133824 0.000000
0.073529 0.133824 0.000000
0.099878 0.133824 0.000000
0.133153 0.133824 0.000000
0.171446 0.129902 0.000000
0.218386 0.123162 0.000000
0.274633 0.117548 0.000000
0.331545 0.110784 0.000000
0.390564 0.103064 0.000000
0.446937 0.096201 0.000000
0.504780 0.090204 0.000000
0.562167 0.083824 0.000000
0.618076 0.080025 0.000000
0.668225 0.076225 0.000000
0.714460 0.074142 0.000000
0.753064 0.074142 0.000000
0.789338 0.077528 0.000000
0.820221 0.081423 0.000000
0.847181 0.085317 0.000000
0.873039 0.090932 0.000000
0.896201 0.097794 0.000000
0.918505 0.105515 0.000000
0.941092 0.113235 0.000000
0.960907 0.120956 0.000479
0.984069 0.128676 0.009682
1.000000 0.136477 0.018260
1.000000 0.148039 0.026172
1.000000 0.155760 0.036792
1.000000 0.167402 0.048407
0.000000 0.159804 0.000000
0.000000 0.159804 0.000000
0.001838 0.163664 0.000000
0.020742 0.163725 0.000000
0.042647 0.167524 0.000000
0.065809 0.167647 0.000000
0.092157 0.167647 0.000000
0.125337 0.167647 0.000000
0.164461 0.164461 0.000000
0.212990 0.160631 0.000000
0.268627 0.156127 0.000000
0.327482 0.148407 0.000000
0.387255 0.143138 0.000000
0.445098 0.136887 0.000000
0.502941 0.132659 0.000000
0.562163 0.128309 0.000000
0.619608 0.123039 0.000000
0.671814 0.122549 0.000000
0.718137 0.122549 0.000000
0.761887 0.122549 0.000000
0.797182 0.124020 0.000000
0.829902 0.127818 0.000000
0.859865 0.134559 0.000000
0.886642 0.139338 0.000000
0.909804 0.146814 0.000000
0.932966 0.153799 0.001287
0.956128 0.161519 0.009559
0.977849 0.169240 0.017279
0.997426 0.176961 0.028064
1.000000 0.184957 0.036642
1.000000 0.195343 0.044547
1.000000 0.203095 0.055025
1.000000 0.214706 0.063726
0.000000 0.187745 0.000000
0.000000 0.191632 0.000000
0.000000 0.195519 0.000000
0.009210 0.198407 0.000000
0.028186 0.201976 0.000000
0.053726 0.205637 0.000000
0.081618 0.206250 0.000000
0.114702 0.206250 0.000000
0.153891 0.205423 0.000000
0.202328 0.202328 0.000000
0.258310 0.197649 0.000000
0.316912 0.193382 0.000000
0.377987 0.187010 0.000000
0.435865 0.183211 0.000000
0.495596 0.179412 0.000000
0.555541 0.175096 0.000000
0.614829 0.173223 0.000000
0.668873 0.169853 0.000000
0.717279 0.169853 0.000000
0.761355 0.170998 0.000000
0.799510 0.173774 0.000000
0.832843 0.178665 0.000000
0.863726 0.182843 0.000000
0.892712 0.190253 0.000000
0.916666 0.196477 0.003799
0.939829 0.202083 0.011520
0.962990 0.209804 0.019769
0.985049 0.217524 0.030883
1.000000 0.225245 0.038603
1.000000 0.235887 0.049245
1.000000 0.244608 0.057966
1.000000 0.252329 0.065809
1.000000 0.260049 0.077328
0.000000 0.225246 0.000000
0.000000 0.229044 0.000000
0.000000 0.232843 0.000000
0.000000 0.236895 0.000000
0.016666 0.240778 0.000000
0.039829 0.244661 0.000000
0.069102 0.247549 0.000000
0.103087 0.248775 0.000000
0.142341 0.247856 0.000000
0.189928 0.247549 0.000000
0.244470 0.244470 0.000000
0.305392 0.240633 0.000000
0.365932 0.236795 0.000000
0.424273 0.232958 0.000000
0.484023 0.229121 0.000000
0.544608 0.226716 0.000000
0.603799 0.222795 0.000000
0.658456 0.222795 0.000000
0.709559 0.221278 0.000000
0.755882 0.222795 0.000000
0.796354 0.225031 0.000000
0.831074 0.228868 0.000000
0.863726 0.233088 0.000000
0.891567 0.239583 0.001103
0.916973 0.244608 0.008823
0.941054 0.252329 0.016544
0.962990 0.258824 0.024770
0.986152 0.266544 0.034873
1.000000 0.275490 0.043627
1.000000 0.283211 0.051600
1.000000 0.290931 0.062990
1.000000 0.298652 0.070711
1.000000 0.306372 0.081127
0.000000 0.263848 0.000000
0.000000 0.267728 0.000000
0.000000 0.274104 0.000000
0.000000 0.279408 0.000000
0.004611 0.285539 0.000000
0.028098 0.289549 0.000000
0.057231 0.293873 0.000000
0.091472 0.296936 0.000000
0.130790 0.297794 0.000000
0.178320 0.296825 0.000000
0.232912 0.294677 0.000000
0.292524 0.292525 0.000000
0.352680 0.288603 0.000000
0.412680 0.284682 0.000000
0.471323 0.282476 0.000000
0.532372 0.280760 0.000000
0.592218 0.276839 0.000000
0.648143 0.275000 0.000000
0.700391 0.272917 0.000000
0.747116 0.275311 0.000000
0.789093 0.276839 0.000000
0.823774 0.281223 0.000000
0.857230 0.285103 0.000000
0.886041 0.289706 0.001103
0.911152 0.294853 0.008823
0.937255 0.302279 0.016544
0.960417 0.308464 0.024517
0.979657 0.314093 0.033334
1.000000 0.321814 0.043627
1.000000 0.329534 0.051474
1.000000 0.337255 0.060578
1.000000 0.347549 0.070711
1.000000 0.356618 0.079779
0.000000 0.314706 0.000000
0.000000 0.319975 0.000000
0.000000 0.325398 0.000000
0.000000 0.331495 0.000000
0.000000 0.337071 0.000000
0.021308 0.343245 0.000000
0.051501 0.347089 0.000000
0.085907 0.350935 0.000000
0.124510 0.352941 0.000000
0.169853 0.352941 0.000000
0.225490 0.351930 0.000000
0.284176 0.349862 0.000000
0.345098 0.346017 0.000000
0.405989 0.343628 0.000000
0.464706 0.340349 0.000000
0.525000 0.338404 0.000000
0.583578 0.334559 0.000000
0.640319 0.332644 0.000000
0.693719 0.331863 0.000000
0.740426 0.331863 0.000000
0.782353 0.333333 0.000000
0.818505 0.336290 0.000000
0.851961 0.340165 0.000000
0.878922 0.345098 0.000000
0.905883 0.350000 0.004902
0.931985 0.353799 0.012944
0.955147 0.361519 0.024264
0.976456 0.367770 0.031986
0.996568 0.375490 0.039706
1.000000 0.383210 0.050015
1.000000 0.390931 0.059069
1.000000 0.398606 0.069240
1.000000 0.404902 0.076961
0.000000 0.355147 0.000000
0.000000 0.365124 0.000000
0.000000 0.372917 0.000000
0.000000 0.380637 0.000000
0.000000 0.388358 0.000000
0.017406 0.394114 0.000000
0.048039 0.400176 0.000000
0.081986 0.404025 0.000000
0.120588 0.407874 0.000000
0.167077 0.408456 0.000000
0.220466 0.408456 0.000000
0.277884 0.404534 0.000000
0.338848 0.401210 0.000000
0.398284 0.399230 0.000000
0.457146 0.396691 0.000000
0.516299 0.392770 0.000000
0.574939 0.389645 0.000000
0.631740 0.387756 0.000000
0.685087 0.385822 0.000000
0.731775 0.384926 0.000000
0.773652 0.386519 0.000000
0.810907 0.387320 0.000000
0.842884 0.391169 0.000000
0.872672 0.395466 0.000000
0.899234 0.401011 0.002574
0.925735 0.406985 0.012623
0.948897 0.413112 0.020343
0.971810 0.418505 0.028313
0.991100 0.426226 0.037669
1.000000 0.433946 0.047427
1.000000 0.441812 0.056886
1.000000 0.451716 0.066790
1.000000 0.461029 0.076103
0.000000 0.405392 0.000000
0.000000 0.413113 0.000000
0.000000 0.422901 0.000000
0.000000 0.430760 0.000000
0.000000 0.438480 0.000000
0.015296 0.446201 0.000000
0.044118 0.451716 0.000000
0.078439 0.455997 0.000000
0.116667 0.458578 0.000000
0.162009 0.460294 0.000000
0.212745 0.458578 0.000000
0.270711 0.457131 0.000000
0.331127 0.453278 0.000000
0.389668 0.450735 0.000000
0.447564 0.447565 0.000000
0.505461 0.443697 0.000000
0.563358 0.440686 0.000000
0.620221 0.437936 0.000000
0.673514 0.435049 0.000000
0.721078 0.435049 0.000000
0.764553 0.435692 0.000000
0.800613 0.437523 0.000000
0.834758 0.440686 0.000000
0.864951 0.445229 0.000000
0.893566 0.449510 0.000981
0.918014 0.455032 0.008701
0.941176 0.461029 0.018551
0.964338 0.468750 0.028064
0.987286 0.476471 0.035784
1.000000 0.484191 0.045221
1.000000 0.491912 0.055147
1.000000 0.499633 0.062921
1.000000 0.507353 0.072304
0.000000 0.453799 0.000000
0.000000 0.463358 0.000000
0.000000 0.473162 0.000000
0.000000 0.480883 0.000000
0.000000 0.490441 0.000000
0.013522 0.496324 0.000000
0.044118 0.502351 0.000000
0.075000 0.506216 0.000000
0.112745 0.510080 0.000000
0.156005 0.510539 0.000000
0.205025 0.510539 0.000000
0.262274 0.507334 0.000000
0.320175 0.503477 0.000000
0.380013 0.499621 0.000000
0.435976 0.497741 0.000000
0.493876 0.493876 0.000000
0.551777 0.490012 0.000000
0.608701 0.487010 0.000000
0.661941 0.485171 0.000000
0.710528 0.484325 0.000000
0.754289 0.485171 0.000000
0.792892 0.487010 0.000000
0.827573 0.489668 0.000000
0.860049 0.493531 0.000000
0.887653 0.498775 0.000981
0.914216 0.503554 0.008701
0.937768 0.509046 0.016421
0.962297 0.515074 0.024142
0.983701 0.522794 0.033701
1.000000 0.530514 0.041422
1.000000 0.538235 0.051225
1.000000 0.545956 0.060785
1.000000 0.553676 0.068505
0.000000 0.513726 0.000000
0.000000 0.521507 0.000000
0.000000 0.529167 0.000000
0.000000 0.538664 0.000000
0.000000 0.546569 0.000000
0.013235 0.550674 0.000000
0.040196 0.556495 0.000000
0.074142 0.560356 0.000000
0.108823 0.564216 0.000000
0.150797 0.564706 0.000000
0.200490 0.563358 0.000000
0.255883 0.560785 0.000000
0.313725 0.556863 0.000000
0.372365 0.552941 0.000000
0.428309 0.549877 0.000000
0.486213 0.546936 0.000000
0.544118 0.544118 0.000000
0.601103 0.541176 0.000000
0.654289 0.538358 0.000000
0.703677 0.537255 0.000000
0.748529 0.537255 0.000000
0.787132 0.539890 0.000000
0.823162 0.541789 0.000000
0.855392 0.545650 0.000000
0.883823 0.550000 0.000000
0.909314 0.555331 0.004780
0.935539 0.561152 0.012500
0.958701 0.565319 0.020221
0.981372 0.573039 0.027941
1.000000 0.578799 0.037806
1.000000 0.586520 0.047304
1.000000 0.592280 0.055025
1.000000 0.600000 0.062745
0.000000 0.561888 0.000000
0.000000 0.571691 0.000000
0.000000 0.579412 0.000000
0.000000 0.588971 0.000000
0.000000 0.595083 0.000000
0.013235 0.602573 0.000000
0.040196 0.607108 0.000000
0.071079 0.611029 0.000000
0.106985 0.614951 0.000000
0.148407 0.614951 0.000000
0.195995 0.614951 0.000000
0.250755 0.612377 0.000000
0.307966 0.609727 0.000000
0.367402 0.605871 0.000000
0.423652 0.603186 0.000000
0.479412 0.600126 0.000000
0.537378 0.596262 0.000000
0.594367 0.594367 0.000000
0.648583 0.591422 0.000000
0.697917 0.591422 0.000000
0.742770 0.591422 0.000000
0.782579 0.591422 0.000000
0.818750 0.593911 0.000000
0.850954 0.596446 0.000000
0.879994 0.600245 0.000000
0.906618 0.607108 0.002486
0.929779 0.611765 0.008578
0.952941 0.615564 0.016624
0.976103 0.623284 0.026103
0.994780 0.629167 0.033824
1.000000 0.634804 0.041544
1.000000 0.642525 0.049265
1.000000 0.650245 0.056986
0.000000 0.610294 0.000000
0.000000 0.618015 0.000000
0.000000 0.625735 0.000000
0.000000 0.633456 0.000000
0.000000 0.641177 0.000000
0.013503 0.648897 0.000000
0.040518 0.653431 0.000000
0.071079 0.657353 0.000000
0.104902 0.661274 0.000000
0.146323 0.661274 0.000000
0.192647 0.661274 0.000000
0.245466 0.661274 0.000000
0.302788 0.657353 0.000000
0.360700 0.654128 0.000000
0.417647 0.651226 0.000000
0.472603 0.648338 0.000000
0.529657 0.645588 0.000000
0.586451 0.641667 0.000000
0.640702 0.640702 0.000000
0.690196 0.637745 0.000000
0.736520 0.637745 0.000000
0.777573 0.637745 0.000000
0.813434 0.641667 0.000000
0.845833 0.642770 0.000000
0.874081 0.646569 0.000000
0.900613 0.650368 0.000000
0.925980 0.655959 0.002941
0.948798 0.661619 0.010662
0.968382 0.665686 0.018382
0.991176 0.671691 0.026103
1.000000 0.679274 0.033824
1.000000 0.683211 0.041544
1.000000 0.690932 0.049265
0.000000 0.652696 0.000000
0.000000 0.662672 0.000000
0.000000 0.670466 0.000000
0.000000 0.679779 0.000000
0.000000 0.687500 0.000000
0.018750 0.693628 0.000000
0.045711 0.699019 0.000000
0.075000 0.703328 0.000000
0.109221 0.707200 0.000000
0.147426 0.707598 0.000000
0.192647 0.707598 0.000000
0.245466 0.707598 0.000000
0.300965 0.703677 0.000000
0.357475 0.701348 0.000000
0.413848 0.698445 0.000000
0.467892 0.695834 0.000000
0.523529 0.691912 0.000000
0.579902 0.690073 0.000000
0.633946 0.687293 0.000000
0.685015 0.684069 0.000000
0.729795 0.684069 0.000000
0.771446 0.684069 0.000000
0.807728 0.684796 0.000000
0.839706 0.687990 0.000000
0.868413 0.690717 0.000000
0.895098 0.694589 0.000000
0.918260 0.698460 0.000437
0.941421 0.702696 0.004535
0.962055 0.706495 0.010662
0.983456 0.713848 0.018382
1.000000 0.718015 0.026103
1.000000 0.724069 0.032158
1.000000 0.729534 0.037623
0.000000 0.700981 0.000000
0.000000 0.711152 0.000000
0.000000 0.718872 0.000000
0.000000 0.725260 0.000000
0.003860 0.732843 0.000000
0.028554 0.740564 0.000000
0.054902 0.744822 0.000000
0.082184 0.750934 0.000000
0.116667 0.752573 0.000000
0.154289 0.755392 0.000000
0.199510 0.755392 0.000000
0.248407 0.755392 0.000000
0.302451 0.751470 0.000000
0.359421 0.748146 0.000000
0.414461 0.746170 0.000000
0.468505 0.743627 0.000000
0.522549 0.739706 0.000000
0.579044 0.735784 0.000000
0.632016 0.732690 0.000000
0.683088 0.731266 0.000000
0.728860 0.727941 0.000000
0.768995 0.727941 0.000000
0.806373 0.728707 0.000000
0.837255 0.731863 0.000000
0.867157 0.732476 0.000000
0.892770 0.736320 0.000000
0.915931 0.740166 0.000000
0.936412 0.742386 0.000613
0.957843 0.746262 0.007843
0.977206 0.750138 0.012133
0.994945 0.755392 0.018229
1.000000 0.759314 0.023652
1.000000 0.763235 0.027451
0.000000 0.743995 0.000000
0.000000 0.753021 0.000000
0.000000 0.763197 0.000000
0.000000 0.771079 0.000000
0.016912 0.778799 0.000000
0.042245 0.786520 0.000000
0.067157 0.791054 0.000000
0.096251 0.796029 0.000000
0.127849 0.799908 0.000000
0.164461 0.802095 0.000000
0.208333 0.802818 0.000000
0.255542 0.801130 0.000000
0.310310 0.798897 0.000000
0.365319 0.795523 0.000000
0.419363 0.791644 0.000000
0.473407 0.788971 0.000000
0.527451 0.785172 0.000000
0.581495 0.781373 0.000000
0.635539 0.777573 0.000000
0.684069 0.775367 0.000000
0.730392 0.771446 0.000000
0.771446 0.771446 0.000000
0.807897 0.771446 0.000000
0.839327 0.772170 0.000000
0.866330 0.774019 0.000000
0.891422 0.775930 0.000000
0.914101 0.778194 0.000000
0.934961 0.781863 0.000000
0.954243 0.785784 0.004244
0.972062 0.789706 0.008084
0.991299 0.793627 0.014422
1.000000 0.797549 0.018382
1.000000 0.801470 0.022181
0.000000 0.782598 0.000000
0.000000 0.794240 0.000000
0.000000 0.801960 0.000000
0.009559 0.809682 0.000000
0.032353 0.817402 0.000000
0.055515 0.825123 0.000000
0.080867 0.832843 0.000000
0.107866 0.836910 0.001226
0.138480 0.840748 0.005392
0.172182 0.842302 0.008310
0.213480 0.843490 0.009911
0.261573 0.841422 0.009490
0.312500 0.838971 0.007384
0.366544 0.835172 0.005147
0.420589 0.831372 0.001762
0.473407 0.827573 0.000575
0.527451 0.823774 0.000000
0.581495 0.819976 0.000000
0.633823 0.815487 0.000000
0.684069 0.811650 0.000000
0.729933 0.808824 0.000000
0.771025 0.806128 0.000000
0.804902 0.804902 0.000000
0.835785 0.804902 0.000000
0.865686 0.805882 0.000000
0.888848 0.808824 0.000000
0.911780 0.809329 0.000000
0.931059 0.812745 0.000000
0.950337 0.815594 0.000337
0.968252 0.816920 0.004175
0.984973 0.820757 0.008012
1.000000 0.824594 0.011849
1.000000 0.828431 0.018382
0.000000 0.825123 0.000000
0.000000 0.832843 0.000000
0.005745 0.840564 0.000000
0.025000 0.848284 0.000000
0.047794 0.858823 0.000000
0.070956 0.863726 0.002034
0.094118 0.871446 0.009314
0.119482 0.875862 0.013730
0.147304 0.879749 0.017892
0.181798 0.880025 0.021504
0.221201 0.882843 0.021814
0.267145 0.880025 0.021814
0.316299 0.877160 0.018949
0.369688 0.873327 0.015116
0.423284 0.869493 0.011282
0.475245 0.863753 0.008946
0.527451 0.859865 0.005025
0.581495 0.854071 0.001103
0.631618 0.849755 0.000000
0.683414 0.845956 0.000000
0.728232 0.842157 0.000000
0.767524 0.839327 0.000000
0.804902 0.835785 0.000000
0.835785 0.835785 0.000000
0.862745 0.835785 0.000000
0.888848 0.836401 0.000000
0.910378 0.838603 0.000000
0.930637 0.839706 0.000000
0.949035 0.842525 0.000000
0.965441 0.843892 0.000264
0.981058 0.846691 0.004098
0.998931 0.850368 0.007931
1.000000 0.854289 0.011765
0.000000 0.866667 0.000000
0.003860 0.874387 0.000950
0.023775 0.882108 0.002880
0.045956 0.888848 0.003921
0.065196 0.896569 0.011274
0.087378 0.903462 0.018995
0.110539 0.907843 0.025735
0.133701 0.914063 0.029749
0.160784 0.915686 0.033579
0.193505 0.919332 0.034314
0.232108 0.918933 0.037255
0.273284 0.916697 0.034314
0.323162 0.912868 0.031495
0.375521 0.908456 0.027665
0.427512 0.903370 0.023284
0.479289 0.899020 0.019485
0.529412 0.893137 0.015686
0.583456 0.887255 0.009344
0.633579 0.881618 0.004167
0.682108 0.877237 0.000981
0.728064 0.871201 0.000000
0.769485 0.867647 0.000000
0.805882 0.866667 0.000000
0.836765 0.863726 0.000000
0.863726 0.863726 0.000000
0.888971 0.863726 0.000000
0.909068 0.864277 0.000000
0.928156 0.866666 0.000000
0.947059 0.866667 0.000000
0.962500 0.867923 0.000092
0.977941 0.870588 0.001164
0.993352 0.871661 0.004902
1.000000 0.874510 0.007843
0.001716 0.905392 0.001716
0.021814 0.913113 0.009436
0.044117 0.920833 0.017157
0.063438 0.928554 0.024877
0.083088 0.936274 0.032598
0.105760 0.941410 0.037010
0.128225 0.947794 0.044117
0.151225 0.951593 0.047917
0.177543 0.952451 0.051072
0.208211 0.956372 0.052696
0.245121 0.953677 0.052106
0.286324 0.952451 0.049828
0.332889 0.947993 0.046002
0.384926 0.942279 0.041667
0.435424 0.937622 0.036527
0.487010 0.930760 0.030603
0.535295 0.926103 0.026348
0.587500 0.919240 0.018627
0.637745 0.912860 0.014828
0.687990 0.906863 0.008352
0.732843 0.901149 0.003309
0.773457 0.896691 0.000563
0.808824 0.893359 0.000000
0.839706 0.892770 0.000000
0.865686 0.891912 0.000000
0.888848 0.889518 0.000000
0.911849 0.891912 0.000000
0.930637 0.891912 0.000000
0.946461 0.892770 0.000000
0.965441 0.893057 0.000000
0.980829 0.895834 0.003118
0.995370 0.896691 0.003922
1.000000 0.899755 0.006985
0.017157 0.940196 0.017157
0.040319 0.947917 0.024877
0.059804 0.955637 0.032598
0.079166 0.963358 0.040319
0.098529 0.967157 0.048039
0.120581 0.974877 0.052336
0.140441 0.978677 0.056373
0.162868 0.981901 0.060295
0.186581 0.983333 0.063480
0.215931 0.983333 0.064216
0.250506 0.983333 0.063710
0.290204 0.980507 0.061390
0.336275 0.976685 0.057108
0.385225 0.971132 0.052014
0.436765 0.964706 0.045588
0.487010 0.957376 0.040296
0.535295 0.953186 0.034069
0.585417 0.945466 0.026348
0.637331 0.937745 0.022135
0.684069 0.931618 0.014828
0.730392 0.926225 0.008303
0.771446 0.919853 0.004404
0.808318 0.915931 0.000506
0.839706 0.914300 0.000000
0.865686 0.912010 0.000000
0.888848 0.911849 0.000000
0.911275 0.911275 0.000000
0.930637 0.911275 0.000000
0.946078 0.911275 0.000000
