luts/drone/hdr-log-correction.cube
TITLE "HDR LOG Correction"
LUT_3D_SIZE 5
0.000000 0.000000 0.000000
0.236274 0.000000 0.000000
0.672549 0.000000 0.000000
0.845098 0.000000 0.000000
0.976471 0.000000 0.000000
0.000000 0.159804 0.000000
0.164461 0.164461 0.000000
0.619608 0.123039 0.000000
0.909804 0.146814 0.000000
1.000000 0.214706 0.063726
0.000000 0.513726 0.000000
0.108823 0.564216 0.000000
0.544118 0.544118 0.000000
0.883823 0.550000 0.000000
1.000000 0.600000 0.062745
0.000000 0.866667 0.000000
0.160784 0.915686 0.033579
0.529412 0.893137 0.015686
0.863726 0.863726 0.000000
1.000000 0.874510 0.007843
0.098039 1.000000 0.098039
0.229412 1.000000 0.117647
0.521568 1.000000 0.072549
0.857843 1.000000 0.007843
1.000000 1.000000 0.000000
0.000000 0.000000 0.265686
0.199020 0.000000 0.199020
0.635784 0.000000 0.090196
0.829412 0.000000 0.061765
0.964706 0.000000 0.077451
0.000000 0.152696 0.152696
0.167463 0.166728 0.167463
0.613236 0.134313 0.134313
0.917647 0.157659 0.157659
1.000000 0.222549 0.222549
0.000000 0.519607 0.063726
0.128431 0.568628 0.127696
0.552696 0.552696 0.129412
0.900613 0.556863 0.146079
1.000000 0.603921 0.202941
0.001961 0.875490 0.121323
0.167831 0.923529 0.168382
0.527451 0.900613 0.142157
0.866667 0.866667 0.111764
1.000000 0.871569 0.122794
0.101961 1.000000 0.216667
0.228432 1.000000 0.228432
0.513726 1.000000 0.180392
0.850981 1.000000 0.114706
0.996078 0.996078 0.097059
0.000000 0.000000 0.786274
0.160294 0.000000 0.719608
0.596078 0.000000 0.596078
0.801961 0.000000 0.547058
0.945098 0.000000 0.556863
0.000000 0.131372 0.645588
0.152574 0.152941 0.646079
0.600000 0.130147 0.600000
0.913725 0.153921 0.604167
1.000000 0.218628 0.654412
0.000000 0.513725 0.512745
0.128431 0.562255 0.562500
0.549019 0.548529 0.549019
0.900980 0.550735 0.550490
1.000000 0.595098 0.595098
0.000981 0.871078 0.520588
0.160539 0.916789 0.553922
0.512500 0.889951 0.511765
0.852941 0.852574 0.460784
1.000000 0.857353 0.450980
0.088235 1.000000 0.558823
0.211275 1.000000 0.555882
0.490196 1.000000 0.490196
0.832843 0.995588 0.400980
0.980392 0.980392 0.362745
0.000000 0.000000 0.954902
0.147059 0.000000 0.912745
0.580392 0.000000 0.817647
0.795098 0.000000 0.795098
0.941176 0.000000 0.825490
0.000000 0.128186 0.896079
0.157292 0.157292 0.921814
0.601348 0.137868 0.899877
0.917831 0.159559 0.918382
1.000000 0.222549 0.976716
0.000000 0.516177 0.829902
0.136397 0.564338 0.888726
0.550490 0.550490 0.889216
0.902696 0.549142 0.902696
1.000000 0.588235 0.955882
0.000981 0.868383 0.868383
0.152696 0.910233 0.910233
0.495588 0.878922 0.879289
0.836030 0.835295 0.836030
0.984069 0.838480 0.838480
0.070588 1.000000 0.933334
0.190196 1.000000 0.937990
0.462255 1.000000 0.884314
0.803922 0.972304 0.803922
0.955882 0.955882 0.773529
0.000000 0.000000 1.000000
0.139216 0.000000 1.000000
0.566666 0.000000 0.939215
0.798039 0.000000 0.914706
0.949020 0.000000 0.949020
0.000000 0.135294 1.000000
0.169608 0.169608 1.000000
0.606862 0.155882 1.000000
0.929657 0.174510 1.000000
1.000000 0.235294 1.000000
0.000000 0.525490 0.962745
0.152941 0.572549 1.000000
0.559804 0.559804 1.000000
0.917647 0.552941 1.000000
1.000000 0.590196 1.000000
0.001961 0.874510 0.994118
0.155883 0.910784 1.000000
0.485294 0.880392 1.000000
0.831373 0.831373 0.976471
0.983334 0.828431 0.983334
0.066667 1.000000 1.000000
0.182353 1.000000 1.000000
0.439215 1.000000 1.000000
0.788235 0.964706 0.964706
0.945098 0.945098 0.945098
