luts/drone/hdr-log-correction.cube
TITLE "HDR LOG Correction"
LUT_3D_SIZE 9
0.000000 0.000000 0.000000
0.080882 0.000000 0.000000
0.236274 0.000000 0.000000
0.470588 0.000000 0.000000
0.672549 0.000000 0.000000
0.779412 0.000000 0.000000
0.845098 0.000000 0.000000
0.906862 0.000000 0.000000
0.976471 0.000000 0.000000
0.000000 0.069117 0.000000
0.065687 0.066115 0.000000
0.193628 0.050980 0.000000
0.416483 0.015686 0.000000
0.634314 0.000000 0.000000
0.775980 0.000000 0.000000
0.863358 0.000000 0.000000
0.937194 0.007292 0.000000
1.000000 0.035785 0.000000
0.000000 0.159804 0.000000
0.042647 0.167524 0.000000
0.164461 0.164461 0.000000
0.387255 0.143138 0.000000
0.619608 0.123039 0.000000
0.797182 0.124020 0.000000
0.909804 0.146814 0.000000
0.997426 0.176961 0.028064
1.000000 0.214706 0.063726
0.000000 0.314706 0.000000
0.000000 0.337071 0.000000
0.124510 0.352941 0.000000
0.345098 0.346017 0.000000
0.583578 0.334559 0.000000
0.782353 0.333333 0.000000
0.905883 0.350000 0.004902
0.996568 0.375490 0.039706
1.000000 0.404902 0.076961
0.000000 0.513726 0.000000
0.000000 0.546569 0.000000
0.108823 0.564216 0.000000
0.313725 0.556863 0.000000
0.544118 0.544118 0.000000
0.748529 0.537255 0.000000
0.883823 0.550000 0.000000
0.981372 0.573039 0.027941
1.000000 0.600000 0.062745
0.000000 0.700981 0.000000
0.003860 0.732843 0.000000
0.116667 0.752573 0.000000
0.302451 0.751470 0.000000
0.522549 0.739706 0.000000
0.728860 0.727941 0.000000
0.867157 0.732476 0.000000
0.957843 0.746262 0.007843
1.000000 0.763235 0.027451
0.000000 0.866667 0.000000
0.065196 0.896569 0.011274
0.160784 0.915686 0.033579
0.323162 0.912868 0.031495
0.529412 0.893137 0.015686
0.728064 0.871201 0.000000
0.863726 0.863726 0.000000
0.947059 0.866667 0.000000
1.000000 0.874510 0.007843
0.053431 1.000000 0.053431
0.125980 1.000000 0.075490
0.205882 1.000000 0.086397
0.341177 1.000000 0.076961
0.534069 0.998284 0.049510
0.725674 0.968627 0.018627
0.866176 0.950491 0.000490
0.946140 0.946569 0.000000
1.000000 0.946569 0.000000
0.098039 1.000000 0.098039
0.163726 1.000000 0.113235
0.229412 1.000000 0.117647
0.341667 1.000000 0.103431
0.521568 1.000000 0.072549
0.710784 1.000000 0.033824
0.857843 1.000000 0.007843
0.942156 1.000000 0.000000
1.000000 1.000000 0.000000
0.000000 0.000000 0.076961
0.073039 0.000000 0.073039
0.212745 0.000000 0.047917
0.439399 0.000000 0.002573
0.645343 0.000000 0.000000
0.765196 0.000000 0.000000
0.833334 0.000000 0.000000
0.895589 0.000000 0.000000
0.968627 0.000000 0.000000
0.000000 0.065196 0.065196
0.065196 0.065196 0.065196
0.182843 0.054412 0.053983
0.397488 0.019033 0.019141
0.616422 0.000000 0.000000
0.767831 0.000000 0.000000
0.859314 0.000000 0.000000
0.932843 0.010723 0.009865
0.999510 0.039706 0.039706
0.000000 0.155882 0.032353
0.046676 0.163725 0.046998
0.163725 0.164461 0.053922
0.380377 0.144608 0.039262
0.610600 0.128247 0.026716
0.794868 0.127757 0.029856
0.909804 0.149632 0.055607
0.997411 0.180561 0.089492
1.000000 0.214706 0.124510
0.000000 0.312255 0.000000
0.006595 0.335455 0.006434
0.132276 0.352436 0.034191
0.347549 0.347549 0.039522
0.582690 0.337071 0.038236
0.783640 0.334137 0.046561
0.909681 0.349877 0.070588
1.000000 0.375184 0.103653
1.000000 0.407046 0.138725
0.000000 0.513480 0.000000
0.000000 0.544363 0.000000
0.117525 0.562684 0.029412
0.318137 0.557506 0.037745
0.544975 0.545833 0.034314
0.751869 0.538971 0.038879
0.891422 0.549510 0.058824
0.989001 0.571078 0.089706
1.000000 0.597794 0.122549
0.000000 0.704412 0.000000
0.013235 0.733004 0.013235
0.121553 0.754779 0.040518
0.302451 0.755201 0.045098
0.522549 0.742157 0.039706
0.730683 0.730683 0.035784
0.870941 0.731863 0.044240
0.962193 0.744094 0.064561
1.000000 0.760601 0.085295
0.000000 0.870221 0.036275
0.069118 0.900383 0.069118
0.163450 0.919485 0.088971
0.319608 0.915074 0.089338
0.525490 0.895343 0.071140
0.724510 0.873177 0.051593
0.862745 0.863389 0.044271
0.947059 0.866667 0.051026
1.000000 0.871569 0.061765
0.053431 1.000000 0.107353
0.129090 1.000000 0.129412
0.205882 1.000000 0.138067
0.335110 1.000000 0.130882
0.526470 0.998284 0.103493
0.719447 0.968627 0.072572
0.862255 0.950261 0.054412
0.942647 0.942647 0.050061
1.000000 0.943137 0.050490
0.101471 1.000000 0.151961
0.163726 1.000000 0.163726
0.228432 1.000000 0.167647
0.335294 1.000000 0.157353
0.517647 1.000000 0.123039
0.702941 1.000000 0.087745
0.853921 1.000000 0.060784
0.942156 1.000000 0.050000
0.996078 0.996078 0.046079
0.000000 0.000000 0.265686
0.065196 0.000000 0.239583
0.199020 0.000000 0.199020
0.425613 0.000000 0.141176
0.635784 0.000000 0.090196
0.757966 0.000000 0.067524
0.829412 0.000000 0.061765
0.892525 0.000000 0.065686
0.964706 0.000000 0.077451
0.000000 0.058701 0.204412
0.060953 0.061274 0.196692
0.178186 0.050490 0.178922
0.392647 0.015686 0.136274
0.611029 0.000000 0.100980
0.765502 0.000000 0.084314
0.860202 0.000000 0.095221
0.936765 0.016406 0.115150
1.000000 0.047426 0.145098
0.000000 0.152696 0.152696
0.049632 0.163633 0.162990
0.167463 0.166728 0.167463
0.382445 0.150368 0.149908
0.613236 0.134313 0.134313
0.800490 0.135141 0.135416
0.917647 0.157659 0.157659
0.999142 0.188725 0.187990
1.000000 0.222549 0.222549
0.000000 0.316177 0.084681
0.015181 0.340993 0.116177
0.140196 0.359314 0.140931
0.355392 0.355392 0.144118
0.589461 0.344914 0.140809
0.790610 0.341176 0.144486
0.917555 0.357046 0.165594
1.000000 0.382720 0.195098
1.000000 0.412745 0.228799
0.000000 0.519607 0.063726
0.010294 0.550490 0.100306
0.128431 0.568628 0.127696
0.325735 0.564400 0.133333
0.552696 0.552696 0.129412
0.760723 0.545650 0.129412
0.900613 0.556863 0.146079
0.996568 0.576899 0.173530
1.000000 0.603921 0.202941
0.000000 0.708824 0.071078
0.022182 0.740686 0.105882
0.130913 0.762163 0.131372
0.310294 0.761703 0.132582
0.528615 0.749203 0.123223
0.735784 0.735784 0.115196
0.877727 0.736397 0.120435
0.969286 0.747855 0.138235
1.000000 0.763235 0.157843
0.001961 0.875490 0.121323
0.076103 0.906618 0.149878
0.167831 0.923529 0.168382
0.323162 0.920711 0.164093
0.527451 0.900613 0.142157
0.726348 0.876777 0.120221
0.866667 0.866667 0.111764
0.950123 0.866667 0.114951
1.000000 0.871569 0.122794
0.059927 1.000000 0.179902
0.132154 1.000000 0.198529
0.206097 1.000000 0.206097
0.334804 1.000000 0.196124
0.526470 1.000000 0.165564
0.717831 0.972549 0.134314
0.862255 0.950491 0.112224
0.943076 0.942647 0.106985
1.000000 0.942647 0.106985
0.101961 1.000000 0.216667
0.163848 1.000000 0.225490
0.228432 1.000000 0.228432
0.333823 1.000000 0.215196
0.513726 1.000000 0.180392
0.699019 1.000000 0.143505
0.850981 1.000000 0.114706
0.938235 1.000000 0.103431
0.996078 0.996078 0.097059
0.000000 0.000000 0.559314
0.045772 0.000000 0.520894
0.179534 0.000000 0.471079
0.402941 0.000000 0.403860
0.615196 0.000000 0.344363
0.742586 0.000000 0.312255
0.817647 0.000000 0.299142
0.881189 0.000000 0.298039
0.956863 0.000000 0.309804
0.000000 0.043444 0.467647
0.045772 0.045772 0.450598
0.162622 0.038190 0.424020
0.377144 0.008150 0.377145
0.597549 0.000000 0.334314
0.756549 0.000000 0.312255
0.853416 0.000000 0.315686
0.932782 0.014154 0.331372
0.999694 0.047058 0.360785
0.000000 0.141667 0.395098
0.042111 0.154994 0.399954
0.159651 0.159467 0.397917
0.375061 0.146446 0.375980
0.607046 0.132537 0.354412
0.796569 0.134313 0.349387
0.917188 0.157384 0.363573
0.999142 0.188725 0.388726
1.000000 0.222549 0.421569
0.000000 0.310784 0.310784
0.015571 0.339216 0.338297
0.142034 0.358471 0.358012
0.354435 0.354434 0.353860
0.587960 0.344639 0.344639
0.788090 0.341176 0.341176
0.919485 0.355759 0.355989
1.000000 0.380767 0.380882
1.000000 0.411826 0.412745
0.000000 0.518382 0.270588
0.010294 0.547702 0.303431
0.128431 0.566912 0.326042
0.326226 0.563480 0.325766
0.552328 0.552328 0.316789
0.761305 0.545374 0.310539
0.901961 0.556127 0.320833
1.000000 0.576807 0.341177
1.000000 0.601961 0.366176
0.000000 0.708824 0.261336
0.025000 0.740686 0.291973
0.131970 0.762622 0.311213
0.309720 0.762278 0.309375
0.526930 0.748744 0.292371
0.735784 0.735784 0.277451
0.877451 0.735784 0.274832
0.968918 0.746262 0.284008
1.000000 0.759314 0.297978
0.001961 0.875490 0.293505
0.076103 0.904549 0.318704
0.167187 0.923376 0.329902
0.318857 0.919408 0.318857
0.522304 0.897610 0.290441
0.721691 0.873637 0.260172
0.862745 0.862745 0.243137
0.947197 0.862791 0.239216
1.000000 0.868750 0.240686
0.057353 1.000000 0.330086
0.129596 1.000000 0.344301
0.202543 1.000000 0.345450
0.328071 1.000000 0.327267
0.518627 0.998284 0.292004
0.711389 0.968627 0.252137
0.856357 0.946492 0.223606
0.940280 0.940012 0.212255
0.997855 0.940012 0.205392
0.098039 1.000000 0.344118
0.161274 1.000000 0.351654
0.224510 1.000000 0.346201
0.326532 1.000000 0.327451
0.505883 1.000000 0.286764
0.692647 1.000000 0.243076
0.846446 1.000000 0.208823
0.934313 0.996078 0.190196
0.992157 0.992157 0.182353
0.000000 0.000000 0.786274
0.030147 0.000000 0.761275
0.160294 0.000000 0.719608
0.383088 0.000000 0.653922
0.596078 0.000000 0.596078
0.725981 0.000000 0.561275
0.801961 0.000000 0.547058
0.867892 0.000000 0.545098
0.945098 0.000000 0.556863
0.000000 0.029902 0.716176
0.033395 0.033609 0.701470
0.147549 0.026471 0.676471
0.361274 0.000000 0.627359
0.582108 0.000000 0.582966
0.745588 0.000000 0.560294
0.844546 0.000000 0.560601
0.928186 0.010723 0.574448
0.999020 0.043137 0.603431
0.000000 0.131372 0.645588
0.033885 0.143995 0.650000
0.152574 0.152941 0.646079
0.367218 0.140319 0.623039
0.600000 0.130147 0.600000
0.792463 0.131495 0.592341
0.913725 0.153921 0.604167
0.998284 0.184804 0.625919
1.000000 0.218628 0.654412
0.000000 0.303676 0.558578
0.014215 0.332353 0.586275
0.140196 0.354411 0.602451
0.351471 0.351471 0.596538
0.583578 0.341176 0.583578
0.784283 0.337255 0.576011
0.915563 0.351838 0.587990
1.000000 0.376133 0.612010
1.000000 0.407353 0.642647
0.000000 0.513725 0.512745
0.010294 0.542647 0.542647
0.128431 0.562255 0.562500
0.322304 0.559559 0.559191
0.549019 0.548529 0.549019
0.758456 0.541176 0.542157
0.900980 0.550735 0.550490
0.996568 0.570956 0.570956
1.000000 0.595098 0.595098
0.000000 0.704902 0.493628
0.021906 0.736765 0.523529
0.128431 0.757782 0.541850
0.302451 0.757782 0.538971
0.521078 0.743995 0.520833
0.728707 0.728707 0.503156
0.870588 0.728248 0.500000
0.963143 0.737163 0.507844
1.000000 0.749510 0.518382
0.000981 0.871078 0.520588
0.070833 0.899571 0.544853
0.160539 0.916789 0.553922
0.309314 0.912255 0.542647
0.512500 0.889951 0.511765
0.711213 0.865380 0.479902
0.852941 0.852574 0.460784
0.938235 0.852941 0.453860
1.000000 0.857353 0.450980
0.049265 0.996568 0.550490
0.119853 1.000000 0.564461
0.194117 1.000000 0.564032
0.316422 1.000000 0.545588
0.506618 0.989583 0.506618
0.697702 0.956863 0.463725
0.843137 0.936029 0.430269
0.928677 0.928677 0.414001
0.986520 0.928922 0.402941
0.088235 1.000000 0.558823
0.150245 1.000000 0.562745
0.211275 1.000000 0.555882
0.312990 1.000000 0.536765
0.490196 1.000000 0.490196
0.677451 1.000000 0.442157
0.832843 0.995588 0.400980
0.922794 0.984314 0.377941
0.980392 0.980392 0.362745
0.000000 0.000000 0.889216
0.025980 0.000000 0.873713
0.150981 0.000000 0.844608
0.371630 0.000000 0.791667
0.584313 0.000000 0.743627
0.718137 0.000000 0.718137
0.795098 0.000000 0.711765
0.863725 0.000000 0.715993
0.941176 0.000000 0.731372
0.000000 0.025980 0.850981
0.026448 0.026448 0.847059
0.142280 0.022059 0.829718
0.353432 0.000000 0.791606
0.574356 0.000000 0.755699
0.741176 0.000000 0.741176
0.843581 0.000000 0.747181
0.924510 0.010723 0.768321
0.999020 0.043137 0.799510
0.000000 0.127451 0.811275
0.033287 0.142647 0.821446
0.150981 0.150981 0.827451
0.364675 0.141008 0.811381
0.597059 0.130392 0.793872
0.789415 0.131495 0.789415
0.912837 0.153921 0.805147
0.997748 0.184804 0.828309
1.000000 0.216789 0.860294
0.000000 0.302941 0.749510
0.018137 0.331372 0.780461
0.143061 0.353263 0.801731
0.350513 0.350513 0.799165
0.581617 0.340441 0.787745
0.782904 0.335034 0.783249
0.915563 0.349632 0.797028
1.000000 0.373039 0.823529
1.000000 0.404902 0.856863
0.000000 0.511764 0.717156
0.012990 0.540931 0.748039
0.128431 0.560294 0.769608
0.321538 0.557598 0.769332
0.546078 0.546079 0.761029
0.757108 0.539216 0.757108
0.898039 0.546998 0.768137
0.996568 0.565196 0.789706
1.000000 0.588235 0.814706
0.000000 0.700981 0.701900
0.021147 0.732843 0.733762
0.124510 0.754779 0.754779
0.298529 0.753860 0.754205
0.515472 0.739706 0.739706
0.723468 0.723468 0.723468
0.866299 0.720481 0.720711
0.956863 0.727765 0.727650
1.000000 0.739706 0.739706
0.000000 0.866667 0.736275
0.065564 0.895588 0.760953
0.154228 0.910784 0.772457
0.299402 0.904412 0.761275
0.501471 0.881372 0.731495
0.700000 0.856663 0.700000
0.842402 0.842862 0.679779
0.926777 0.841667 0.673575
0.990073 0.845956 0.670711
0.041177 0.989706 0.768628
0.110294 1.000000 0.782843
0.182353 1.000000 0.782399
0.303362 1.000000 0.764216
0.490993 0.979259 0.725827
0.682537 0.945098 0.683341
0.829779 0.922994 0.649096
0.915303 0.915196 0.630392
0.972855 0.915196 0.623039
0.078431 1.000000 0.777451
0.138909 1.000000 0.781372
0.199878 1.000000 0.775000
0.299448 1.000000 0.752941
0.474510 1.000000 0.709559
0.662255 1.000000 0.662255
0.818137 0.983334 0.621079
0.909314 0.971078 0.594608
0.967157 0.967157 0.578921
0.000000 0.000000 0.954902
0.025980 0.000000 0.939216
0.147059 0.000000 0.912745
0.366177 0.000000 0.862255
0.580392 0.000000 0.817647
0.715319 0.000000 0.798039
0.795098 0.000000 0.795098
0.863725 0.000000 0.805883
0.941176 0.000000 0.825490
0.000000 0.025980 0.922549
0.029473 0.029902 0.919118
0.142280 0.023682 0.908333
0.352941 0.000000 0.876961
0.573039 0.000000 0.845649
0.741667 0.000000 0.835417
0.847948 0.000000 0.847304
0.932291 0.017586 0.871568
0.999510 0.051838 0.905269
0.000000 0.128186 0.896079
0.037837 0.146569 0.911642
0.157292 0.157292 0.921814
0.369700 0.148162 0.911734
0.601348 0.137868 0.899877
0.795833 0.139890 0.899142
0.917831 0.159559 0.918382
0.999142 0.189705 0.944608
1.000000 0.222549 0.976716
0.000000 0.309681 0.851838
0.028570 0.339216 0.886642
0.151961 0.359589 0.911949
0.357092 0.357092 0.912745
0.585723 0.345404 0.904902
0.787286 0.341176 0.903462
0.921752 0.353646 0.921569
1.000000 0.377436 0.952451
1.000000 0.407353 0.988235
0.000000 0.516177 0.829902
0.022059 0.545282 0.864522
0.136397 0.564338 0.888726
0.326716 0.562010 0.893137
0.550490 0.550490 0.889216
0.761213 0.541483 0.889216
0.902696 0.549142 0.902696
1.000000 0.565625 0.928921
1.000000 0.588235 0.955882
0.000000 0.705515 0.826961
0.027313 0.736811 0.860294
0.129044 0.758701 0.884314
0.300980 0.757093 0.887546
0.517157 0.741115 0.877267
0.722549 0.723468 0.864997
0.866299 0.718627 0.865839
0.956449 0.724326 0.877328
1.000000 0.735784 0.892647
0.000981 0.868383 0.868383
0.068168 0.895588 0.895588
0.152696 0.910233 0.910233
0.295098 0.904412 0.904136
0.495588 0.878922 0.879289
0.692616 0.851593 0.851317
0.836030 0.835295 0.836030
0.922549 0.835295 0.835295
0.984069 0.838480 0.838480
0.041177 0.989706 0.912132
0.109375 1.000000 0.926731
0.178339 1.000000 0.933058
0.295542 1.000000 0.919516
0.482843 0.972059 0.884804
0.672059 0.937255 0.847917
0.819975 0.915073 0.819975
0.906862 0.906862 0.807951
0.964706 0.903432 0.801470
0.070588 1.000000 0.933334
0.132353 1.000000 0.940196
0.190196 1.000000 0.937990
0.288235 1.000000 0.923039
0.462255 1.000000 0.884314
0.648039 1.000000 0.841667
0.803922 0.972304 0.803922
0.898039 0.959436 0.785171
0.955882 0.955882 0.773529
0.000000 0.000000 1.000000
0.022549 0.000000 1.000000
0.144118 0.000000 0.974510
0.362255 0.000000 0.925490
0.576470 0.000000 0.879412
0.714216 0.000000 0.858334
0.798039 0.000000 0.855882
0.867647 0.000000 0.867647
0.945588 0.000000 0.887255
0.000000 0.025980 0.984314
0.029902 0.029902 0.980882
0.143138 0.027160 0.969975
0.353248 0.004718 0.938725
0.576471 0.000000 0.909559
0.747143 0.000000 0.900981
0.855454 0.000000 0.913603
0.940142 0.025000 0.940196
1.000000 0.062745 0.974020
0.000000 0.134436 0.960784
0.045956 0.151302 0.976364
0.165686 0.165686 0.987255
0.377451 0.158027 0.980515
0.608578 0.149571 0.970588
0.803554 0.150138 0.970588
0.926532 0.170588 0.987255
1.000000 0.197917 1.000000
1.000000 0.230515 1.000000
0.000000 0.318627 0.921079
0.041667 0.347549 0.956043
0.163725 0.368536 0.983211
0.365886 0.365886 0.985294
0.593474 0.354258 0.977451
0.796507 0.349019 0.977451
0.932430 0.361443 0.997426
1.000000 0.383823 1.000000
1.000000 0.415196 1.000000
0.000000 0.525490 0.900980
0.033823 0.552910 0.935784
0.146752 0.572304 0.963235
0.336121 0.571323 0.969608
0.559804 0.559804 0.965809
0.769761 0.549019 0.965870
0.912868 0.554289 0.982353
1.000000 0.572549 1.000000
1.000000 0.592402 1.000000
0.000000 0.713051 0.900981
0.036788 0.744631 0.936764
0.138909 0.764936 0.960647
0.306373 0.763419 0.967157
0.521078 0.745741 0.956618
0.726470 0.727390 0.945527
0.870221 0.720941 0.946921
0.960600 0.726470 0.960600
1.000000 0.735784 0.976287
0.001961 0.874510 0.946936
0.072871 0.899571 0.972059
0.155974 0.914063 0.987255
0.296431 0.907001 0.983824
0.495588 0.880944 0.960784
0.692157 0.853431 0.934926
0.836030 0.835295 0.922549
0.922549 0.831373 0.922549
0.983334 0.835295 0.926470
0.041177 0.989706 0.990563
0.109804 1.000000 1.000000
0.178064 1.000000 1.000000
0.291666 1.000000 1.000000
0.478922 0.972059 0.972059
0.668138 0.937255 0.937255
0.816054 0.911275 0.911489
0.902941 0.902941 0.902941
0.960784 0.899510 0.899939
0.070588 1.000000 1.000000
0.128922 1.000000 1.000000
0.186274 1.000000 1.000000
0.284130 1.000000 1.000000
0.454902 1.000000 0.979412
0.640196 0.998529 0.940686
0.799510 0.967647 0.906372
0.891176 0.952941 0.891176
0.949020 0.949020 0.883824
0.000000 0.000000 1.000000
0.022549 0.000000 1.000000
0.139216 0.000000 1.000000
0.351961 0.000000 0.983333
0.566666 0.000000 0.939215
0.711765 0.000000 0.917647
0.798039 0.000000 0.914706
0.867647 0.000000 0.925980
0.949020 0.000000 0.949020
0.000000 0.025980 1.000000
0.033333 0.032904 1.000000
0.143138 0.030760 1.000000
0.349510 0.008150 0.998713
0.569118 0.000000 0.969363
0.746875 0.000000 0.959313
0.859314 0.004289 0.974510
0.944118 0.032843 0.997610
1.000000 0.070588 1.000000
0.000000 0.135294 1.000000
0.052451 0.154412 1.000000
0.169608 0.169608 1.000000
0.377819 0.165686 1.000000
0.606862 0.155882 1.000000
0.804412 0.157843 1.000000
0.929657 0.174510 1.000000
1.000000 0.205392 1.000000
1.000000 0.235294 1.000000
0.000000 0.320098 0.986765
0.053431 0.350980 1.000000
0.171569 0.372182 1.000000
0.370098 0.370098 1.000000
0.594118 0.357598 1.000000
0.800429 0.352941 1.000000
0.940196 0.361765 1.000000
1.000000 0.384804 1.000000
1.000000 0.415196 1.000000
0.000000 0.525490 0.962745
0.045588 0.552451 0.995588
0.152941 0.572549 1.000000
0.336765 0.572549 1.000000
0.559804 0.559804 1.000000
0.772794 0.549019 1.000000
0.917647 0.552941 1.000000
1.000000 0.568873 1.000000
1.000000 0.590196 1.000000
0.000000 0.712745 0.957353
0.040993 0.744608 0.993137
0.140809 0.763235 1.000000
0.302451 0.763235 1.000000
0.516422 0.744853 1.000000
0.725000 0.725000 1.000000
0.872059 0.714706 1.000000
0.964522 0.719118 1.000000
1.000000 0.727941 1.000000
0.001961 0.874510 0.994118
0.072549 0.896078 1.000000
0.155883 0.910784 1.000000
0.288358 0.904412 1.000000
0.485294 0.880392 1.000000
0.683333 0.849510 0.990686
0.831373 0.831373 0.976471
0.921569 0.827451 0.976471
0.983334 0.828431 0.983334
0.040687 0.986275 1.000000
0.105882 1.000000 1.000000
0.171446 1.000000 1.000000
0.281189 1.000000 1.000000
0.463235 0.969853 1.000000
0.652451 0.936765 0.993321
0.807844 0.909926 0.967769
0.899019 0.899019 0.956863
0.956863 0.895589 0.956863
0.066667 1.000000 1.000000
0.124510 1.000000 1.000000
0.182353 1.000000 1.000000
0.272549 1.000000 1.000000
0.439215 1.000000 1.000000
0.624510 0.998529 0.998529
0.788235 0.964706 0.964706
0.883824 0.949020 0.949020
0.945098 0.945098 0.945098
