luts/drone/midtone-contrast.cube
TITLE "Midtone Contrast"
LUT_3D_SIZE 33
0.000000 0.000000 0.000000
0.000000 0.000000 0.000000
0.011030 0.000000 0.000000
0.053064 0.000000 0.000000
0.099020 0.000000 0.000000
0.141422 0.000000 0.000000
0.183823 0.000000 0.000000
0.230147 0.000000 0.000000
0.273529 0.000000 0.000000
0.318872 0.000000 0.000000
0.361274 0.000000 0.000000
0.407598 0.000000 0.000000
0.450000 0.000000 0.000000
0.496323 0.000000 0.000000
0.538726 0.000000 0.000000
0.582966 0.000000 0.000000
0.627451 0.000000 0.000000
0.671936 0.000000 0.000000
0.716176 0.000000 0.000000
0.758579 0.000000 0.000000
0.803431 0.000000 0.000000
0.847304 0.000000 0.000000
0.889706 0.000000 0.000000
0.934927 0.000000 0.000000
0.978431 0.000000 0.000000
1.000000 0.000000 0.000000
1.000000 0.000000 0.000000
1.000000 0.000000 0.000000
1.000000 0.000000 0.000000
1.000000 0.000000 0.000000
1.000000 0.000000 0.000000
1.000000 0.000000 0.000000
1.000000 0.000000 0.000000
0.000000 0.000000 0.000000
0.000000 0.000000 0.000000
0.007468 0.000000 0.000000
0.052696 0.000000 0.000000
0.095113 0.000000 0.000000
0.141422 0.000000 0.000000
0.183823 0.000000 0.000000
0.230147 0.000000 0.000000
0.272549 0.000000 0.000000
0.318872 0.000000 0.000000
0.361274 0.000000 0.000000
0.405105 0.000000 0.000000
0.450000 0.000000 0.000000
0.494068 0.000000 0.000000
0.538726 0.000000 0.000000
0.581185 0.000000 0.000000
0.627451 0.000000 0.000000
0.669853 0.000000 0.000000
0.714514 0.000000 0.000000
0.757035 0.000000 0.000000
0.800980 0.000000 0.000000
0.843463 0.000000 0.000000
0.888519 0.000000 0.000000
0.932196 0.000000 0.000000
0.974632 0.000000 0.000000
1.000000 0.000000 0.000000
1.000000 0.000000 0.000000
1.000000 0.000000 0.000000
1.000000 0.000000 0.000000
1.000000 0.000000 0.000000
1.000000 0.000000 0.000000
1.000000 0.000000 0.000000
1.000000 0.000000 0.000000
0.000000 0.007353 0.000000
0.000000 0.007353 0.000000
0.007353 0.007353 0.000000
0.052696 0.007353 0.000000
0.095098 0.007353 0.000000
0.138319 0.007353 0.000000
0.183823 0.007353 0.000000
0.227275 0.007353 0.000000
0.272549 0.007353 0.000000
0.316054 0.003677 0.000000
0.361274 0.003677 0.000000
0.405025 0.003677 0.000000
0.450000 0.003677 0.000000
0.492402 0.003677 0.000000
0.536520 0.003677 0.000000
0.581127 0.000000 0.000000
0.623652 0.000000 0.000000
0.668130 0.000000 0.000000
0.712255 0.000000 0.000000
0.754657 0.000000 0.000000
0.797212 0.000000 0.000000
0.842119 0.000000 0.000000
0.885784 0.000000 0.000000
0.928363 0.000000 0.000000
0.970833 0.000000 0.000000
1.000000 0.000000 0.000000
1.000000 0.000000 0.000000
1.000000 0.000000 0.000000
1.000000 0.000000 0.000000
1.000000 0.000000 0.000000
1.000000 0.000000 0.000000
1.000000 0.000000 0.000000
1.000000 0.000000 0.000000
0.000000 0.049142 0.000000
0.000000 0.049142 0.000000
0.007353 0.049142 0.000000
0.049142 0.049142 0.000000
0.095098 0.049142 0.000000
0.137557 0.048832 0.000000
0.183823 0.048774 0.000000
0.226306 0.048774 0.000000
0.269884 0.048774 0.000000
0.314951 0.045221 0.000000
0.357720 0.045221 0.000000
0.403677 0.045221 0.000000
0.446216 0.044853 0.000000
0.490292 0.044853 0.000000
0.534804 0.041299 0.000000
0.577378 0.041299 0.000000
0.619976 0.041299 0.000000
0.664266 0.040931 0.000000
0.708333 0.037378 0.000000
0.750953 0.037378 0.000000
0.793505 0.037240 0.000000
0.838239 0.033456 0.000000
0.881863 0.033456 0.000000
0.924529 0.033352 0.000000
0.967034 0.029535 0.000000
1.000000 0.029535 0.000000
1.000000 0.028501 0.000000
1.000000 0.025613 0.000000
1.000000 0.025613 0.000000
1.000000 0.024912 0.000000
1.000000 0.021691 0.000000
1.000000 0.021691 0.000000
1.000000 0.021691 0.000000
0.000000 0.095098 0.000000
0.000000 0.095098 0.000000
0.007353 0.095098 0.000000
0.048774 0.095098 0.000000
0.092096 0.092096 0.000000
0.137500 0.091667 0.000000
0.180638 0.091269 0.000000
0.226226 0.091177 0.000000
0.268627 0.091177 0.000000
0.312485 0.091177 0.000000
0.357353 0.087745 0.000000
0.399755 0.087255 0.000000
0.443934 0.087255 0.000000
0.488480 0.087255 0.000000
0.530882 0.083824 0.000000
0.575123 0.083564 0.000000
0.617892 0.083334 0.000000
0.662010 0.081725 0.000000
0.704688 0.079688 0.000000
0.749142 0.079412 0.000000
0.791667 0.078125 0.000000
0.835539 0.075812 0.000000
0.877941 0.075490 0.000000
0.920695 0.074525 0.000000
0.965686 0.071936 0.000000
1.000000 0.070818 0.000000
1.000000 0.068045 0.000000
1.000000 0.067647 0.000000
1.000000 0.067218 0.000000
1.000000 0.063726 0.000000
1.000000 0.063726 0.000000
1.000000 0.059804 0.000000
1.000000 0.059804 0.000000
0.000000 0.137500 0.000000
0.000000 0.137500 0.000000
0.003677 0.137500 0.000000
0.048774 0.137500 0.000000
0.091177 0.134191 0.000000
0.134191 0.134191 0.000000
0.179902 0.134191 0.000000
0.222438 0.133712 0.000000
0.266146 0.133578 0.000000
0.311029 0.130269 0.000000
0.353623 0.130269 0.000000
0.397584 0.129867 0.000000
0.440089 0.129657 0.000000
0.484808 0.126348 0.000000
0.527573 0.126348 0.000000
0.571526 0.125735 0.000000
0.614032 0.122426 0.000000
0.658414 0.122426 0.000000
0.700835 0.122158 0.000000
0.743505 0.118505 0.000000
0.787975 0.118505 0.000000
0.830480 0.116755 0.000000
0.872986 0.114583 0.000000
0.916862 0.114411 0.000000
0.959283 0.110661 0.000000
0.997415 0.110661 0.000000
1.000000 0.106740 0.000000
1.000000 0.106740 0.000000
1.000000 0.105714 0.000000
1.000000 0.102818 0.000000
1.000000 0.102818 0.000000
1.000000 0.098897 0.000000
1.000000 0.098897 0.000000
0.000000 0.179902 0.000000
0.000000 0.179902 0.000000
0.000689 0.179902 0.000000
0.044922 0.177014 0.000000
0.087990 0.176715 0.000000
0.133578 0.176715 0.000000
0.176118 0.176715 0.000000
0.219117 0.175980 0.000000
0.262316 0.172794 0.000000
0.307314 0.172794 0.000000
0.349740 0.172289 0.000000
0.393742 0.168872 0.000000
0.436244 0.168872 0.000000
0.480936 0.168436 0.000000
0.523361 0.164951 0.000000
0.566177 0.164951 0.000000
0.610172 0.164583 0.000000
0.652673 0.161029 0.000000
0.695588 0.161029 0.000000
0.739407 0.159000 0.000000
0.781832 0.157108 0.000000
0.824510 0.156855 0.000000
0.866912 0.153187 0.000000
0.911604 0.152980 0.000000
0.954106 0.149264 0.000000
0.994447 0.149264 0.000000
1.000000 0.145344 0.000000
1.000000 0.145344 0.000000
1.000000 0.141422 0.000000
1.000000 0.141422 0.000000
1.000000 0.141176 0.000000
1.000000 0.137500 0.000000
1.000000 0.137500 0.000000
0.000000 0.222304 0.000000
0.000000 0.222304 0.000000
0.000000 0.219240 0.000000
0.041012 0.219240 0.000000
0.084575 0.219240 0.000000
0.129657 0.218516 0.000000
0.172220 0.215893 0.000000
0.215989 0.215319 0.000000
0.258486 0.215319 0.000000
0.303428 0.212259 0.000000
0.345856 0.211397 0.000000
0.388848 0.211397 0.000000
0.432399 0.208624 0.000000
0.474897 0.207476 0.000000
0.519493 0.206993 0.000000
0.561922 0.203554 0.000000
0.604350 0.203554 0.000000
0.647182 0.201260 0.000000
0.691307 0.199633 0.000000
0.733804 0.198039 0.000000
0.776302 0.195711 0.000000
0.819363 0.194363 0.000000
0.861887 0.191789 0.000000
0.904412 0.190927 0.000000
0.946936 0.187868 0.000000
0.988415 0.187010 0.000000
1.000000 0.183946 0.000000
1.000000 0.183333 0.000000
1.000000 0.180025 0.000000
1.000000 0.179737 0.000000
1.000000 0.176103 0.000000
1.000000 0.176103 0.000000
1.000000 0.173039 0.000000
0.000000 0.264706 0.000000
0.000000 0.264706 0.000000
0.000000 0.264706 0.000000
0.037378 0.260876 0.000000
0.083334 0.260784 0.000000
0.125735 0.260784 0.000000
0.168872 0.257843 0.000000
0.212163 0.256863 0.000000
0.256863 0.256863 0.000000
0.299264 0.253922 0.000000
0.341973 0.252942 0.000000
0.385417 0.251011 0.000000
0.428554 0.250000 0.000000
0.472794 0.249020 0.000000
0.515196 0.246078 0.000000
0.557598 0.245098 0.000000
0.600000 0.243627 0.000000
0.642923 0.241697 0.000000
0.685355 0.239890 0.000000
0.727788 0.237837 0.000000
0.772059 0.236152 0.000000
0.814583 0.233977 0.000000
0.857108 0.232414 0.000000
0.899908 0.230116 0.000000
0.942157 0.228677 0.000000
0.984681 0.226257 0.000000
1.000000 0.222549 0.000000
1.000000 0.221569 0.000000
1.000000 0.218627 0.000000
1.000000 0.217647 0.000000
1.000000 0.214645 0.000000
1.000000 0.213725 0.000000
1.000000 0.212745 0.000000
0.000000 0.304289 0.000000
0.000000 0.304289 0.000000
0.000000 0.304289 0.000000
0.034455 0.303290 0.000000
0.076945 0.300720 0.000000
0.121986 0.300368 0.000000
0.165318 0.300368 0.000000
0.208337 0.296446 0.000000
0.250827 0.296446 0.000000
0.293627 0.293627 0.000000
0.338090 0.292524 0.000000
0.380526 0.292524 0.000000
0.423652 0.288603 0.000000
0.466054 0.288603 0.000000
0.508456 0.286397 0.000000
0.552179 0.284681 0.000000
0.594669 0.282721 0.000000
0.637745 0.280760 0.000000
0.680270 0.279044 0.000000
0.722794 0.276838 0.000000
0.765319 0.273606 0.000000
0.807843 0.272917 0.000000
0.850368 0.269754 0.000000
0.892892 0.268995 0.000000
0.935417 0.265073 0.000000
0.977941 0.264457 0.000000
1.000000 0.261152 0.000000
1.000000 0.258161 0.000000
1.000000 0.257230 0.000000
1.000000 0.254309 0.000000
1.000000 0.253309 0.000000
1.000000 0.250490 0.000000
1.000000 0.249387 0.000000
0.000000 0.345588 0.000000
0.000000 0.342977 0.000000
0.000000 0.342892 0.000000
0.030392 0.342892 0.000000
0.073131 0.342892 0.000000
0.115809 0.338971 0.000000
0.160524 0.338971 0.000000
0.202964 0.335907 0.000000
0.246323 0.335049 0.000000
0.289484 0.335049 0.000000
0.331970 0.331128 0.000000
0.374456 0.331128 0.000000
0.417402 0.327205 0.000000
0.459927 0.327205 0.000000
0.502451 0.323284 0.000000
0.544975 0.323284 0.000000
0.587500 0.319362 0.000000
0.630025 0.319362 0.000000
0.672549 0.315441 0.000000
0.716169 0.315441 0.000000
0.757598 0.311520 0.000000
0.800123 0.310593 0.000000
0.842647 0.307598 0.000000
0.885171 0.304557 0.000000
0.927696 0.303677 0.000000
0.970221 0.299755 0.000000
1.000000 0.299249 0.000000
1.000000 0.295833 0.000000
1.000000 0.292984 0.000000
1.000000 0.291911 0.000000
1.000000 0.289139 0.000000
1.000000 0.287990 0.000000
1.000000 0.285294 0.000000
0.000000 0.385417 0.000000
0.000000 0.385417 0.000000
0.000000 0.381656 0.000000
0.025372 0.381495 0.000000
0.068995 0.381495 0.000000
0.111397 0.378186 0.000000
0.154282 0.377574 0.000000
0.196764 0.377574 0.000000
0.239583 0.373652 0.000000
0.282108 0.373652 0.000000
0.326401 0.369731 0.000000
0.368846 0.369731 0.000000
0.411290 0.365809 0.000000
0.454534 0.364281 0.000000
0.496936 0.361887 0.000000
0.539338 0.360520 0.000000
0.581740 0.357966 0.000000
0.624142 0.356127 0.000000
0.666544 0.354044 0.000000
0.707353 0.350923 0.000000
0.749877 0.349158 0.000000
0.792402 0.346201 0.000000
0.834927 0.343206 0.000000
0.877451 0.342280 0.000000
0.919975 0.339369 0.000000
0.962500 0.337795 0.000000
0.997909 0.333954 0.000000
1.000000 0.331652 0.000000
1.000000 0.330193 0.000000
1.000000 0.326593 0.000000
1.000000 0.324020 0.000000
1.000000 0.322672 0.000000
1.000000 0.322672 0.000000
0.000000 0.426471 0.000000
0.000000 0.426471 0.000000
0.000000 0.424173 0.000000
0.021323 0.422549 0.000000
0.063910 0.420404 0.000000
0.106740 0.418857 0.000000
0.149264 0.418628 0.000000
0.191789 0.416176 0.000000
0.235417 0.414706 0.000000
0.277895 0.411198 0.000000
0.320374 0.409099 0.000000
0.362852 0.407368 0.000000
0.405331 0.405331 0.000000
0.447810 0.403539 0.000000
0.490288 0.401562 0.000000
0.532767 0.399709 0.000000
0.575245 0.396569 0.000000
0.617724 0.395098 0.000000
0.660202 0.392004 0.000000
0.702083 0.390181 0.000000
0.744608 0.387255 0.000000
0.787132 0.384804 0.000000
0.827972 0.382567 0.000000
0.870420 0.380468 0.000000
0.912868 0.376961 0.000000
0.954167 0.374954 0.000000
0.993628 0.371569 0.000000
1.000000 0.368888 0.000000
1.000000 0.367341 0.000000
1.000000 0.363726 0.000000
1.000000 0.361182 0.000000
1.000000 0.359804 0.000000
1.000000 0.355882 0.000000
0.000000 0.466544 0.000000
0.000000 0.462622 0.000000
0.000000 0.462622 0.000000
0.015659 0.462622 0.000000
0.057966 0.458900 0.000000
0.100490 0.458701 0.000000
0.143015 0.456809 0.000000
0.185539 0.454779 0.000000
0.229810 0.451839 0.000000
0.272262 0.450858 0.000000
0.314714 0.448162 0.000000
0.356682 0.446936 0.000000
0.398162 0.443015 0.000000
0.440686 0.441632 0.000000
0.483211 0.439093 0.000000
0.525735 0.437010 0.000000
0.568260 0.435171 0.000000
0.610784 0.432096 0.000000
0.653309 0.430231 0.000000
0.695833 0.427328 0.000000
0.735907 0.424403 0.000000
0.778309 0.422607 0.000000
0.820711 0.419485 0.000000
0.862458 0.416709 0.000000
0.904933 0.414982 0.000000
0.947059 0.411133 0.000000
0.988549 0.409015 0.000000
1.000000 0.405143 0.000000
1.000000 0.403508 0.000000
1.000000 0.401321 0.000000
1.000000 0.397549 0.000000
1.000000 0.395956 0.000000
1.000000 0.393628 0.000000
0.000000 0.501225 0.000000
0.000000 0.501225 0.000000
0.000000 0.501225 0.000000
0.008663 0.501225 0.000000
0.052175 0.497304 0.000000
0.094631 0.497304 0.000000
0.138480 0.493704 0.000000
0.180882 0.493382 0.000000
0.223285 0.489461 0.000000
0.265686 0.487875 0.000000
0.308088 0.485540 0.000000
0.350490 0.482966 0.000000
0.391820 0.481617 0.000000
0.432966 0.478393 0.000000
0.475490 0.476456 0.000000
0.518015 0.473774 0.000000
0.560539 0.470711 0.000000
0.603064 0.468819 0.000000
0.643383 0.465931 0.000000
0.685784 0.463028 0.000000
0.727359 0.461182 0.000000
0.769240 0.457330 0.000000
0.811765 0.455346 0.000000
0.854289 0.451478 0.000000
0.895160 0.449694 0.000000
0.936275 0.445841 0.000000
0.978263 0.443796 0.000000
1.000000 0.439928 0.000000
1.000000 0.438205 0.000000
1.000000 0.434558 0.000000
1.000000 0.432353 0.000000
1.000000 0.430638 0.000000
1.000000 0.428431 0.000000
0.000000 0.539829 0.000000
0.000000 0.539829 0.000000
0.000000 0.539829 0.000000
0.003554 0.536079 0.000000
0.045956 0.535907 0.000000
0.088358 0.532598 0.000000
0.130760 0.531985 0.000000
0.173162 0.528466 0.000000
0.215564 0.528064 0.000000
0.257966 0.524142 0.000000
0.298936 0.522710 0.000000
0.340196 0.520221 0.000000
0.382720 0.516988 0.000000
0.425245 0.515062 0.000000
0.467770 0.512378 0.000000
0.509318 0.509318 0.000000
0.550858 0.507414 0.000000
0.593260 0.503558 0.000000
0.634750 0.501647 0.000000
0.676471 0.497783 0.000000
0.718995 0.495910 0.000000
0.760153 0.492770 0.000000
0.802612 0.490112 0.000000
0.843164 0.486765 0.000000
0.885631 0.484406 0.000000
0.927696 0.480549 0.000000
0.968528 0.478577 0.000000
1.000000 0.474713 0.000000
1.000000 0.471078 0.000000
1.000000 0.469045 0.000000
1.000000 0.467042 0.000000
1.000000 0.465254 0.000000
1.000000 0.463235 0.000000
0.000000 0.580392 0.000000
0.000000 0.580392 0.000000
0.000000 0.576716 0.000000
0.000000 0.576470 0.000000
0.040196 0.574755 0.000000
0.080944 0.572549 0.000000
0.123407 0.568995 0.000000
0.165870 0.567096 0.000000
0.208333 0.565196 0.000000
0.249387 0.562745 0.000000
0.291911 0.559436 0.000000
0.333762 0.557537 0.000000
0.376226 0.554902 0.000000
0.418689 0.551777 0.000000
0.460294 0.549877 0.000000
0.501654 0.546017 0.000000
0.544118 0.544118 0.000000
0.585662 0.540258 0.000000
0.627083 0.538358 0.000000
0.669547 0.534498 0.000000
0.710049 0.532598 0.000000
0.752512 0.528738 0.000000
0.794363 0.526838 0.000000
0.835478 0.522978 0.000000
0.877941 0.519608 0.000000
0.918443 0.517218 0.000000
0.960539 0.513358 0.000000
0.998345 0.511459 0.000000
1.000000 0.507598 0.000000
1.000000 0.503738 0.000000
1.000000 0.501838 0.000000
1.000000 0.498040 0.000000
1.000000 0.496078 0.000000
0.000000 0.617034 0.000000
0.000000 0.617034 0.000000
0.000000 0.615311 0.000000
0.000000 0.613113 0.000000
0.031005 0.613113 0.000000
0.073529 0.609517 0.000000
0.116054 0.607698 0.000000
0.158578 0.605269 0.000000
0.201103 0.601869 0.000000
0.243110 0.600027 0.000000
0.285578 0.597426 0.000000
0.327328 0.594221 0.000000
0.368581 0.592356 0.000000
0.411041 0.588492 0.000000
0.452329 0.586573 0.000000
0.493991 0.582717 0.000000
0.536459 0.580821 0.000000
0.576957 0.576957 0.000000
0.619416 0.575069 0.000000
0.661029 0.571212 0.000000
0.702405 0.568137 0.000000
0.743505 0.565422 0.000000
0.785332 0.561558 0.000000
0.827206 0.559708 0.000000
0.868352 0.555852 0.000000
0.910417 0.552451 0.000000
0.951249 0.550023 0.000000
0.991831 0.546159 0.000000
1.000000 0.544118 0.000000
1.000000 0.540491 0.000000
1.000000 0.536765 0.000000
1.000000 0.534624 0.000000
1.000000 0.532843 0.000000
0.000000 0.653922 0.000000
0.000000 0.653922 0.000000
0.000000 0.651716 0.000000
0.000000 0.650161 0.000000
0.023284 0.647795 0.000000
0.065809 0.646347 0.000000
0.108012 0.643873 0.000000
0.150483 0.640434 0.000000
0.192402 0.638664 0.000000
0.234804 0.636030 0.000000
0.276026 0.632797 0.000000
0.317034 0.630392 0.000000
0.359559 0.627114 0.000000
0.401386 0.624264 0.000000
0.442892 0.621308 0.000000
0.484383 0.617456 0.000000
0.525735 0.615564 0.000000
0.567348 0.611696 0.000000
0.608578 0.608578 0.000000
0.650284 0.605966 0.000000
0.691912 0.602114 0.000000
0.733311 0.599020 0.000000
0.773728 0.596277 0.000000
0.816184 0.592410 0.000000
0.856802 0.590196 0.000000
0.898897 0.586772 0.000000
0.939629 0.582920 0.000000
0.981740 0.579412 0.000000
1.000000 0.575490 0.000000
1.000000 0.573124 0.000000
1.000000 0.571431 0.000000
1.000000 0.567647 0.000000
1.000000 0.565441 0.000000
0.000000 0.690319 0.000000
0.000000 0.688775 0.000000
0.000000 0.686542 0.000000
0.000000 0.686397 0.000000
0.015763 0.684804 0.000000
0.057476 0.681131 0.000000
0.099877 0.678990 0.000000
0.141035 0.675142 0.000000
0.181740 0.673438 0.000000
0.224265 0.670711 0.000000
0.266291 0.667517 0.000000
0.307966 0.665196 0.000000
0.349372 0.661872 0.000000
0.390441 0.658000 0.000000
0.432269 0.656043 0.000000
0.474744 0.652194 0.000000
0.515257 0.649510 0.000000
0.556618 0.646435 0.000000
0.598246 0.642563 0.000000
0.638691 0.638691 0.000000
0.681143 0.636872 0.000000
0.721749 0.633023 0.000000
0.763725 0.629902 0.000000
0.804576 0.625980 0.000000
0.846446 0.622059 0.000000
0.887726 0.619382 0.000000
0.928010 0.615510 0.000000
0.968753 0.613603 0.000000
1.000000 0.609804 0.000000
1.000000 0.606372 0.000000
1.000000 0.602451 0.000000
1.000000 0.600073 0.000000
1.000000 0.598529 0.000000
0.000000 0.727941 0.000000
0.000000 0.726516 0.000000
0.000000 0.726470 0.000000
0.000000 0.722549 0.000000
0.006863 0.721262 0.000000
0.047916 0.717387 0.000000
0.090166 0.715165 0.000000
0.132644 0.713235 0.000000
0.175122 0.709682 0.000000
0.215855 0.705806 0.000000
0.256617 0.703707 0.000000
0.298637 0.699862 0.000000
0.341115 0.697549 0.000000
0.381725 0.694225 0.000000
0.422794 0.690349 0.000000
0.464629 0.687622 0.000000
0.506372 0.684559 0.000000
0.547595 0.681863 0.000000
0.588143 0.677941 0.000000
0.630622 0.674893 0.000000
0.671017 0.671017 0.000000
0.712622 0.667142 0.000000
0.754136 0.664951 0.000000
0.794439 0.661152 0.000000
0.836275 0.657720 0.000000
0.877650 0.653876 0.000000
0.917861 0.650031 0.000000
0.959927 0.646569 0.000000
0.998713 0.642647 0.000000
1.000000 0.640058 0.000000
1.000000 0.636182 0.000000
1.000000 0.632353 0.000000
1.000000 0.628431 0.000000
0.000000 0.763603 0.000000
0.000000 0.762297 0.000000
0.000000 0.762255 0.000000
0.000000 0.758459 0.000000
0.002252 0.758333 0.000000
0.042034 0.754623 0.000000
0.083341 0.752321 0.000000
0.123775 0.748479 0.000000
0.166299 0.746905 0.000000
0.208444 0.743026 0.000000
0.249196 0.739147 0.000000
0.289951 0.737037 0.000000
0.331970 0.733195 0.000000
0.373652 0.730882 0.000000
0.415051 0.727551 0.000000
0.456128 0.723671 0.000000
0.497978 0.719791 0.000000
0.538461 0.717279 0.000000
0.579779 0.714070 0.000000
0.621503 0.710229 0.000000
0.661872 0.706388 0.000000
0.702547 0.703431 0.000000
0.744607 0.699510 0.000000
0.785283 0.695588 0.000000
0.826072 0.691667 0.000000
0.868260 0.687745 0.000000
0.908693 0.684919 0.000000
0.949598 0.681040 0.000000
0.988526 0.679412 0.000000
1.000000 0.675613 0.000000
1.000000 0.671898 0.000000
1.000000 0.668137 0.000000
1.000000 0.665564 0.000000
0.000000 0.798285 0.000000
0.000000 0.797097 0.000000
0.000000 0.797059 0.000000
0.000000 0.794363 0.000000
0.000000 0.790778 0.000000
0.030813 0.789407 0.000000
0.073300 0.787025 0.000000
0.114239 0.783188 0.000000
0.156679 0.781373 0.000000
0.196837 0.777451 0.000000
0.239323 0.773912 0.000000
0.280078 0.770029 0.000000
0.320833 0.767157 0.000000
0.362860 0.764086 0.000000
0.403477 0.760248 0.000000
0.444485 0.756411 0.000000
0.486397 0.753922 0.000000
0.526876 0.750000 0.000000
0.567448 0.746078 0.000000
0.609436 0.742885 0.000000
0.650276 0.739001 0.000000
0.690985 0.735118 0.000000
0.733088 0.733088 0.000000
0.772916 0.729289 0.000000
0.814522 0.725490 0.000000
0.854634 0.721691 0.000000
0.895573 0.717892 0.000000
0.937868 0.714093 0.000000
0.978033 0.710447 0.000000
1.000000 0.706610 0.000000
1.000000 0.702941 0.000000
1.000000 0.699020 0.000000
1.000000 0.699020 0.000000
0.000000 0.832966 0.000000
0.000000 0.831897 0.000000
0.000000 0.829220 0.000000
0.000000 0.828044 0.000000
0.000000 0.825475 0.000000
0.019363 0.824020 0.000000
0.061681 0.820305 0.000000
0.103309 0.816418 0.000000
0.145129 0.814062 0.000000
0.185539 0.810229 0.000000
0.227719 0.808334 0.000000
0.268516 0.804412 0.000000
0.309191 0.800490 0.000000
0.350612 0.797017 0.000000
0.391904 0.793129 0.000000
0.432326 0.789243 0.000000
0.474265 0.786765 0.000000
0.515292 0.782966 0.000000
0.555875 0.779167 0.000000
0.596243 0.775367 0.000000
0.636933 0.771982 0.000000
0.679044 0.768149 0.000000
0.719631 0.764315 0.000000
0.760482 0.760482 0.000000
0.802696 0.756648 0.000000
0.841541 0.753190 0.000000
0.883824 0.748981 0.000000
0.923530 0.745148 0.000000
0.964951 0.741667 0.000000
1.000000 0.737745 0.000000
1.000000 0.733824 0.000000
1.000000 0.730970 0.000000
1.000000 0.729902 0.000000
0.000000 0.869608 0.000000
0.000000 0.868627 0.000000
0.000000 0.864951 0.000000
0.000000 0.863818 0.000000
0.000000 0.860784 0.000000
0.012408 0.857322 0.000000
0.051226 0.855882 0.000000
0.093535 0.851961 0.000000
0.134559 0.848284 0.000000
0.174877 0.844394 0.000000
0.216421 0.841422 0.000000
0.257935 0.837623 0.000000
0.298162 0.834436 0.000000
0.340074 0.830606 0.000000
0.381311 0.826777 0.000000
0.421722 0.822947 0.000000
0.462255 0.820588 0.000000
0.503309 0.816667 0.000000
0.544853 0.812745 0.000000
0.585631 0.808824 0.000000
0.626348 0.804902 0.000000
0.666575 0.800980 0.000000
0.707414 0.797059 0.000000
0.749632 0.793137 0.000000
0.789216 0.789216 0.000000
0.830760 0.785294 0.000000
0.870895 0.781373 0.000000
0.911887 0.777451 0.000000
0.951839 0.773529 0.000000
0.992004 0.769608 0.000000
1.000000 0.765686 0.000000
1.000000 0.762715 0.000000
1.000000 0.758823 0.000000
0.000000 0.905392 0.000000
0.000000 0.902424 0.000000
0.000000 0.901470 0.000000
0.000000 0.898694 0.000000
0.000000 0.897549 0.000000
0.005170 0.893761 0.000000
0.042364 0.891138 0.000000
0.084191 0.887313 0.000000
0.125950 0.883486 0.000000
0.166176 0.881863 0.000000
0.207843 0.877941 0.000000
0.249315 0.874020 0.000000
0.289507 0.870098 0.000000
0.331495 0.866176 0.000000
0.370580 0.862255 0.000000
0.412622 0.858735 0.000000
0.453615 0.854840 0.000000
0.494152 0.850946 0.000000
0.536275 0.847051 0.000000
0.575226 0.844976 0.000000
0.617402 0.839262 0.000000
0.656300 0.837377 0.000000
0.698530 0.831472 0.000000
0.738852 0.827577 0.000000
0.779657 0.823039 0.000000
0.819788 0.819118 0.000000
0.860784 0.815196 0.000000
0.900724 0.811274 0.000000
0.942019 0.807353 0.000000
0.984149 0.803431 0.000000
1.000000 0.799510 0.000000
1.000000 0.799387 0.000000
1.000000 0.795588 0.000000
0.000000 0.937010 0.000000
0.000000 0.936274 0.000000
0.000000 0.933288 0.000000
0.000000 0.932353 0.000000
0.000000 0.929565 0.000000
0.000000 0.928431 0.000000
0.030744 0.924510 0.000000
0.072671 0.920588 0.000000
0.114400 0.916850 0.000000
0.154327 0.912952 0.000000
0.196324 0.909053 0.000000
0.235662 0.906250 0.000000
0.277451 0.902451 0.000000
0.318681 0.898652 0.000000
0.358992 0.894853 0.000000
0.399609 0.891054 0.000000
0.440074 0.887255 0.000000
0.482231 0.883456 0.000000
0.521155 0.879657 0.000000
0.563358 0.875858 0.000000
0.602696 0.872059 0.000000
0.644486 0.868260 0.000000
0.684819 0.864461 0.000000
0.725613 0.860662 0.000000
0.765747 0.856863 0.000000
0.806740 0.850000 0.000000
0.846676 0.846078 0.000000
0.887868 0.842157 0.000000
0.927604 0.838235 0.000000
