luts/drone/midtone-contrast.cube
TITLE "Midtone Contrast"
LUT_3D_SIZE 5
0.000000 0.000000 0.000000
0.273529 0.000000 0.000000
0.627451 0.000000 0.000000
0.978431 0.000000 0.000000
1.000000 0.000000 0.000000
0.000000 0.264706 0.000000
0.256863 0.256863 0.000000
0.600000 0.243627 0.000000
0.942157 0.228677 0.000000
1.000000 0.212745 0.000000
0.000000 0.580392 0.000000
0.208333 0.565196 0.000000
0.544118 0.544118 0.000000
0.877941 0.519608 0.000000
1.000000 0.496078 0.000000
0.000000 0.869608 0.000000
0.134559 0.848284 0.000000
0.462255 0.820588 0.000000
0.789216 0.789216 0.000000
1.000000 0.758823 0.000000
0.000000 1.000000 0.000000
0.038235 1.000000 0.000000
0.362745 1.000000 0.000000
0.687255 1.000000 0.000000
1.000000 1.000000 0.000000
0.000000 0.000000 0.276471
0.272549 0.000000 0.272549
0.623530 0.000000 0.268627
0.974509 0.000000 0.260784
1.000000 0.000000 0.250000
0.000000 0.260784 0.260784
0.249265 0.249265 0.249081
0.592157 0.235784 0.235784
0.932108 0.218382 0.218382
1.000000 0.201225 0.201226
0.000000 0.572549 0.215686
0.198162 0.555025 0.198162
0.531618 0.532353 0.175000
0.863848 0.507353 0.150613
1.000000 0.482353 0.125490
0.000000 0.857843 0.144118
0.120588 0.836336 0.120956
0.449020 0.805882 0.092157
0.774816 0.774816 0.061152
1.000000 0.743137 0.029657
0.000000 1.000000 0.050000
0.026471 1.000000 0.025736
0.349510 1.000000 0.000000
0.671569 1.000000 0.000000
0.996078 0.996078 0.000000
0.000000 0.000000 0.631373
0.269608 0.000000 0.627451
0.621569 0.000000 0.622549
0.970588 0.000000 0.613235
1.000000 0.000000 0.603921
0.000000 0.256863 0.613235
0.245098 0.245098 0.602084
0.586765 0.229657 0.587500
0.926471 0.211887 0.568628
1.000000 0.194118 0.551961
0.000000 0.564706 0.565686
0.190686 0.547549 0.547549
0.524019 0.524019 0.523529
0.855882 0.497794 0.497794
1.000000 0.472550 0.472549
0.000000 0.849510 0.491176
0.112132 0.825490 0.468628
0.437990 0.795588 0.438235
0.764828 0.764828 0.406863
1.000000 0.731863 0.375000
0.000000 1.000000 0.396079
0.014706 1.000000 0.371078
0.337255 1.000000 0.337255
0.659804 1.000000 0.303431
0.984314 0.984314 0.268628
0.000000 0.000000 0.985294
0.268627 0.000000 0.982353
0.619608 0.000000 0.977451
0.966666 0.000000 0.966666
1.000000 0.000000 0.954902
0.000000 0.252942 0.966666
0.241176 0.241176 0.954902
0.580760 0.224020 0.938848
0.918872 0.205699 0.919424
1.000000 0.186274 0.901961
0.000000 0.558823 0.915686
0.182843 0.539706 0.896446
0.515686 0.514706 0.872304
0.846078 0.489216 0.846079
1.000000 0.462745 0.819608
0.000000 0.838236 0.838236
0.100980 0.816299 0.816299
0.428799 0.785294 0.785294
0.753186 0.753186 0.752635
1.000000 0.720343 0.720343
0.000000 1.000000 0.742157
0.005882 1.000000 0.716421
0.325000 1.000000 0.682353
0.648039 1.000000 0.648039
0.971569 0.971569 0.613726
0.000000 0.000000 1.000000
0.265686 0.000000 1.000000
0.615687 0.000000 1.000000
0.961765 0.000000 1.000000
1.000000 0.000000 1.000000
0.000000 0.245098 1.000000
0.233579 0.233579 1.000000
0.572549 0.216176 1.000000
0.908578 0.195098 1.000000
1.000000 0.177451 1.000000
0.000000 0.549019 1.000000
0.171079 0.527451 1.000000
0.501961 0.501961 1.000000
0.832353 0.474020 1.000000
1.000000 0.449020 1.000000
0.000000 0.822549 1.000000
0.085049 0.798774 1.000000
0.409804 0.767647 1.000000
0.734314 0.734314 1.000000
1.000000 0.703921 1.000000
0.000000 1.000000 1.000000
0.000000 1.000000 1.000000
0.305883 1.000000 1.000000
0.628431 0.984314 0.984314
0.952941 0.952941 0.952941
