luts/drone/midtone-contrast.cube
TITLE "Midtone Contrast"
LUT_3D_SIZE 9
0.000000 0.000000 0.000000
0.099020 0.000000 0.000000
0.273529 0.000000 0.000000
0.450000 0.000000 0.000000
0.627451 0.000000 0.000000
0.803431 0.000000 0.000000
0.978431 0.000000 0.000000
1.000000 0.000000 0.000000
1.000000 0.000000 0.000000
0.000000 0.095098 0.000000
0.092096 0.092096 0.000000
0.268627 0.091177 0.000000
0.443934 0.087255 0.000000
0.617892 0.083334 0.000000
0.791667 0.078125 0.000000
0.965686 0.071936 0.000000
1.000000 0.067218 0.000000
1.000000 0.059804 0.000000
0.000000 0.264706 0.000000
0.083334 0.260784 0.000000
0.256863 0.256863 0.000000
0.428554 0.250000 0.000000
0.600000 0.243627 0.000000
0.772059 0.236152 0.000000
0.942157 0.228677 0.000000
1.000000 0.218627 0.000000
1.000000 0.212745 0.000000
0.000000 0.426471 0.000000
0.063910 0.420404 0.000000
0.235417 0.414706 0.000000
0.405331 0.405331 0.000000
0.575245 0.396569 0.000000
0.744608 0.387255 0.000000
0.912868 0.376961 0.000000
1.000000 0.367341 0.000000
1.000000 0.355882 0.000000
0.000000 0.580392 0.000000
0.040196 0.574755 0.000000
0.208333 0.565196 0.000000
0.376226 0.554902 0.000000
0.544118 0.544118 0.000000
0.710049 0.532598 0.000000
0.877941 0.519608 0.000000
1.000000 0.507598 0.000000
1.000000 0.496078 0.000000
0.000000 0.727941 0.000000
0.006863 0.721262 0.000000
0.175122 0.709682 0.000000
0.341115 0.697549 0.000000
0.506372 0.684559 0.000000
0.671017 0.671017 0.000000
0.836275 0.657720 0.000000
0.998713 0.642647 0.000000
1.000000 0.628431 0.000000
0.000000 0.869608 0.000000
0.000000 0.860784 0.000000
0.134559 0.848284 0.000000
0.298162 0.834436 0.000000
0.462255 0.820588 0.000000
0.626348 0.804902 0.000000
0.789216 0.789216 0.000000
0.951839 0.773529 0.000000
1.000000 0.758823 0.000000
0.000000 1.000000 0.000000
0.000000 0.993137 0.000000
0.089093 0.982843 0.000000
0.251471 0.967157 0.000000
0.415441 0.949755 0.000000
0.577267 0.934314 0.000000
0.739093 0.919117 0.000000
0.900490 0.900490 0.000000
1.000000 0.885294 0.000000
0.000000 1.000000 0.000000
0.000000 1.000000 0.000000
0.038235 1.000000 0.000000
0.200490 1.000000 0.000000
0.362745 1.000000 0.000000
0.525000 1.000000 0.000000
0.687255 1.000000 0.000000
0.846078 1.000000 0.000000
1.000000 1.000000 0.000000
0.000000 0.000000 0.099020
0.095098 0.000000 0.095098
0.272549 0.000000 0.095098
0.450000 0.000000 0.091667
0.625490 0.000000 0.091177
0.800980 0.000000 0.087255
0.974509 0.000000 0.083334
1.000000 0.000000 0.079412
1.000000 0.000000 0.075490
0.000000 0.095098 0.094669
0.091177 0.091177 0.091177
0.265732 0.087377 0.087270
0.442157 0.083518 0.083357
0.614185 0.079412 0.079412
0.787745 0.072327 0.072327
0.958869 0.067647 0.067647
1.000000 0.059804 0.059804
1.000000 0.055393 0.055393
0.000000 0.260784 0.083334
0.079412 0.256878 0.079412
0.252942 0.252942 0.072273
0.424020 0.245098 0.067647
0.594608 0.237745 0.059804
0.765686 0.230024 0.051961
0.935294 0.221569 0.043474
1.000000 0.213404 0.032782
1.000000 0.205025 0.027451
0.000000 0.422549 0.064032
0.059804 0.415050 0.059804
0.229779 0.407368 0.051961
0.399571 0.399571 0.042777
0.568719 0.390104 0.032598
0.736834 0.380331 0.023706
0.905254 0.369026 0.013725
1.000000 0.359497 0.003432
1.000000 0.348346 0.000000
0.000000 0.574755 0.040196
0.032414 0.568628 0.032414
0.201961 0.557537 0.023223
0.369118 0.547794 0.012653
0.535417 0.536274 0.003432
0.702206 0.524755 0.000000
0.868199 0.511275 0.000000
1.000000 0.498040 0.000000
1.000000 0.486520 0.000000
0.000000 0.722549 0.008150
0.003432 0.713580 0.003432
0.167279 0.701838 0.000000
0.332468 0.689775 0.000000
0.497396 0.676716 0.000000
0.662255 0.662370 0.000000
0.827328 0.647718 0.000000
0.989706 0.634498 0.000000
1.000000 0.620588 0.000000
0.000000 0.861765 0.000000
0.000000 0.852987 0.000000
0.126716 0.840441 0.000000
0.290686 0.825092 0.000000
0.453125 0.811275 0.000000
0.616575 0.795956 0.000000
0.780729 0.780637 0.000000
0.943627 0.765318 0.000000
1.000000 0.748406 0.000000
0.000000 0.993566 0.000000
0.000000 0.986328 0.000000
0.081266 0.972748 0.000000
0.243627 0.957437 0.000000
0.405882 0.941912 0.000000
0.568137 0.924617 0.000000
0.730392 0.908701 0.000000
0.892272 0.892218 0.000000
1.000000 0.874448 0.000000
0.000000 1.000000 0.000000
0.000000 1.000000 0.000000
0.030392 1.000000 0.000000
0.192647 1.000000 0.000000
0.354902 1.000000 0.000000
0.517157 1.000000 0.000000
0.676838 1.000000 0.000000
0.837806 1.000000 0.000000
1.000000 1.000000 0.000000
0.000000 0.000000 0.276471
0.095098 0.000000 0.273529
0.272549 0.000000 0.272549
0.450000 0.000000 0.269608
0.623530 0.000000 0.268627
0.799510 0.000000 0.264706
0.974509 0.000000 0.260784
1.000000 0.000000 0.253922
1.000000 0.000000 0.250000
0.000000 0.091177 0.272549
0.091177 0.091177 0.268627
0.264828 0.087255 0.264736
0.439706 0.083334 0.260784
0.612255 0.077696 0.256863
0.785294 0.071569 0.249632
0.957843 0.064093 0.244363
1.000000 0.059329 0.237209
1.000000 0.051961 0.230269
0.000000 0.260784 0.260784
0.075980 0.256863 0.256863
0.249265 0.249265 0.249081
0.421170 0.243260 0.243260
0.592157 0.235784 0.235784
0.761918 0.226930 0.226930
0.932108 0.218382 0.218382
1.000000 0.209804 0.209804
1.000000 0.201225 0.201226
0.000000 0.418628 0.241176
0.056143 0.414706 0.234452
0.226471 0.405025 0.226287
0.396569 0.395880 0.217785
0.564890 0.387255 0.208885
0.733395 0.376409 0.198269
0.901103 0.365380 0.187010
1.000000 0.355576 0.175367
1.000000 0.344730 0.166176
0.000000 0.572549 0.215686
0.028922 0.564706 0.207231
0.198162 0.555025 0.198162
0.365196 0.543872 0.186642
0.531618 0.532353 0.175000
0.698284 0.519914 0.163051
0.863848 0.507353 0.150613
1.000000 0.493934 0.136152
1.000000 0.482353 0.125490
0.000000 0.718627 0.182720
0.000000 0.709819 0.174510
0.163358 0.697917 0.162898
0.327972 0.684635 0.150291
0.493382 0.671324 0.135784
0.658333 0.657414 0.122426
0.821752 0.643750 0.108027
0.986275 0.628294 0.093014
1.000000 0.614829 0.078922
0.000000 0.857843 0.144118
0.000000 0.849020 0.135294
0.120588 0.836336 0.120956
0.286397 0.820956 0.107383
0.449020 0.805882 0.092157
0.611550 0.790380 0.076654
0.774816 0.774816 0.061152
0.936826 0.758701 0.045006
1.000000 0.743137 0.029657
0.000000 0.989706 0.100490
0.000000 0.982843 0.089584
0.076317 0.968229 0.076409
0.239292 0.952053 0.060555
0.401532 0.936458 0.043566
0.563772 0.920404 0.028033
0.724050 0.903554 0.011673
0.884911 0.885233 0.000000
1.000000 0.869608 0.000000
0.000000 1.000000 0.050000
0.000000 1.000000 0.041176
0.026471 1.000000 0.025736
0.188725 1.000000 0.009927
0.349510 1.000000 0.000000
0.509314 1.000000 0.000000
0.671569 1.000000 0.000000
0.833824 1.000000 0.000000
0.996078 0.996078 0.000000
0.000000 0.000000 0.453922
0.095098 0.000000 0.451471
0.272549 0.000000 0.450000
0.447549 0.000000 0.447549
0.623530 0.000000 0.446079
0.797059 0.000000 0.442157
0.970588 0.000000 0.437622
1.000000 0.000000 0.430392
1.000000 0.000000 0.426471
0.000000 0.091177 0.450000
0.087906 0.088174 0.446079
0.264706 0.084682 0.442157
0.438235 0.079902 0.438235
0.611765 0.075490 0.432016
0.783824 0.068137 0.426471
0.954902 0.062868 0.418765
1.000000 0.055883 0.412071
1.000000 0.048039 0.406556
0.000000 0.256863 0.437622
0.075490 0.253064 0.431940
0.247641 0.247641 0.426471
0.418765 0.241176 0.418765
0.590196 0.233334 0.410968
0.760294 0.224801 0.402941
0.930392 0.214553 0.394485
1.000000 0.205883 0.383655
1.000000 0.198040 0.376593
0.000000 0.418628 0.417708
0.052451 0.410784 0.410784
0.223652 0.402941 0.402941
0.392647 0.393566 0.393566
0.561979 0.383609 0.383609
0.729473 0.372694 0.373269
0.897181 0.361045 0.361734
1.000000 0.351539 0.351654
1.000000 0.340196 0.340196
0.000000 0.568628 0.389951
0.025000 0.560876 0.383333
0.194608 0.551164 0.371936
0.361274 0.539951 0.361274
0.527819 0.528431 0.349755
0.693903 0.515686 0.337194
0.859988 0.502512 0.324203
1.000000 0.489951 0.311183
1.000000 0.477206 0.299020
0.000000 0.714706 0.357353
0.000000 0.705576 0.348223
0.158823 0.693766 0.336642
0.323591 0.680331 0.323935
0.488235 0.666912 0.310325
0.653493 0.653493 0.296140
0.816897 0.638113 0.281832
0.980216 0.623330 0.266491
1.000000 0.609375 0.252390
0.000000 0.853922 0.317647
0.000000 0.844241 0.308824
0.116667 0.830147 0.294792
0.279611 0.815656 0.279841
0.444608 0.801470 0.265931
0.606970 0.785907 0.250460
0.769608 0.769424 0.233701
0.931863 0.753554 0.218275
1.000000 0.739216 0.203309
0.000000 0.986275 0.274020
0.000000 0.977106 0.263541
0.069608 0.963358 0.249770
0.232667 0.947618 0.232667
0.394761 0.930147 0.217157
0.556855 0.914775 0.199939
0.718627 0.896937 0.182720
0.880614 0.880453 0.166889
1.000000 0.863542 0.149816
0.000000 1.000000 0.222549
0.000000 1.000000 0.214706
0.019730 1.000000 0.199387
0.180882 1.000000 0.181801
0.343137 1.000000 0.164461
0.505392 1.000000 0.147120
0.665809 1.000000 0.129534
0.826164 1.000000 0.112439
0.988235 0.988235 0.097059
0.000000 0.000000 0.631373
0.095098 0.000000 0.629412
0.269608 0.000000 0.627451
0.446079 0.000000 0.625490
0.621569 0.000000 0.622549
0.797059 0.000000 0.618873
0.970588 0.000000 0.613235
1.000000 0.000000 0.607843
1.000000 0.000000 0.603921
0.000000 0.091177 0.627451
0.087316 0.087316 0.623530
0.261765 0.083395 0.619608
0.435784 0.079412 0.614614
0.608946 0.072917 0.608823
0.781372 0.067647 0.603186
0.952635 0.059804 0.595650
1.000000 0.051961 0.588235
1.000000 0.047549 0.582108
0.000000 0.256863 0.613235
0.072059 0.252942 0.607904
0.245098 0.245098 0.602084
0.416176 0.237622 0.595160
0.586765 0.229657 0.587500
0.756556 0.221569 0.578186
0.926471 0.211887 0.568628
1.000000 0.202390 0.559252
1.000000 0.194118 0.551961
0.000000 0.414706 0.592157
0.051961 0.407046 0.586520
0.221569 0.399387 0.577696
0.389645 0.389645 0.568628
0.558823 0.380147 0.558578
0.725551 0.369608 0.548284
0.893260 0.357169 0.536765
1.000000 0.346569 0.525245
1.000000 0.336275 0.514951
0.000000 0.564706 0.565686
0.021078 0.557108 0.557108
0.190686 0.547549 0.547549
0.357353 0.536029 0.536029
0.524019 0.524019 0.523529
0.689706 0.511030 0.511030
0.855882 0.497794 0.497794
1.000000 0.484927 0.484927
1.000000 0.472550 0.472549
0.000000 0.710784 0.532108
0.000000 0.701654 0.521814
0.153799 0.689890 0.510294
0.318903 0.675950 0.497580
0.483946 0.662623 0.483946
0.647488 0.647488 0.469853
0.812194 0.633088 0.454718
0.975153 0.618812 0.440196
1.000000 0.604902 0.426225
0.000000 0.849510 0.491176
0.000000 0.839032 0.482353
0.112132 0.825490 0.468628
0.275000 0.810907 0.453370
0.437990 0.795588 0.438235
0.601532 0.780270 0.422610
0.764828 0.764828 0.406863
0.927022 0.746997 0.391238
1.000000 0.731863 0.375000
0.000000 0.981128 0.445833
0.000000 0.971568 0.435539
0.065625 0.956740 0.421814
0.227849 0.941483 0.406372
0.390073 0.925245 0.389216
0.552053 0.908486 0.373530
0.712990 0.891789 0.356127
0.873468 0.873468 0.338726
1.000000 0.857843 0.321814
0.000000 1.000000 0.396079
0.000000 1.000000 0.386520
0.014706 1.000000 0.371078
0.176961 1.000000 0.354412
0.337255 1.000000 0.337255
0.497549 1.000000 0.320098
0.659804 1.000000 0.303431
0.822059 0.999755 0.286029
0.984314 0.984314 0.268628
0.000000 0.000000 0.808823
0.095098 0.000000 0.807537
0.269608 0.000000 0.804902
0.446079 0.000000 0.801899
0.620834 0.000000 0.799510
0.795588 0.000000 0.794669
0.969608 0.000000 0.789216
1.000000 0.000000 0.785111
1.000000 0.000000 0.779902
0.000000 0.091177 0.804718
0.087255 0.087255 0.800980
0.260784 0.083334 0.797059
0.434314 0.076784 0.790326
0.607200 0.071569 0.785294
0.779098 0.064032 0.778983
0.950077 0.056327 0.771446
1.000000 0.048468 0.763910
1.000000 0.043628 0.757353
0.000000 0.252942 0.789216
0.071569 0.249096 0.785294
0.242157 0.242616 0.777604
0.414706 0.235417 0.769838
0.584313 0.226471 0.761765
0.753508 0.218260 0.753508
0.922702 0.209069 0.744424
1.000000 0.198576 0.734176
1.000000 0.190196 0.725490
0.000000 0.410784 0.769056
0.048154 0.404718 0.761765
0.218014 0.395466 0.753232
0.387255 0.387255 0.743076
0.554902 0.376226 0.733854
0.722204 0.364989 0.722204
0.889338 0.353293 0.710555
1.000000 0.342823 0.698836
1.000000 0.331801 0.688787
0.000000 0.562010 0.740196
0.018229 0.554412 0.733027
0.186765 0.543627 0.721997
0.353431 0.532108 0.710325
0.519608 0.519853 0.698284
0.685784 0.507108 0.685325
0.851409 0.493627 0.671385
1.000000 0.480147 0.658670
1.000000 0.467892 0.646079
0.000000 0.706863 0.705944
0.000000 0.696929 0.697733
0.149877 0.683946 0.683946
0.314216 0.671224 0.671224
0.479657 0.657108 0.657567
0.643222 0.643566 0.643222
0.806893 0.628064 0.628064
0.970596 0.612676 0.612676
1.000000 0.598529 0.598529
0.000000 0.843995 0.664706
0.000000 0.833701 0.655882
0.107108 0.820833 0.642463
0.270711 0.805959 0.627129
0.433333 0.790931 0.611704
0.595588 0.774142 0.596048
0.758303 0.758578 0.580116
0.920098 0.742555 0.563373
1.000000 0.727451 0.548897
0.000000 0.975980 0.619792
0.000000 0.967486 0.609130
0.059452 0.952130 0.594072
0.223047 0.935968 0.578370
0.383425 0.919608 0.562745
0.545412 0.903056 0.545412
0.706863 0.885172 0.528309
0.868957 0.868689 0.510601
1.000000 0.852635 0.495098
0.000000 1.000000 0.569608
0.000000 1.000000 0.558150
0.010662 1.000000 0.543137
0.169118 1.000000 0.527390
0.331372 1.000000 0.510049
0.493628 1.000000 0.492708
0.654779 1.000000 0.475123
0.814522 0.994301 0.458027
0.976471 0.976471 0.440196
0.000000 0.000000 0.985294
0.091667 0.000000 0.985294
0.268627 0.000000 0.982353
0.446079 0.000000 0.979534
0.619608 0.000000 0.977451
0.793137 0.000000 0.970588
0.966666 0.000000 0.966666
1.000000 0.000000 0.961397
1.000000 0.000000 0.954902
0.000000 0.087255 0.981373
0.084146 0.084253 0.978431
0.260141 0.079902 0.973866
0.431863 0.075490 0.966804
0.604105 0.068137 0.962316
0.776118 0.062439 0.954902
0.947059 0.055025 0.947059
1.000000 0.047610 0.939215
1.000000 0.040196 0.933946
0.000000 0.252942 0.966666
0.068137 0.246446 0.961888
0.241176 0.241176 0.954902
0.411060 0.233334 0.947059
0.580760 0.224020 0.938848
0.750000 0.214614 0.929565
0.918872 0.205699 0.919424
1.000000 0.194761 0.907843
1.000000 0.186274 0.901961
0.000000 0.410417 0.944975
0.044608 0.402941 0.938358
0.214553 0.393107 0.928186
0.383333 0.383333 0.919224
0.550980 0.372304 0.908395
0.718398 0.361136 0.896768
0.885417 0.349418 0.885141
1.000000 0.337561 0.872549
1.000000 0.326961 0.863236
0.000000 0.558823 0.915686
0.016299 0.549265 0.907843
0.182843 0.539706 0.896446
0.349510 0.528186 0.884865
0.515686 0.514706 0.872304
0.681557 0.502880 0.859865
0.846078 0.489216 0.846079
1.000000 0.474510 0.832414
1.000000 0.462745 0.819608
0.000000 0.702329 0.881495
0.000000 0.691621 0.871692
0.144118 0.680025 0.859130
0.310156 0.666728 0.845558
0.473775 0.652880 0.832108
0.638496 0.637806 0.816866
0.801440 0.622426 0.801715
0.965288 0.608012 0.786152
1.000000 0.593137 0.772059
0.000000 0.838236 0.838236
0.000000 0.829411 0.829411
0.100980 0.816299 0.816299
0.265901 0.800796 0.800796
0.428799 0.785294 0.785294
0.590962 0.769332 0.769792
0.753186 0.753186 0.752635
0.915318 0.737193 0.737193
1.000000 0.720343 0.720343
0.000000 0.972058 0.793627
0.000000 0.960279 0.782721
0.053891 0.946997 0.767616
0.216176 0.929718 0.751869
0.378370 0.914399 0.735233
0.540380 0.896875 0.719025
0.702543 0.880024 0.701899
0.861597 0.861704 0.684038
1.000000 0.846078 0.667770
0.000000 1.000000 0.742157
0.000000 1.000000 0.731740
0.005882 1.000000 0.716421
0.165196 1.000000 0.699387
0.325000 1.000000 0.682353
0.485784 1.000000 0.664706
0.648039 1.000000 0.648039
0.810294 0.987745 0.631985
0.971569 0.971569 0.613726
0.000000 0.000000 1.000000
0.091667 0.000000 1.000000
0.268627 0.000000 1.000000
0.443627 0.000000 1.000000
0.617647 0.000000 1.000000
0.791667 0.000000 1.000000
0.965318 0.000000 1.000000
1.000000 0.000000 1.000000
1.000000 0.000000 1.000000
0.000000 0.087255 1.000000
0.083334 0.083334 1.000000
0.256985 0.079412 1.000000
0.430392 0.072059 1.000000
0.601961 0.067647 1.000000
0.773529 0.059804 1.000000
0.943505 0.051961 1.000000
1.000000 0.044118 1.000000
1.000000 0.036275 1.000000
0.000000 0.249020 1.000000
0.067325 0.245098 1.000000
0.237500 0.237500 1.000000
0.408333 0.229733 1.000000
0.578431 0.221569 1.000000
0.746691 0.212393 1.000000
0.915594 0.201869 1.000000
1.000000 0.191054 1.000000
1.000000 0.182353 1.000000
0.000000 0.406863 1.000000
0.040686 0.399020 1.000000
0.210784 0.389338 1.000000
0.379894 0.379894 1.000000
0.547059 0.368383 1.000000
0.714591 0.357284 1.000000
0.881357 0.345220 1.000000
1.000000 0.333479 1.000000
1.000000 0.323039 1.000000
0.000000 0.554901 1.000000
0.011795 0.547059 1.000000
0.179289 0.535784 1.000000
0.345496 0.524019 1.000000
0.511642 0.510784 1.000000
0.676563 0.497948 1.000000
0.840625 0.483824 1.000000
1.000000 0.470313 1.000000
1.000000 0.456863 0.991421
0.000000 0.696569 1.000000
0.000000 0.687523 1.000000
0.140150 0.675889 1.000000
0.305821 0.662063 1.000000
0.468627 0.647304 1.000000
0.633624 0.633624 0.989223
0.796921 0.618229 0.974908
0.959314 0.602857 0.959582
1.000000 0.588909 0.945404
0.000000 0.834314 1.000000
0.000000 0.824633 1.000000
0.096814 0.810539 0.987132
0.259314 0.795221 0.974602
0.422856 0.779902 0.959069
0.584789 0.764537 0.941804
0.746813 0.746813 0.926409
0.908655 0.731097 0.908655
1.000000 0.715686 0.893995
0.000000 0.967647 0.967647
0.000000 0.955882 0.955882
0.049403 0.941054 0.940947
0.211872 0.925329 0.925598
0.372304 0.908333 0.908333
0.533969 0.891337 0.891069
0.695098 0.873407 0.873299
0.856924 0.856924 0.856924
1.000000 0.841667 0.841667
0.000000 1.000000 0.916176
0.000000 1.000000 0.904902
0.002574 1.000000 0.890074
0.157353 1.000000 0.873223
0.319608 1.000000 0.855637
0.481557 1.000000 0.838051
0.643750 0.999019 0.821201
0.802451 0.980392 0.802880
0.964706 0.964706 0.786765
0.000000 0.000000 1.000000
0.091177 0.000000 1.000000
0.265686 0.000000 1.000000
0.442157 0.000000 1.000000
0.615687 0.000000 1.000000
0.789216 0.000000 1.000000
0.961765 0.000000 1.000000
1.000000 0.000000 1.000000
1.000000 0.000000 1.000000
0.000000 0.083824 1.000000
0.080331 0.080331 1.000000
0.253922 0.075612 1.000000
0.426654 0.069424 1.000000
0.598284 0.063726 1.000000
0.769608 0.055883 1.000000
0.939583 0.048039 1.000000
1.000000 0.039767 1.000000
1.000000 0.032353 1.000000
0.000000 0.245098 1.000000
0.061152 0.241176 1.000000
0.233579 0.233579 1.000000
0.403309 0.225490 1.000000
0.572549 0.216176 1.000000
0.741054 0.206495 1.000000
0.908578 0.195098 1.000000
1.000000 0.185907 1.000000
1.000000 0.177451 1.000000
0.000000 0.399020 1.000000
0.036459 0.392953 1.000000
0.204044 0.383701 1.000000
0.373039 0.373039 1.000000
0.539951 0.361274 1.000000
0.705944 0.349510 1.000000
0.873652 0.337745 1.000000
1.000000 0.325796 1.000000
1.000000 0.315196 1.000000
0.000000 0.549019 1.000000
0.005147 0.539216 1.000000
0.171079 0.527451 1.000000
0.337010 0.514461 1.000000
0.501961 0.501961 1.000000
0.666912 0.488235 1.000000
0.832353 0.474020 1.000000
0.993137 0.460539 1.000000
1.000000 0.449020 1.000000
0.000000 0.688725 1.000000
0.000000 0.678125 1.000000
0.130269 0.666177 1.000000
0.294608 0.651042 1.000000
0.458088 0.637500 1.000000
0.622120 0.622120 1.000000
0.785294 0.606740 1.000000
0.947549 0.591361 1.000000
1.000000 0.577451 1.000000
0.000000 0.822549 1.000000
0.000000 0.812868 1.000000
0.085049 0.798774 1.000000
0.247549 0.783456 1.000000
0.409804 0.767647 1.000000
0.572059 0.750613 1.000000
0.734314 0.734314 1.000000
0.896569 0.718259 1.000000
1.000000 0.703921 1.000000
0.000000 0.952451 1.000000
0.000000 0.943688 1.000000
0.036887 0.928064 1.000000
0.196569 0.912255 1.000000
0.358823 0.894853 1.000000
0.520772 0.877267 1.000000
0.682843 0.860417 1.000000
0.842096 0.842096 1.000000
1.000000 0.826470 1.000000
0.000000 1.000000 1.000000
0.000000 1.000000 1.000000
0.000000 1.000000 1.000000
0.145588 1.000000 1.000000
0.305883 1.000000 1.000000
0.466177 1.000000 1.000000
0.628431 0.984314 0.984314
0.790686 0.968137 0.968137
0.952941 0.952941 0.952941
