luts/drone/soft-warming-cinematic.cube
TITLE "Soft Warming Cinematic"
LUT_3D_SIZE 9
0.050034 0.058808 0.059876
0.110994 0.063264 0.061021
0.195087 0.066667 0.057587
0.311604 0.066209 0.045502
0.437034 0.067399 0.040116
0.569528 0.067491 0.045533
0.684535 0.071107 0.053529
0.778851 0.079408 0.061494
0.867247 0.090532 0.068788
0.049683 0.120577 0.059098
0.109148 0.120455 0.060395
0.200137 0.118959 0.055863
0.320348 0.117617 0.045884
0.451331 0.118364 0.045213
0.588830 0.122103 0.053636
0.708858 0.131456 0.063035
0.809461 0.145281 0.073289
0.903960 0.162295 0.082979
0.043061 0.193622 0.047211
0.101762 0.200595 0.049973
0.206012 0.197879 0.053849
0.345388 0.195651 0.040909
0.487968 0.205768 0.049012
0.631205 0.217014 0.058640
0.755734 0.234241 0.067384
0.858320 0.255467 0.076554
0.948302 0.277440 0.084672
0.034745 0.291051 0.035096
0.090105 0.309789 0.033860
0.204105 0.315190 0.051133
0.358129 0.310323 0.046723
0.528695 0.310567 0.049485
0.673503 0.327977 0.057374
0.791684 0.349996 0.061768
0.890333 0.378347 0.064195
0.970214 0.403998 0.065034
0.031693 0.406592 0.032532
0.094011 0.427344 0.031968
0.215335 0.447303 0.040253
0.377554 0.458122 0.038850
0.546639 0.454154 0.038926
0.694896 0.450309 0.039292
0.816175 0.470573 0.044770
0.910597 0.499016 0.048936
0.974731 0.521111 0.055634
0.032807 0.532799 0.026764
0.112505 0.552346 0.033127
0.232975 0.569268 0.046189
0.387106 0.583444 0.049561
0.551354 0.611444 0.040528
0.701549 0.613672 0.042344
0.823346 0.607370 0.042802
0.916762 0.618463 0.047761
0.972320 0.629374 0.052796
0.056687 0.647074 0.048127
0.143145 0.666484 0.058350
0.265583 0.681331 0.071321
0.417807 0.701701 0.065568
0.573419 0.733516 0.048447
0.704662 0.756024 0.046616
0.825452 0.757595 0.047028
0.914260 0.744045 0.052583
0.967910 0.737667 0.054643
0.081361 0.785473 0.055924
0.176379 0.799298 0.063325
0.292271 0.819806 0.065949
0.445151 0.843168 0.063386
0.592615 0.854917 0.059327
0.720806 0.857603 0.054581
0.826032 0.870741 0.052369
0.919219 0.860533 0.052644
0.971405 0.841474 0.053239
0.074601 0.918044 0.071153
0.179217 0.927993 0.075456
0.306996 0.935378 0.075288
0.459968 0.940108 0.070390
0.603037 0.939879 0.064408
0.726726 0.938750 0.057938
0.827832 0.939971 0.054307
0.915282 0.955795 0.053574
0.971588 0.939330 0.053468
0.050446 0.064851 0.115419
0.116976 0.066468 0.120058
0.202396 0.066575 0.114244
0.315145 0.058579 0.096101
0.437629 0.061189 0.090257
0.569879 0.064103 0.094163
0.683970 0.069398 0.101610
0.779446 0.079011 0.108949
0.868406 0.090166 0.116686
0.049287 0.119097 0.120500
0.109834 0.120577 0.122713
0.198734 0.124056 0.118761
0.323659 0.123873 0.100435
0.456474 0.123751 0.089906
0.593866 0.124285 0.100816
0.713375 0.132509 0.111910
0.813962 0.146639 0.122805
0.908553 0.163867 0.133318
0.043595 0.193423 0.107774
0.100252 0.204135 0.114336
0.207599 0.203113 0.116716
0.346410 0.202731 0.102419
0.491783 0.210132 0.096559
0.635370 0.219730 0.107713
0.757671 0.234501 0.118212
0.859358 0.253849 0.128756
0.949798 0.276066 0.137026
0.036393 0.293004 0.086305
0.086473 0.315007 0.093202
0.204303 0.325048 0.104341
0.363561 0.318471 0.105287
0.533242 0.318044 0.095537
0.675746 0.335409 0.102983
0.793271 0.357565 0.107225
0.890532 0.386114 0.108675
0.970001 0.412406 0.108141
0.033844 0.410620 0.086335
0.086061 0.436347 0.084184
0.214496 0.455543 0.094804
0.382910 0.466377 0.090135
0.550591 0.463600 0.088777
0.699458 0.458595 0.088518
0.818677 0.478630 0.092119
0.912749 0.507927 0.098375
0.977050 0.529366 0.104768
0.034775 0.533852 0.088533
0.105653 0.561059 0.083955
0.231617 0.575479 0.100908
0.391333 0.590768 0.112230
0.559289 0.621073 0.089799
0.706157 0.622278 0.091081
0.825681 0.613428 0.091951
0.918959 0.623728 0.096651
0.974060 0.634592 0.101381
0.056580 0.651270 0.109880
0.141054 0.669902 0.115160
0.264683 0.685664 0.125673
0.418875 0.705531 0.127703
0.576303 0.740673 0.097292
0.707683 0.760281 0.095186
0.827832 0.760189 0.095323
0.915709 0.746502 0.100496
0.968414 0.740261 0.102876
0.062592 0.792782 0.116884
0.167483 0.811063 0.111879
0.289799 0.823713 0.114153
0.443076 0.842145 0.111269
0.593210 0.859098 0.107088
0.721920 0.859632 0.102220
0.826017 0.870558 0.099794
0.919997 0.861006 0.099886
0.971878 0.843183 0.100389
0.076051 0.924514 0.119066
0.162539 0.932357 0.123003
0.302007 0.937316 0.122591
0.456352 0.943771 0.117540
0.601053 0.943862 0.111147
0.726299 0.941878 0.104967
0.828885 0.942748 0.101335
0.914763 0.956390 0.100526
0.971893 0.940398 0.100420
0.050019 0.074876 0.187549
0.108797 0.075822 0.189807
0.213733 0.075853 0.189059
0.330083 0.068803 0.171054
0.458869 0.063157 0.153903
0.579751 0.065324 0.152834
0.690257 0.071046 0.158373
0.783536 0.080247 0.166278
0.871107 0.091005 0.174685
0.048203 0.124056 0.189670
0.106401 0.129473 0.195682
0.212360 0.129274 0.196399
0.337804 0.120974 0.177401
0.477974 0.117693 0.163867
0.604532 0.122789 0.165438
0.719005 0.132113 0.174746
0.816770 0.145281 0.186725
0.909682 0.160845 0.198947
0.043824 0.194583 0.192630
0.097688 0.204410 0.202640
0.199939 0.211017 0.212222
0.346548 0.215320 0.200671
0.502266 0.209003 0.185306
0.642298 0.209674 0.178134
0.759457 0.225345 0.186862
0.861524 0.246738 0.196918
0.951873 0.268925 0.206058
0.037690 0.307454 0.180896
0.088060 0.317342 0.185153
0.176257 0.340307 0.185214
0.363424 0.332097 0.194659
0.531868 0.330205 0.172534
0.675425 0.345892 0.165316
0.789883 0.366247 0.164675
0.888685 0.392660 0.166751
0.974517 0.418631 0.174151
0.035691 0.417456 0.168017
0.087038 0.428382 0.172992
0.192447 0.466682 0.168429
0.378378 0.474678 0.188098
0.550484 0.475517 0.161212
0.700130 0.468833 0.149187
0.816251 0.489387 0.153124
0.909407 0.517861 0.160098
0.978531 0.539132 0.167346
0.036652 0.522347 0.171664
0.088319 0.549935 0.180697
0.216251 0.585016 0.173007
0.387884 0.596811 0.195789
0.565042 0.630777 0.150408
0.708537 0.630793 0.150668
0.825559 0.618173 0.152773
0.919631 0.628794 0.157473
0.974929 0.643320 0.162600
0.046021 0.625971 0.203525
0.115221 0.666697 0.205783
0.250675 0.692714 0.199741
0.413916 0.708186 0.208484
0.573938 0.744366 0.191669
0.709529 0.764202 0.155337
0.829007 0.761181 0.155093
0.916136 0.746944 0.160266
0.968261 0.742138 0.163119
0.063890 0.775158 0.221195
0.116014 0.810040 0.215793
0.260136 0.858473 0.176638
0.436301 0.853407 0.176867
0.587777 0.859373 0.174975
0.720562 0.861479 0.164279
0.824720 0.869749 0.159365
0.919860 0.860029 0.159289
0.971572 0.843381 0.159762
0.076341 0.922164 0.182361
0.126680 0.934890 0.186358
0.279011 0.942519 0.185641
0.444800 0.945861 0.179660
0.593957 0.947906 0.171939
0.722911 0.945571 0.165042
0.828504 0.944610 0.160754
0.913298 0.955474 0.159747
0.971466 0.939757 0.178820
0.045716 0.089891 0.292180
0.102205 0.089647 0.292287
0.189227 0.087175 0.296239
0.342626 0.084382 0.278904
0.476158 0.077256 0.260517
0.609155 0.075593 0.250401
0.716304 0.077043 0.243946
0.794903 0.086061 0.245167
0.880034 0.097185 0.253452
0.045640 0.137865 0.294530
0.096635 0.142763 0.300511
0.186679 0.141436 0.302831
0.352132 0.139071 0.289784
0.494591 0.134020 0.274678
0.634195 0.135775 0.269306
0.747616 0.142092 0.269703
0.842847 0.153246 0.275273
0.931930 0.169024 0.285405
0.042634 0.201144 0.295186
0.091112 0.212741 0.308202
0.180743 0.223697 0.322911
0.366491 0.224842 0.317311
0.521614 0.221469 0.305180
0.663462 0.223316 0.300359
0.780346 0.233021 0.304082
0.877791 0.247929 0.312856
0.958526 0.267979 0.327077
0.037720 0.306111 0.304265
0.088243 0.324849 0.322026
0.154498 0.343984 0.341817
0.340810 0.351278 0.353079
0.516732 0.353536 0.343587
0.667262 0.353918 0.334722
0.786770 0.360510 0.332250
0.887053 0.381826 0.340337
0.969451 0.405661 0.354742
0.036271 0.455756 0.330999
0.087449 0.471077 0.339956
0.152804 0.473198 0.334447
0.330846 0.490318 0.317662
0.539345 0.493492 0.323995
0.691325 0.489708 0.318257
0.807233 0.511406 0.322560
0.900649 0.536614 0.333120
0.976776 0.557656 0.346426
0.037003 0.561364 0.320409
0.088685 0.569512 0.327184
0.154635 0.576928 0.328649
0.358068 0.610254 0.311162
0.551904 0.635630 0.318441
0.702403 0.639002 0.293294
0.819577 0.626520 0.294362
0.911055 0.641550 0.298848
0.974243 0.657923 0.312123
0.046235 0.658900 0.342901
0.099260 0.666468 0.351781
0.184604 0.674922 0.347158
0.386542 0.719448 0.323003
0.559701 0.742687 0.332906
0.708751 0.768215 0.308339
0.824918 0.761730 0.244282
0.912642 0.745876 0.256428
0.969192 0.744518 0.298207
0.063447 0.798672 0.370123
0.115221 0.815122 0.367590
0.180117 0.822919 0.344106
0.392950 0.872969 0.306523
0.571969 0.861112 0.327413
0.711589 0.861830 0.332036
0.818814 0.866178 0.313863
0.917159 0.856626 0.241917
0.969253 0.840848 0.311315
0.074998 0.930419 0.375769
0.125002 0.936355 0.365332
0.188113 0.941375 0.326101
0.397421 0.984360 0.290852
0.575982 0.965164 0.308934
0.710811 0.948852 0.328359
0.821927 0.944427 0.324147
0.907317 0.951461 0.319829
0.969528 0.934997 0.318547
0.042908 0.108675 0.405798
0.091875 0.107576 0.404288
0.175998 0.103502 0.401480
0.323964 0.100969 0.395834
0.492775 0.094041 0.367285
0.620218 0.086610 0.352850
0.728771 0.092317 0.352636
0.816449 0.102190 0.358312
0.899001 0.114870 0.366995
0.042939 0.156161 0.409705
0.088273 0.159716 0.413291
0.175006 0.157733 0.411948
0.333059 0.154665 0.409857
0.512688 0.151568 0.382116
0.645319 0.148363 0.373083
0.757275 0.159060 0.378195
0.850172 0.174670 0.389395
0.936599 0.193851 0.404501
0.041260 0.215000 0.406394
0.089967 0.227481 0.421149
0.168994 0.240696 0.438453
0.334539 0.234531 0.442451
0.539803 0.239384 0.414389
0.674830 0.239612 0.409461
0.788464 0.253498 0.417762
0.882094 0.272496 0.433249
0.953964 0.295796 0.458991
0.037324 0.310643 0.415045
0.088029 0.330938 0.436423
0.153292 0.349767 0.458228
0.313878 0.360327 0.476356
0.534554 0.361685 0.457465
0.676829 0.363516 0.453223
0.792035 0.371801 0.457206
0.887510 0.385061 0.466957
0.957916 0.409552 0.490761
0.036225 0.440009 0.441550
0.087587 0.462211 0.462104
0.153017 0.483894 0.483482
0.284855 0.502571 0.504814
0.514900 0.507973 0.507851
0.671946 0.516564 0.507851
0.794949 0.527718 0.510323
0.891493 0.538659 0.513008
0.967681 0.554040 0.523934
0.037385 0.593240 0.476753
0.089128 0.616678 0.496361
0.154971 0.637888 0.517082
0.256657 0.630182 0.502647
0.513771 0.638636 0.487282
0.689662 0.651347 0.477501
0.807904 0.650416 0.490028
0.898207 0.667674 0.498360
0.973068 0.683497 0.508003
0.046525 0.727962 0.526375
0.099321 0.733593 0.529763
0.165072 0.729488 0.520928
0.293431 0.724575 0.500252
0.530739 0.747677 0.478065
0.694850 0.767178 0.484779
0.815183 0.767407 0.450355
0.906035 0.753323 0.464027
0.968902 0.761090 0.474617
0.062577 0.839170 0.546929
0.114015 0.848875 0.541985
0.178515 0.850660 0.523720
0.268650 0.864820 0.492531
0.534859 0.871916 0.464347
0.695399 0.859541 0.486748
0.814084 0.866423 0.479042
0.909789 0.856321 0.428565
0.965774 0.841917 0.477272
0.073335 0.946822 0.552758
0.122972 0.951186 0.542733
0.185687 0.952056 0.528237
0.263844 0.952880 0.480339
0.533715 0.975753 0.452628
0.694636 0.956298 0.471580
0.810513 0.944701 0.480049
0.898848 0.947631 0.477607
0.967346 0.932906 0.465385
0.040284 0.125643 0.514870
0.084413 0.124681 0.512825
0.165164 0.120027 0.506661
0.292714 0.111727 0.505623
0.465965 0.115419 0.480430
0.634684 0.105364 0.448783
0.739071 0.107622 0.446860
0.822095 0.115831 0.452186
0.901518 0.129534 0.470420
0.040482 0.173007 0.519585
0.085740 0.176059 0.522499
0.164233 0.173556 0.517998
0.299062 0.167727 0.519615
0.486885 0.174273 0.497612
0.660273 0.168658 0.468956
0.767330 0.175906 0.473396
0.853162 0.189105 0.492912
0.933272 0.209247 0.524086
0.040192 0.233448 0.519753
0.089082 0.244327 0.533043
0.154757 0.255207 0.547448
0.306767 0.252644 0.547509
0.512566 0.261814 0.532906
0.687404 0.259159 0.514214
0.793362 0.269062 0.527932
0.881178 0.290517 0.555901
0.948837 0.320806 0.594629
0.037125 0.326223 0.527062
0.088045 0.345693 0.548150
0.153368 0.361303 0.567437
0.297795 0.372610 0.590341
0.514031 0.371679 0.577081
0.685679 0.379202 0.571633
0.793591 0.391989 0.583535
0.885283 0.411475 0.607538
0.954253 0.439826 0.638453
0.036347 0.440894 0.549279
0.087724 0.464134 0.573907
0.153170 0.484993 0.598138
0.281193 0.499596 0.618906
0.484596 0.510063 0.637949
0.681956 0.517357 0.626001
0.793912 0.532357 0.634928
0.886076 0.545556 0.645685
0.956436 0.564691 0.661723
0.037476 0.577951 0.586801
0.089250 0.599649 0.607126
0.155093 0.620142 0.628061
0.239689 0.637613 0.648081
0.461448 0.652033 0.663874
0.674235 0.661051 0.658091
0.793408 0.667796 0.660716
0.885695 0.675700 0.663813
0.962539 0.684672 0.669764
0.046464 0.719676 0.641062
0.099153 0.740795 0.660456
0.164630 0.759655 0.675669
0.247364 0.773999 0.684794
0.440681 0.766995 0.667323
0.677363 0.766018 0.645014
0.805463 0.776165 0.629892
0.893675 0.773556 0.642756
0.966934 0.783398 0.648890
0.062348 0.849180 0.702632
0.113512 0.865629 0.716869
0.177584 0.878279 0.724071
0.257450 0.872343 0.695613
0.443366 0.869657 0.648768
0.675776 0.866087 0.624140
0.802884 0.864469 0.635477
0.899336 0.860136 0.602258
0.965805 0.850217 0.630625
0.072435 0.948943 0.743709
0.121736 0.960815 0.746944
0.184115 0.963638 0.728466
0.261387 0.959869 0.679484
0.428336 0.973632 0.624277
0.668009 0.962142 0.602274
0.797665 0.944472 0.622095
0.892546 0.946227 0.627573
0.965423 0.935164 0.611505
0.038498 0.140429 0.606455
0.082505 0.139712 0.604120
0.154788 0.135134 0.596841
0.278340 0.127413 0.588540
0.452979 0.131975 0.572335
0.619730 0.122866 0.541909
0.745571 0.124819 0.540459
0.827832 0.133516 0.557504
0.901076 0.141299 0.570077
0.038956 0.187900 0.612070
0.084398 0.191272 0.615259
0.152514 0.189197 0.610132
0.285924 0.182742 0.603082
0.475731 0.192370 0.591852
0.645258 0.186984 0.571954
0.772335 0.193713 0.581842
0.857542 0.213565 0.612924
0.930785 0.231571 0.637629
0.040055 0.250141 0.615747
0.089280 0.260548 0.628763
0.152789 0.270726 0.642680
0.295781 0.269368 0.638224
0.503944 0.277592 0.629740
0.670176 0.283177 0.632074
0.798596 0.295399 0.651133
0.885634 0.312627 0.677745
0.951782 0.336095 0.703120
0.037842 0.342367 0.623499
0.089006 0.361410 0.644907
0.154604 0.373526 0.660807
0.279194 0.383993 0.684825
0.484962 0.375280 0.686687
0.675105 0.390600 0.682475
0.806363 0.404379 0.699062
0.892836 0.423331 0.716808
0.960525 0.450278 0.743221
0.037262 0.456016 0.648722
0.088792 0.478279 0.673716
0.154421 0.497078 0.695964
0.257252 0.508293 0.713619
0.466560 0.519417 0.740505
0.672389 0.515419 0.740291
0.810132 0.530938 0.741955
0.893065 0.551675 0.749416
0.961730 0.573922 0.768399
0.038468 0.580621 0.684718
0.090410 0.604547 0.709789
0.156283 0.623835 0.730678
0.240803 0.633661 0.744549
0.454963 0.642023 0.756039
0.659312 0.657206 0.762722
0.800702 0.664805 0.762844
0.884306 0.677317 0.768109
0.956252 0.688716 0.777188
0.047257 0.711299 0.733532
0.099901 0.729747 0.751308
0.165225 0.744381 0.765728
0.247669 0.754162 0.775265
0.431815 0.763104 0.781918
0.645548 0.773007 0.781033
0.793057 0.780377 0.774578
0.880964 0.784039 0.776074
0.956863 0.786252 0.776333
0.062516 0.829511 0.790295
0.113375 0.844541 0.802487
0.177203 0.855467 0.809003
0.256733 0.863615 0.808804
0.397009 0.872251 0.804715
0.617426 0.869627 0.780804
0.792294 0.865919 0.762737
0.889754 0.866178 0.752743
0.964401 0.864729 0.760525
0.071794 0.923858 0.826520
0.120806 0.933867 0.832288
0.182940 0.944656 0.834089
0.260655 0.955566 0.829709
0.349142 0.956619 0.804227
0.600275 0.961242 0.749386
0.784237 0.952209 0.739742
0.884413 0.946319 0.751751
0.964065 0.942184 0.737148
0.037751 0.154620 0.681178
0.081773 0.153994 0.678569
0.145159 0.149630 0.670604
0.270924 0.139483 0.656367
0.446952 0.144915 0.645075
0.607248 0.140475 0.629786
0.734997 0.143343 0.635050
0.829068 0.155520 0.656626
0.904860 0.170275 0.685405
0.038575 0.202670 0.688167
0.084337 0.206210 0.691859
0.144762 0.205051 0.686656
0.280720 0.198413 0.675441
0.472038 0.206683 0.667338
0.633921 0.210483 0.669337
0.763561 0.218418 0.684596
0.863020 0.234379 0.716930
0.938872 0.257359 0.754147
0.040925 0.266789 0.695384
0.090608 0.277562 0.709438
0.154604 0.287419 0.723537
0.290517 0.286213 0.715846
0.495232 0.283268 0.723888
0.667796 0.299016 0.727367
0.798230 0.310735 0.748730
0.901183 0.325551 0.782986
0.964553 0.354360 0.812360
0.039460 0.358480 0.703548
0.091066 0.376822 0.725002
0.157000 0.387274 0.739223
0.263310 0.397589 0.763928
0.458076 0.388022 0.770001
0.674556 0.396384 0.784298
0.808133 0.411322 0.792782
0.912688 0.428885 0.822278
0.972274 0.460685 0.839551
0.039063 0.472435 0.731914
0.090837 0.494804 0.757473
0.156863 0.512322 0.778042
0.241947 0.518990 0.789639
0.447272 0.528252 0.817685
0.645975 0.519936 0.819654
0.808148 0.532708 0.833967
0.911559 0.549249 0.847547
0.970810 0.577508 0.852293
0.040330 0.592523 0.766064
0.092592 0.615885 0.790707
0.158633 0.632715 0.808911
0.243030 0.640192 0.819440
0.437110 0.645960 0.829572
0.643091 0.658671 0.843656
0.795453 0.662196 0.847333
0.898238 0.670588 0.852781
0.962356 0.687877 0.852735
0.048920 0.715312 0.813397
0.101701 0.734844 0.833265
0.166995 0.746853 0.845411
0.249104 0.749996 0.848997
0.427527 0.750805 0.850141
0.633539 0.760311 0.852003
0.787060 0.777295 0.850996
0.882963 0.779919 0.854871
0.953735 0.785229 0.855879
0.063676 0.825345 0.859800
0.114305 0.837568 0.870832
0.177844 0.845319 0.875944
0.257145 0.848005 0.875441
0.401038 0.849867 0.872953
0.617914 0.854566 0.868177
0.777829 0.862470 0.862715
0.880095 0.869444 0.858869
0.956039 0.872221 0.859388
0.072160 0.911391 0.892088
0.120974 0.918837 0.897261
0.182879 0.926177 0.898894
0.260441 0.932845 0.895476
0.349615 0.938766 0.889067
0.589181 0.946670 0.879072
0.749096 0.952377 0.854459
0.877714 0.949691 0.847700
0.961105 0.948196 0.841672
0.037339 0.169574 0.752346
0.081392 0.169070 0.749203
0.137377 0.164889 0.740429
0.265538 0.154589 0.723491
0.434623 0.153948 0.716487
0.598596 0.161120 0.716060
0.725826 0.164569 0.726345
0.825422 0.173754 0.748653
0.913268 0.185550 0.780667
0.038621 0.218265 0.761090
0.084779 0.222324 0.765377
0.144579 0.221790 0.760037
0.277272 0.215396 0.745647
0.456062 0.213779 0.749935
0.633219 0.227146 0.756603
0.762951 0.235691 0.776669
0.868544 0.247944 0.809613
0.951461 0.270985 0.850538
0.042191 0.284535 0.772381
0.092424 0.295552 0.787030
0.156680 0.305501 0.800366
0.287434 0.304219 0.791791
0.463478 0.293812 0.801556
0.673854 0.307164 0.823331
0.804044 0.320516 0.839857
0.908080 0.334493 0.870771
0.975662 0.364660 0.900587
0.041367 0.374685 0.779049
0.093507 0.393423 0.800916
0.159716 0.401877 0.812451
0.248966 0.413993 0.838087
0.445594 0.407416 0.846494
0.651392 0.405615 0.865736
0.808148 0.419760 0.883604
0.915694 0.436133 0.905608
0.982025 0.466835 0.924071
0.041123 0.490288 0.810178
0.093263 0.512032 0.834043
0.159609 0.527657 0.851530
0.244755 0.530709 0.858732
0.433722 0.539422 0.886763
0.627253 0.526238 0.889860
0.794858 0.540429 0.911254
0.909468 0.553658 0.924941
0.980011 0.578637 0.935409
0.042405 0.607172 0.841550
0.095003 0.629358 0.863844
0.161227 0.644480 0.879530
0.245533 0.649897 0.887205
0.424796 0.652125 0.894652
0.629862 0.662715 0.912917
0.780255 0.663569 0.911955
0.894499 0.670451 0.926268
0.971893 0.683909 0.933135
0.051041 0.721538 0.881300
0.103655 0.739605 0.898116
0.168872 0.750149 0.908309
0.250675 0.752178 0.910872
0.417151 0.751293 0.911299
0.619577 0.758694 0.915969
0.778164 0.774731 0.918441
0.879774 0.775845 0.923812
0.962783 0.777569 0.929427
0.064927 0.824598 0.920851
0.115358 0.837339 0.931930
0.178759 0.843610 0.936873
0.257816 0.842298 0.934630
0.405356 0.837430 0.930129
0.614542 0.839139 0.926604
0.770840 0.851545 0.925429
0.876646 0.867231 0.924056
0.953368 0.867170 0.929961
0.072633 0.906355 0.945953
0.121340 0.912581 0.950179
0.183078 0.917449 0.951949
0.260563 0.920439 0.950195
0.352804 0.920165 0.945083
0.591226 0.923980 0.940658
0.757153 0.932052 0.936126
0.869657 0.941833 0.933913
0.954650 0.950088 0.932998
