luts/drone/soft-warming-cinematic.cube
TITLE "Soft Warming Cinematic"
LUT_3D_SIZE 33
0.050034 0.058808 0.059876
0.064103 0.059403 0.059922
0.079042 0.060594 0.060349
0.094591 0.061936 0.060761
0.110994 0.063264 0.061021
0.128695 0.064546 0.061021
0.148348 0.065568 0.060578
0.170642 0.066209 0.059373
0.195087 0.066667 0.057587
0.221668 0.067109 0.055238
0.250187 0.067247 0.052400
0.280262 0.066758 0.048936
0.311604 0.066209 0.045502
0.343420 0.065766 0.042695
0.374655 0.066224 0.040665
0.404471 0.067399 0.039521
0.437034 0.067399 0.040116
0.470375 0.067140 0.041184
0.503807 0.067048 0.042420
0.537148 0.067185 0.043854
0.569528 0.067491 0.045533
0.600992 0.067887 0.047578
0.630518 0.068742 0.049592
0.658335 0.069810 0.051499
0.684535 0.071107 0.053529
0.709163 0.072587 0.055695
0.732738 0.074479 0.057786
0.756054 0.076951 0.059602
0.778851 0.079408 0.061494
0.800870 0.082048 0.063401
0.822812 0.084733 0.065278
0.844892 0.087571 0.067048
0.867247 0.090532 0.068788
0.050233 0.072908 0.059907
0.064454 0.072953 0.060243
0.079500 0.073579 0.060410
0.094698 0.074830 0.060884
0.111086 0.076066 0.060838
0.128832 0.076906 0.061112
0.148516 0.077592 0.060716
0.170855 0.077928 0.059541
0.195407 0.078065 0.057710
0.222217 0.078111 0.055253
0.250889 0.077958 0.052323
0.281117 0.077516 0.048859
0.312673 0.076966 0.045472
0.344594 0.076448 0.042817
0.375570 0.076600 0.041016
0.405463 0.077165 0.040299
0.438239 0.077027 0.040986
0.471504 0.077089 0.041917
0.505043 0.077241 0.043107
0.538460 0.077501 0.044572
0.570916 0.077958 0.046265
0.602457 0.078523 0.048386
0.632227 0.079530 0.050370
0.660273 0.080796 0.052400
0.686702 0.082246 0.054551
0.711543 0.083879 0.056733
0.735775 0.086229 0.058671
0.759197 0.088823 0.060655
0.782055 0.091554 0.062577
0.804562 0.094362 0.064637
0.826841 0.097230 0.066636
0.849165 0.100252 0.068498
0.871809 0.103441 0.070344
0.050782 0.087968 0.059937
0.064653 0.087953 0.060655
0.079438 0.087816 0.060685
0.094942 0.088182 0.060182
0.112123 0.089189 0.059220
0.129656 0.089952 0.060075
0.149020 0.091020 0.060212
0.171267 0.091539 0.059327
0.195956 0.091279 0.057725
0.222965 0.090684 0.055299
0.252003 0.089784 0.052277
0.282597 0.089174 0.048829
0.314351 0.088533 0.045579
0.346487 0.087800 0.043168
0.377142 0.088212 0.041733
0.407691 0.088807 0.041398
0.440620 0.088960 0.042130
0.474113 0.089113 0.043122
0.507774 0.089418 0.044404
0.541405 0.089830 0.046006
0.574212 0.090455 0.047791
0.606012 0.091157 0.050034
0.635981 0.092439 0.052155
0.664363 0.093919 0.054353
0.691188 0.095811 0.056611
0.716854 0.098222 0.058640
0.741405 0.100877 0.060716
0.765362 0.103822 0.062974
0.788678 0.106950 0.065248
0.811673 0.110185 0.067552
0.834470 0.113558 0.069825
0.857221 0.117113 0.071885
0.880308 0.120790 0.073945
0.050538 0.103914 0.059800
0.064530 0.103838 0.060563
0.078828 0.103883 0.061326
0.093553 0.103929 0.061082
0.112184 0.103212 0.058701
0.131502 0.102754 0.058427
0.150790 0.103716 0.058839
0.172885 0.104845 0.058396
0.197345 0.105486 0.057099
0.224247 0.105318 0.055177
0.253620 0.104082 0.052461
0.284855 0.102586 0.048936
0.316991 0.101442 0.045838
0.349538 0.100816 0.043687
0.380331 0.101274 0.042634
0.411582 0.102037 0.042680
0.444968 0.102419 0.043641
0.478767 0.102876 0.044816
0.512825 0.103426 0.046311
0.546853 0.104173 0.048188
0.580224 0.105089 0.050446
0.612207 0.106279 0.052811
0.642573 0.107897 0.055177
0.671443 0.110033 0.057359
0.698848 0.112627 0.059617
0.724971 0.115419 0.061891
0.750103 0.118471 0.064271
0.774517 0.121736 0.066789
0.798199 0.125139 0.069200
0.821515 0.128756 0.071656
0.844709 0.132601 0.073976
0.867872 0.136507 0.076188
0.891371 0.140612 0.078386
0.049683 0.120577 0.059098
0.063600 0.120607 0.059770
0.078035 0.120653 0.060578
0.092851 0.120699 0.061418
0.109148 0.120455 0.060395
0.131792 0.118105 0.057984
0.152972 0.117052 0.057130
0.175387 0.117983 0.056886
0.200137 0.118959 0.055863
0.227024 0.119829 0.054246
0.256153 0.119982 0.052048
0.287480 0.118502 0.049043
0.320348 0.117617 0.045884
0.353796 0.116823 0.043961
0.385595 0.117174 0.043137
0.417350 0.117937 0.043687
0.451331 0.118364 0.045213
0.485801 0.118959 0.046937
0.520439 0.119768 0.048814
0.555016 0.120836 0.051072
0.588830 0.122103 0.053636
0.621256 0.123812 0.056092
0.652018 0.126101 0.058320
0.681224 0.128664 0.060609
0.708858 0.131456 0.063035
0.735332 0.134554 0.065568
0.760723 0.137911 0.068177
0.785428 0.141421 0.070817
0.809461 0.145281 0.073289
0.833082 0.149279 0.075776
0.856611 0.153521 0.078233
0.880278 0.157900 0.080613
0.903960 0.162295 0.082979
0.048783 0.137453 0.057527
0.062180 0.138094 0.058091
0.076554 0.138231 0.058839
0.091783 0.138323 0.059663
0.108171 0.137957 0.060563
0.128237 0.136721 0.059403
0.153826 0.133608 0.056199
0.178073 0.132235 0.055222
0.203326 0.133211 0.054414
0.230884 0.134340 0.052873
0.260456 0.135332 0.050645
0.291737 0.135973 0.047990
0.324651 0.136004 0.045350
0.358953 0.136080 0.043748
0.392874 0.136736 0.043076
0.424826 0.137713 0.043870
0.459648 0.137987 0.046204
0.495003 0.138598 0.048631
0.530404 0.139467 0.051133
0.565469 0.140688 0.053742
0.599542 0.142061 0.056504
0.632212 0.144213 0.058946
0.663249 0.146624 0.061418
0.692653 0.149310 0.063935
0.720668 0.152438 0.066606
0.747341 0.155825 0.069230
0.773098 0.159640 0.071809
0.797925 0.163561 0.074479
0.822187 0.167773 0.077073
0.846220 0.172198 0.079637
0.869810 0.176761 0.082048
0.893446 0.181445 0.084459
0.917357 0.186343 0.086839
0.047410 0.155169 0.054994
0.059861 0.156664 0.055161
0.074372 0.156832 0.056001
0.089983 0.156893 0.056947
0.107408 0.156664 0.057969
0.126253 0.156390 0.059587
0.150652 0.154360 0.058732
0.178897 0.150958 0.054658
0.206409 0.149554 0.052903
0.234928 0.150454 0.051316
0.265599 0.151751 0.049058
0.298054 0.153155 0.046403
0.331395 0.154681 0.044221
0.365560 0.156085 0.043381
0.400351 0.157336 0.043198
0.432959 0.159182 0.044190
0.468833 0.160174 0.046784
0.504982 0.161074 0.049638
0.541100 0.162020 0.052674
0.576516 0.163043 0.055772
0.610880 0.164645 0.058640
0.643717 0.166827 0.061341
0.675105 0.169482 0.063996
0.705013 0.172702 0.066621
0.733272 0.176287 0.069169
0.760266 0.180163 0.071748
0.786191 0.184253 0.074372
0.811139 0.188663 0.076997
0.835554 0.193301 0.079484
0.859358 0.198016 0.082078
0.883024 0.202930 0.084626
0.906569 0.207965 0.087129
0.929397 0.213031 0.089387
0.045411 0.173632 0.051316
0.056901 0.176196 0.051011
0.071275 0.176852 0.051881
0.087114 0.177203 0.053010
0.104906 0.177432 0.054292
0.125704 0.177676 0.056641
0.147936 0.177203 0.060090
0.176074 0.174212 0.056931
0.207126 0.170626 0.052857
0.238819 0.169162 0.049500
0.270634 0.170581 0.047349
0.304143 0.172274 0.044770
0.338857 0.174273 0.042863
0.373724 0.176547 0.042741
0.407279 0.178851 0.043275
0.441627 0.181125 0.044938
0.477775 0.182773 0.047593
0.514229 0.184466 0.050340
0.550805 0.185992 0.053376
0.586892 0.187655 0.056504
0.621668 0.190097 0.059236
0.655039 0.192950 0.061784
0.686809 0.196201 0.064347
0.716838 0.199847 0.066911
0.745296 0.203738 0.069444
0.772381 0.207919 0.072068
0.798428 0.212528 0.074601
0.823453 0.217304 0.077134
0.847684 0.222263 0.079713
0.871321 0.227497 0.082124
0.894728 0.232593 0.084596
0.917876 0.237995 0.086839
0.939391 0.243168 0.088777
0.043061 0.193622 0.047211
0.054200 0.196460 0.046876
0.067475 0.198779 0.047059
0.083467 0.199649 0.048356
0.101762 0.200595 0.049973
0.123217 0.201602 0.052583
0.147738 0.201144 0.056794
0.173648 0.200031 0.060868
0.206012 0.197879 0.053849
0.239261 0.193576 0.050828
0.274784 0.192035 0.045884
0.309895 0.193469 0.042649
0.345388 0.195651 0.040909
0.380148 0.198260 0.041932
0.415579 0.201007 0.044007
0.451560 0.203510 0.046448
0.487968 0.205768 0.049012
0.524269 0.207858 0.051621
0.560403 0.210376 0.054047
0.596323 0.213535 0.056336
0.631205 0.217014 0.058640
0.664790 0.221012 0.060700
0.696681 0.225193 0.062821
0.726940 0.229587 0.065095
0.755734 0.234241 0.067384
0.782986 0.239292 0.069596
0.809064 0.244785 0.071824
0.834150 0.249882 0.074327
0.858320 0.255467 0.076554
0.881727 0.260960 0.078767
0.904936 0.266545 0.080980
0.927993 0.272206 0.083009
0.948302 0.277440 0.084672
0.040650 0.215457 0.043458
0.051774 0.218540 0.043122
0.063890 0.222690 0.042496
0.079606 0.224552 0.043595
0.098390 0.226154 0.045426
0.120424 0.227741 0.048325
0.145724 0.227939 0.052567
0.173877 0.226093 0.058290
0.202502 0.225834 0.060624
0.239231 0.223056 0.050736
0.275212 0.218738 0.047669
0.313985 0.217060 0.041489
0.350668 0.218845 0.039460
0.386938 0.221546 0.041596
0.424094 0.224262 0.044709
0.461234 0.226963 0.047593
0.498756 0.229465 0.050538
0.535958 0.232425 0.053071
0.572412 0.235691 0.055360
0.608179 0.239506 0.057282
0.642267 0.243656 0.058961
0.675532 0.248096 0.060761
0.707012 0.253010 0.062455
0.737179 0.258228 0.064286
0.765621 0.263722 0.066041
0.792355 0.269627 0.067658
0.818601 0.275563 0.069612
0.843565 0.281651 0.071504
0.867521 0.288136 0.073152
0.890929 0.294728 0.074617
0.914137 0.301106 0.076158
0.936965 0.308110 0.077165
0.955657 0.313558 0.078019
0.038422 0.239292 0.040238
0.049500 0.242496 0.039902
0.061830 0.247105 0.039307
0.075532 0.251347 0.038697
0.094896 0.253422 0.040696
0.117372 0.255558 0.043732
0.143206 0.256474 0.047883
0.172763 0.255039 0.054002
0.203998 0.252872 0.059632
0.237934 0.255589 0.056672
0.275364 0.249851 0.049912
0.314412 0.245808 0.044236
0.354559 0.244480 0.039521
0.394324 0.246174 0.041047
0.432639 0.248859 0.044923
0.470665 0.251606 0.048295
0.509209 0.255100 0.051103
0.547448 0.258625 0.053788
0.584482 0.262562 0.055863
0.619516 0.266651 0.057481
0.653742 0.270939 0.059266
0.686336 0.275608 0.060792
0.718074 0.280659 0.062577
0.747600 0.286198 0.064057
0.775647 0.292119 0.065522
0.802502 0.298436 0.066957
0.827832 0.304936 0.068254
0.852583 0.311955 0.069459
0.876310 0.318944 0.070466
0.899504 0.326116 0.071366
0.921935 0.333349 0.071855
0.944533 0.340551 0.072465
0.960479 0.344884 0.073152
0.036469 0.264668 0.037430
0.047456 0.267857 0.037110
0.059968 0.272648 0.036561
0.072831 0.278309 0.034882
0.091356 0.282094 0.036011
0.114488 0.284764 0.038956
0.140871 0.286381 0.042969
0.171115 0.285206 0.049317
0.203845 0.282780 0.056458
0.241032 0.283757 0.053712
0.276265 0.284733 0.051255
0.314931 0.278172 0.049653
0.356497 0.274723 0.042222
0.397910 0.273167 0.039170
0.439490 0.274846 0.043839
0.480705 0.278538 0.047929
0.520088 0.282338 0.051072
0.558206 0.286137 0.053574
0.594949 0.290227 0.055528
0.630411 0.294499 0.057267
0.664073 0.299138 0.058686
0.696635 0.304128 0.060090
0.727138 0.309346 0.061311
0.756664 0.315022 0.062730
0.784405 0.321035 0.064088
0.811078 0.327474 0.065339
0.836088 0.334264 0.066300
0.860533 0.341329 0.067201
0.884047 0.348592 0.067872
0.906950 0.355993 0.068269
0.929351 0.363455 0.068452
0.951888 0.371466 0.068315
0.965423 0.374197 0.069413
0.034745 0.291051 0.035096
0.045655 0.294255 0.034806
0.058350 0.299321 0.034272
0.071794 0.305013 0.032990
0.090105 0.309789 0.033860
0.112657 0.314244 0.035462
0.138598 0.317678 0.037949
0.170092 0.316991 0.044160
0.204105 0.315190 0.051133
0.239414 0.314153 0.055207
0.279896 0.317052 0.046143
0.316335 0.317479 0.048341
0.358129 0.310323 0.046723
0.401007 0.306950 0.038880
0.443717 0.305623 0.039338
0.486763 0.307637 0.044511
0.528695 0.310567 0.049485
0.568200 0.314733 0.052384
0.604868 0.319005 0.054307
0.640101 0.323369 0.056016
0.673503 0.327977 0.057374
0.705150 0.332799 0.058518
0.735515 0.338140 0.059617
0.764553 0.343893 0.060777
0.791684 0.349996 0.061768
0.818173 0.356817 0.062608
0.842603 0.363668 0.063111
0.867018 0.370947 0.063768
0.890333 0.378347 0.064195
0.913420 0.386099 0.064378
0.935699 0.394171 0.064073
0.957412 0.401465 0.064042
0.970214 0.403998 0.065034
0.033387 0.318456 0.033356
0.044282 0.321782 0.033021
0.057206 0.327016 0.032563
0.071275 0.332830 0.031830
0.089937 0.337606 0.032944
0.112367 0.342367 0.034592
0.137987 0.347189 0.036011
0.170001 0.350103 0.038911
0.205066 0.349004 0.045624
0.240436 0.347021 0.052888
0.281300 0.350484 0.046662
0.321218 0.352285 0.040116
0.359670 0.353002 0.047730
0.404990 0.344869 0.039979
0.448615 0.342016 0.038834
0.491630 0.340032 0.039200
0.533761 0.341283 0.044434
0.574136 0.344442 0.048798
0.612848 0.348028 0.052186
0.648783 0.352712 0.053910
0.682200 0.357321 0.055177
0.713298 0.362081 0.056199
0.743145 0.367239 0.057176
0.771481 0.372992 0.058076
0.798138 0.379232 0.058671
0.823896 0.385840 0.059358
0.848554 0.393027 0.059724
0.872847 0.400534 0.060090
0.895888 0.408408 0.060060
0.918776 0.416678 0.059587
0.941268 0.424949 0.058946
0.961807 0.431571 0.058946
0.974624 0.434211 0.059693
0.032593 0.347127 0.032517
0.043564 0.350072 0.032563
0.056565 0.355459 0.032059
0.070771 0.361440 0.031174
0.089692 0.366415 0.032441
0.112902 0.371374 0.034180
0.140414 0.376471 0.035691
0.172137 0.381598 0.036866
0.207614 0.382483 0.041993
0.243931 0.381109 0.049287
0.282292 0.382437 0.051347
0.327276 0.386969 0.039643
0.366461 0.389807 0.039033
0.405280 0.388251 0.043916
0.453361 0.380667 0.039261
0.496773 0.377707 0.038850
0.538735 0.375570 0.038850
0.578653 0.376074 0.042527
0.617044 0.379095 0.046433
0.653758 0.382528 0.049577
0.688472 0.386557 0.051911
0.721019 0.391791 0.053117
0.750713 0.397116 0.053956
0.778347 0.402838 0.054612
0.804868 0.409079 0.055192
0.830488 0.415930 0.055634
0.854017 0.422843 0.055817
0.878355 0.430732 0.055726
0.901259 0.438544 0.055421
0.924056 0.446754 0.054734
0.945998 0.455146 0.053727
0.962539 0.461341 0.054505
0.975052 0.463691 0.056001
0.032074 0.376867 0.031891
0.043107 0.379339 0.032471
0.056184 0.384573 0.032090
0.070390 0.390921 0.031067
0.089967 0.396292 0.032120
0.115816 0.401526 0.033951
0.144121 0.407065 0.035538
0.175753 0.412787 0.036713
0.211185 0.415274 0.040726
0.248020 0.414374 0.047913
0.285740 0.414832 0.053132
0.329915 0.420722 0.042252
0.373022 0.423621 0.039033
0.414038 0.428824 0.039155
0.452659 0.423926 0.039643
0.501366 0.417014 0.039124
0.543175 0.414099 0.038788
0.582498 0.412375 0.038758
0.620584 0.411612 0.039689
0.657465 0.414145 0.042649
0.692363 0.418219 0.045472
0.725521 0.422400 0.047883
0.756451 0.427329 0.049638
0.784817 0.433265 0.050309
0.811002 0.439567 0.050645
0.836316 0.446418 0.050904
0.860136 0.453590 0.050828
0.883452 0.461082 0.050385
0.906294 0.468956 0.049821
0.928542 0.476707 0.050889
0.947768 0.485008 0.052705
0.962539 0.490257 0.054505
0.975006 0.492699 0.055970
0.031693 0.406592 0.032532
0.042771 0.409186 0.033280
0.055894 0.414588 0.032883
0.071015 0.421775 0.030777
0.094011 0.427344 0.031968
0.120043 0.432792 0.033799
0.147890 0.438376 0.035370
0.179583 0.444236 0.036561
0.215335 0.447303 0.040253
0.252323 0.447242 0.046616
0.289708 0.447181 0.052415
0.331823 0.452491 0.046326
0.377554 0.458122 0.038850
0.417197 0.460670 0.038865
0.460563 0.467781 0.038956
0.497444 0.460410 0.040040
0.546639 0.454154 0.038926
0.586069 0.451698 0.038666
0.623880 0.450065 0.038743
0.660075 0.449302 0.038956
0.694896 0.450309 0.039292
0.728206 0.454505 0.039872
0.759487 0.459327 0.042161
0.788663 0.464607 0.043763
0.816175 0.470573 0.044770
0.841550 0.477195 0.045136
0.865400 0.484367 0.045777
0.888365 0.491386 0.047242
0.910597 0.499016 0.048936
0.932174 0.506798 0.050706
0.947585 0.514580 0.052491
0.962280 0.518883 0.054231
0.974731 0.521111 0.055634
0.031510 0.436133 0.034440
0.042603 0.439658 0.033829
0.055909 0.446769 0.030884
0.074357 0.453300 0.029862
0.098817 0.458412 0.031861
0.124285 0.463798 0.033707
0.152041 0.469505 0.035279
0.183688 0.475380 0.036454
0.219455 0.478477 0.040085
0.256321 0.478843 0.045838
0.293706 0.478904 0.051164
0.334112 0.483406 0.049454
0.379644 0.490745 0.038758
0.424552 0.495445 0.038804
0.462425 0.499687 0.038926
0.505623 0.507225 0.039033
0.541375 0.499138 0.040101
0.588113 0.492988 0.039674
0.627176 0.490623 0.038804
0.663188 0.488991 0.038987
0.697505 0.488151 0.039277
0.730007 0.488365 0.039734
0.761212 0.491783 0.040436
0.790677 0.497047 0.041413
0.818250 0.502663 0.042573
0.844556 0.508476 0.043916
0.869413 0.514611 0.045426
0.892409 0.521813 0.047028
0.914443 0.529183 0.048691
0.932464 0.536553 0.050385
0.947158 0.543343 0.052048
0.961761 0.546548 0.053697
0.974227 0.548638 0.055039
0.031632 0.467475 0.033494
0.042725 0.472313 0.031174
0.057206 0.479423 0.027909
0.079942 0.484169 0.029923
0.103807 0.489219 0.031907
0.128862 0.494575 0.033722
0.156405 0.500237 0.035294
0.188159 0.506172 0.036500
0.223880 0.508721 0.040635
0.260838 0.509819 0.045594
0.298146 0.510323 0.050217
0.337896 0.514626 0.050065
0.381674 0.522087 0.040009
0.427161 0.528878 0.039017
0.468849 0.533593 0.039124
0.506722 0.540185 0.039216
0.547921 0.547585 0.039277
0.582986 0.539315 0.040070
0.628031 0.532906 0.040681
0.665965 0.530495 0.039353
0.700496 0.528984 0.039384
0.732738 0.528237 0.039841
0.763348 0.528069 0.040482
0.792309 0.529625 0.041398
0.819745 0.534707 0.042512
0.845624 0.540368 0.043793
0.870359 0.546365 0.045243
0.894530 0.552392 0.046784
0.916838 0.558923 0.048356
0.932036 0.565637 0.049927
0.946593 0.570596 0.051499
0.961105 0.573388 0.053040
0.973602 0.575326 0.054307
0.031907 0.500221 0.029984
0.043549 0.505013 0.027329
0.063371 0.509834 0.028153
0.085878 0.514687 0.030198
0.109270 0.519890 0.032212
0.133989 0.525475 0.034089
0.161379 0.531395 0.035706
0.193072 0.536934 0.037659
0.228382 0.539117 0.042512
0.265110 0.540780 0.047227
0.302571 0.542123 0.051392
0.341711 0.546136 0.051423
0.383368 0.552682 0.044556
0.428824 0.561379 0.039536
0.472587 0.567956 0.039628
0.510872 0.572702 0.039750
0.549203 0.581415 0.039750
0.588418 0.587884 0.039750
0.622217 0.579171 0.039887
0.665034 0.573068 0.042161
0.701885 0.570611 0.041169
0.735348 0.569329 0.040375
0.765713 0.568231 0.040665
0.794308 0.567956 0.041504
0.820966 0.568551 0.042573
0.846754 0.571817 0.043793
0.871366 0.577173 0.045136
0.895293 0.582834 0.046555
0.917021 0.588830 0.048005
0.931563 0.594751 0.049485
0.946029 0.597543 0.050965
0.960433 0.599619 0.052384
0.972976 0.601450 0.053559
0.032807 0.532799 0.026764
0.047822 0.536324 0.026902
0.068559 0.541054 0.028946
0.089845 0.546563 0.031067
0.112505 0.552346 0.033127
0.137133 0.558404 0.035035
0.164981 0.564416 0.036835
0.197604 0.567102 0.041504
0.232975 0.569268 0.046189
0.269993 0.571572 0.050355
0.307546 0.573526 0.053590
0.346166 0.576974 0.053849
0.387106 0.583444 0.049561
0.431052 0.592187 0.040482
0.475105 0.600504 0.040558
0.516976 0.607050 0.040574
0.551354 0.611444 0.040528
0.590127 0.621653 0.040482
0.627466 0.627604 0.040528
0.661265 0.620600 0.040726
0.701549 0.613672 0.042344
0.736080 0.610285 0.042924
0.767117 0.608774 0.042420
0.796216 0.607935 0.042313
0.823346 0.607370 0.042802
0.848325 0.607156 0.043900
0.872374 0.608011 0.045136
0.895796 0.613123 0.046433
0.916762 0.618463 0.047761
0.931182 0.623743 0.049134
0.945495 0.626154 0.050462
0.959762 0.627619 0.051743
0.972320 0.629374 0.052796
0.033875 0.565209 0.027924
0.049500 0.568902 0.028412
0.070390 0.574014 0.030518
0.092271 0.579461 0.032715
0.115679 0.585153 0.034867
0.141390 0.590448 0.037446
0.170871 0.593591 0.042039
0.203723 0.596368 0.046616
0.239155 0.598917 0.050874
0.275792 0.601526 0.054337
0.313512 0.604120 0.056901
0.351980 0.607446 0.057191
0.392828 0.614282 0.051911
0.434745 0.622003 0.043870
0.478325 0.631373 0.041917
0.519966 0.638911 0.041886
0.559442 0.645426 0.041794
0.591394 0.649531 0.041657
0.629725 0.660655 0.041581
0.665019 0.666010 0.041520
0.697810 0.660517 0.041611
0.735912 0.653391 0.042603
0.768338 0.648783 0.044831
0.796979 0.647059 0.044953
0.824140 0.645991 0.044709
0.849332 0.644907 0.045258
0.874022 0.644648 0.045426
0.896727 0.644739 0.046494
0.916686 0.647410 0.047684
0.930938 0.652232 0.048905
0.945083 0.654353 0.050080
0.959152 0.655253 0.051179
0.971695 0.656641 0.052094
0.037888 0.595285 0.031891
0.055146 0.598398 0.033417
0.076631 0.602960 0.036149
0.099184 0.607919 0.038971
0.123171 0.613245 0.041550
0.148714 0.618662 0.043931
0.178653 0.621729 0.048600
0.211368 0.624598 0.052857
0.246387 0.627527 0.056580
0.283040 0.630549 0.059571
0.320867 0.633707 0.061601
0.358862 0.636637 0.062211
0.399863 0.644251 0.055497
0.440803 0.651591 0.047044
0.482811 0.660563 0.043870
0.524315 0.669291 0.043732
0.563745 0.676280 0.043580
0.600748 0.682490 0.043305
0.631006 0.686763 0.043091
0.667735 0.698329 0.042939
0.700877 0.703120 0.042924
0.731136 0.698146 0.043091
0.767712 0.691371 0.043610
0.799878 0.685939 0.045945
0.824598 0.683360 0.047822
0.849760 0.681407 0.047929
0.874174 0.680354 0.047929
0.897536 0.679866 0.047959
0.916259 0.679393 0.048447
0.930526 0.680400 0.049332
0.944396 0.681254 0.050416
0.958221 0.681605 0.051453
0.970657 0.682750 0.052308
0.046540 0.621530 0.039551
0.064515 0.624994 0.041367
0.085893 0.629618 0.044144
0.108461 0.634775 0.046830
0.132387 0.640284 0.049363
0.158328 0.645563 0.052125
0.187686 0.648905 0.056260
0.220401 0.651667 0.060258
0.255406 0.654994 0.063447
0.291783 0.658518 0.065858
0.329458 0.661906 0.067658
0.368093 0.665904 0.067124
0.408286 0.673075 0.060716
0.449195 0.680827 0.050797
0.489067 0.688670 0.046403
0.529686 0.697658 0.046128
0.568658 0.705058 0.045808
0.606027 0.711986 0.045472
0.639612 0.717281 0.045075
0.668574 0.721767 0.044770
0.703975 0.733913 0.044648
0.734783 0.737804 0.044648
0.763073 0.733059 0.044801
0.797559 0.725994 0.045197
0.829129 0.720928 0.046387
0.852644 0.717357 0.048798
0.875013 0.714946 0.050431
0.897871 0.713558 0.050568
0.914687 0.712322 0.050874
0.928679 0.711589 0.051621
0.943008 0.709453 0.051972
0.956817 0.708339 0.052689
0.969162 0.709453 0.053391
0.056687 0.647074 0.048127
0.075486 0.650874 0.050385
0.096803 0.655695 0.053193
0.119417 0.660929 0.055955
0.143145 0.666484 0.058350
0.169238 0.671336 0.061219
0.198550 0.674723 0.065126
0.231083 0.677958 0.068483
0.265583 0.681331 0.071321
0.301885 0.685145 0.073411
0.339483 0.689143 0.074357
0.377630 0.693751 0.073121
0.417807 0.701701 0.065568
0.457923 0.709972 0.054368
0.496681 0.717937 0.049363
0.535088 0.725750 0.048966
0.573419 0.733516 0.048447
0.610590 0.740505 0.047929
0.646326 0.747036 0.047410
0.676402 0.751125 0.046983
0.704662 0.756024 0.046616
0.737865 0.767178 0.046448
0.766186 0.769451 0.046418
0.792645 0.764324 0.046632
0.825452 0.757595 0.047028
0.856046 0.752773 0.047669
0.879301 0.749279 0.049805
0.899870 0.746319 0.051545
0.914260 0.744045 0.052583
0.927825 0.742245 0.053452
0.941817 0.738872 0.053788
0.955505 0.736980 0.054261
0.967910 0.737667 0.054643
0.067765 0.671794 0.057984
0.087663 0.676127 0.060685
0.109209 0.680949 0.063478
0.131670 0.686213 0.065995
0.155200 0.691783 0.068131
0.181399 0.696193 0.071153
0.210407 0.700282 0.074067
0.241978 0.705409 0.075578
0.275044 0.712139 0.075120
0.310521 0.719051 0.073426
0.347631 0.725505 0.070375
0.385992 0.731487 0.064530
0.425055 0.738109 0.056199
0.465003 0.746151 0.053147
0.503594 0.752926 0.052613
0.540490 0.758358 0.052003
0.576486 0.763165 0.051331
0.613489 0.769375 0.050599
0.649485 0.775296 0.049882
0.682918 0.780163 0.049287
0.710246 0.782635 0.048737
0.738506 0.788281 0.048371
0.769223 0.797208 0.048203
0.795499 0.798306 0.048234
0.820462 0.792493 0.048447
0.852247 0.786511 0.048798
0.880903 0.781765 0.049348
0.903090 0.778607 0.050629
0.916808 0.775555 0.051530
0.930022 0.772213 0.052476
0.942672 0.767361 0.053803
0.955627 0.764645 0.054749
0.967773 0.765209 0.055055
0.080598 0.696315 0.068910
0.099291 0.703532 0.069505
0.118212 0.712932 0.068757
0.138277 0.722469 0.067689
0.160174 0.732082 0.066270
0.185443 0.739925 0.065827
0.214389 0.746105 0.065766
0.246265 0.751446 0.065370
0.280537 0.756359 0.064088
0.316594 0.760128 0.061891
0.353979 0.763424 0.058274
0.392035 0.766598 0.057466
0.432425 0.774746 0.056870
0.472099 0.781399 0.056626
0.510262 0.786999 0.055863
0.546807 0.791379 0.055070
0.582544 0.794751 0.054185
0.617273 0.797955 0.053330
0.651606 0.801816 0.052415
0.685740 0.806409 0.051560
0.716838 0.809873 0.050889
0.741451 0.810910 0.050324
0.769894 0.817853 0.049973
0.798383 0.824857 0.049851
0.822202 0.824170 0.049867
0.846677 0.817884 0.050019
0.877150 0.813123 0.050385
0.904418 0.808835 0.050767
0.918883 0.805035 0.051164
