luts/drone/soft-warming-cinematic.cube
TITLE "Soft Warming Cinematic"
LUT_3D_SIZE 5
0.050034 0.058808 0.059876
0.195087 0.066667 0.057587
0.437034 0.067399 0.040116
0.684535 0.071107 0.053529
0.867247 0.090532 0.068788
0.043061 0.193622 0.047211
0.206012 0.197879 0.053849
0.487968 0.205768 0.049012
0.755734 0.234241 0.067384
0.948302 0.277440 0.084672
0.031693 0.406592 0.032532
0.215335 0.447303 0.040253
0.546639 0.454154 0.038926
0.816175 0.470573 0.044770
0.974731 0.521111 0.055634
0.056687 0.647074 0.048127
0.265583 0.681331 0.071321
0.573419 0.733516 0.048447
0.825452 0.757595 0.047028
0.967910 0.737667 0.054643
0.074601 0.918044 0.071153
0.306996 0.935378 0.075288
0.603037 0.939879 0.064408
0.827832 0.939971 0.054307
0.971588 0.939330 0.053468
0.050019 0.074876 0.187549
0.213733 0.075853 0.189059
0.458869 0.063157 0.153903
0.690257 0.071046 0.158373
0.871107 0.091005 0.174685
0.043824 0.194583 0.192630
0.199939 0.211017 0.212222
0.502266 0.209003 0.185306
0.759457 0.225345 0.186862
0.951873 0.268925 0.206058
0.035691 0.417456 0.168017
0.192447 0.466682 0.168429
0.550484 0.475517 0.161212
0.816251 0.489387 0.153124
0.978531 0.539132 0.167346
0.046021 0.625971 0.203525
0.250675 0.692714 0.199741
0.573938 0.744366 0.191669
0.829007 0.761181 0.155093
0.968261 0.742138 0.163119
0.076341 0.922164 0.182361
0.279011 0.942519 0.185641
0.593957 0.947906 0.171939
0.828504 0.944610 0.160754
0.971466 0.939757 0.178820
0.042908 0.108675 0.405798
0.175998 0.103502 0.401480
0.492775 0.094041 0.367285
0.728771 0.092317 0.352636
0.899001 0.114870 0.366995
0.041260 0.215000 0.406394
0.168994 0.240696 0.438453
0.539803 0.239384 0.414389
0.788464 0.253498 0.417762
0.953964 0.295796 0.458991
0.036225 0.440009 0.441550
0.153017 0.483894 0.483482
0.514900 0.507973 0.507851
0.794949 0.527718 0.510323
0.967681 0.554040 0.523934
0.046525 0.727962 0.526375
0.165072 0.729488 0.520928
0.530739 0.747677 0.478065
0.815183 0.767407 0.450355
0.968902 0.761090 0.474617
0.073335 0.946822 0.552758
0.185687 0.952056 0.528237
0.533715 0.975753 0.452628
0.810513 0.944701 0.480049
0.967346 0.932906 0.465385
0.038498 0.140429 0.606455
0.154788 0.135134 0.596841
0.452979 0.131975 0.572335
0.745571 0.124819 0.540459
0.901076 0.141299 0.570077
0.040055 0.250141 0.615747
0.152789 0.270726 0.642680
0.503944 0.277592 0.629740
0.798596 0.295399 0.651133
0.951782 0.336095 0.703120
0.037262 0.456016 0.648722
0.154421 0.497078 0.695964
0.466560 0.519417 0.740505
0.810132 0.530938 0.741955
0.961730 0.573922 0.768399
0.047257 0.711299 0.733532
0.165225 0.744381 0.765728
0.431815 0.763104 0.781918
0.793057 0.780377 0.774578
0.956863 0.786252 0.776333
0.071794 0.923858 0.826520
0.182940 0.944656 0.834089
0.349142 0.956619 0.804227
0.784237 0.952209 0.739742
0.964065 0.942184 0.737148
0.037339 0.169574 0.752346
0.137377 0.164889 0.740429
0.434623 0.153948 0.716487
0.725826 0.164569 0.726345
0.913268 0.185550 0.780667
0.042191 0.284535 0.772381
0.156680 0.305501 0.800366
0.463478 0.293812 0.801556
0.804044 0.320516 0.839857
0.975662 0.364660 0.900587
0.041123 0.490288 0.810178
0.159609 0.527657 0.851530
0.433722 0.539422 0.886763
0.794858 0.540429 0.911254
0.980011 0.578637 0.935409
0.051041 0.721538 0.881300
0.168872 0.750149 0.908309
0.417151 0.751293 0.911299
0.778164 0.774731 0.918441
0.962783 0.777569 0.929427
0.072633 0.906355 0.945953
0.183078 0.917449 0.951949
0.352804 0.920165 0.945083
0.757153 0.932052 0.936126
0.954650 0.950088 0.932998
