luts/drone/teal-orange-basic.cube
TITLE "Teal+Orange Basic"
LUT_3D_SIZE 33
0.003922 0.000000 0.000000
0.030883 0.000000 0.000000
0.065441 0.003677 0.003677
0.100123 0.000368 0.003554
0.131372 0.011275 0.003922
0.165563 0.011152 0.011152
0.197059 0.011765 0.004657
0.234927 0.022671 0.010907
0.269608 0.025490 0.009804
0.296446 0.030270 0.011765
0.332353 0.032843 0.010539
0.363235 0.035294 0.017034
0.395588 0.044118 0.013235
0.432108 0.049387 0.017279
0.468137 0.058824 0.019608
0.496691 0.064829 0.023529
0.529411 0.068628 0.021568
0.563971 0.078186 0.025367
0.592893 0.084069 0.033088
0.631495 0.091789 0.043137
0.660784 0.102451 0.052451
0.691667 0.108578 0.053676
0.726471 0.122794 0.066667
0.757353 0.126593 0.070588
0.784313 0.132353 0.075490
0.811274 0.142034 0.082353
0.850000 0.153676 0.091667
0.876961 0.164093 0.098652
0.903922 0.169117 0.109804
0.934804 0.181495 0.122672
0.965686 0.192402 0.129657
0.992402 0.203922 0.141299
1.000000 0.207843 0.149020
0.003799 0.023039 0.000000
0.038603 0.027083 0.000237
0.065924 0.030523 0.003570
0.104044 0.031128 0.003933
0.134329 0.031373 0.004397
0.168892 0.034907 0.011765
0.197871 0.041199 0.010930
0.239652 0.045615 0.011642
0.266666 0.047702 0.010846
0.299333 0.054534 0.014530
0.335049 0.054657 0.017280
0.368463 0.058456 0.017034
0.401854 0.062500 0.017157
0.431250 0.070293 0.020197
0.469187 0.070903 0.019677
0.502566 0.078546 0.027566
0.533210 0.086030 0.029473
0.562197 0.095653 0.029469
0.597235 0.101103 0.039147
0.627647 0.103454 0.043187
0.662286 0.118674 0.054657
0.686722 0.120178 0.057556
0.725077 0.130270 0.065119
0.757230 0.137098 0.069432
0.783272 0.142034 0.073438
0.809260 0.150586 0.080978
0.843069 0.161496 0.094141
0.876980 0.169098 0.103064
0.906908 0.176854 0.116850
0.938369 0.184915 0.125367
0.965457 0.196446 0.133463
0.996082 0.211646 0.148901
1.000000 0.215686 0.152941
0.015196 0.046569 0.000000
0.045971 0.053807 0.003570
0.069608 0.054381 0.007353
0.104365 0.057621 0.004489
0.138940 0.055545 0.005086
0.169317 0.062010 0.008126
0.204121 0.064997 0.004412
0.238848 0.072427 0.011520
0.270466 0.073652 0.009191
0.305392 0.076662 0.015755
0.335125 0.076547 0.010953
0.370994 0.077857 0.017111
0.399908 0.084161 0.013480
0.430560 0.087278 0.014239
0.467785 0.093521 0.025628
0.500383 0.099387 0.027451
0.531250 0.097671 0.025613
0.558456 0.109314 0.031488
0.596706 0.114843 0.042571
0.631640 0.118796 0.047717
0.662163 0.126562 0.052206
0.692931 0.134275 0.057675
0.728676 0.141911 0.064706
0.758785 0.148599 0.071270
0.784191 0.151655 0.072733
0.816054 0.165074 0.087937
0.849112 0.172105 0.095052
0.880308 0.176839 0.099678
0.904841 0.184804 0.113725
0.938358 0.196400 0.122281
0.968658 0.203922 0.133578
0.989078 0.215678 0.141904
1.000000 0.219608 0.156863
0.019608 0.076960 0.003554
0.045868 0.080672 0.007475
0.073729 0.077550 0.007575
0.111554 0.084804 0.011064
0.141835 0.085616 0.005990
0.176773 0.092035 0.012500
0.199127 0.088427 0.004726
0.241625 0.096488 0.013683
0.273345 0.096232 0.008119
0.300839 0.099491 0.014422
0.335416 0.103186 0.012271
0.372189 0.100984 0.015812
0.400306 0.107001 0.013894
0.431916 0.110811 0.019459
0.464093 0.113067 0.020580
0.501180 0.118605 0.026203
0.529596 0.120650 0.031189
0.565687 0.130369 0.033774
0.596699 0.133992 0.039185
0.631564 0.134260 0.048939
0.661887 0.145236 0.055653
0.687986 0.148285 0.053439
0.725107 0.156847 0.062860
0.757088 0.162707 0.071588
0.781740 0.165043 0.074694
0.812500 0.172672 0.084276
0.846308 0.180760 0.092333
0.877516 0.191169 0.099632
0.908287 0.196201 0.113848
0.939024 0.207441 0.125823
0.969240 0.211888 0.140808
0.995844 0.223261 0.148786
1.000000 0.231005 0.157231
0.034804 0.103921 0.011275
0.058318 0.104779 0.010785
0.083855 0.104626 0.014001
0.111718 0.105346 0.008655
0.146079 0.108824 0.005392
0.176915 0.116590 0.013557
0.211121 0.118965 0.011367
0.243030 0.123422 0.014231
0.275000 0.124755 0.013726
0.305392 0.123054 0.015824
0.338633 0.126379 0.012439
0.372840 0.126271 0.017616
0.403125 0.131679 0.020159
0.432200 0.131862 0.021354
0.467157 0.139491 0.026961
0.496707 0.141529 0.028156
0.535049 0.143627 0.033334
0.566315 0.149158 0.038970
0.597304 0.153462 0.046568
0.631495 0.153554 0.048239
0.662684 0.164522 0.055821
0.696599 0.165717 0.058824
0.727053 0.172794 0.067065
0.754887 0.179059 0.074648
0.789706 0.183579 0.085049
0.811872 0.187745 0.090410
0.847518 0.193689 0.098774
0.880269 0.203554 0.108977
0.911275 0.207843 0.117586
0.941789 0.219485 0.125735
0.968688 0.229964 0.133578
0.996185 0.231587 0.145312
1.000000 0.238726 0.153431
0.041299 0.134804 0.011152
0.072182 0.131495 0.011275
0.092119 0.134597 0.011321
0.119183 0.132418 0.011960
0.149755 0.138725 0.011979
0.177941 0.142130 0.015686
0.212132 0.149640 0.017762
0.243494 0.150011 0.012010
0.280147 0.150490 0.016054
0.305833 0.150662 0.014583
0.338741 0.153608 0.015495
0.369834 0.153186 0.011133
0.403171 0.156617 0.019730
0.435792 0.158697 0.027574
0.469439 0.164461 0.028899
0.498855 0.164625 0.030798
0.530331 0.168750 0.036642
0.567812 0.170998 0.045182
0.601149 0.176348 0.050291
0.631859 0.179534 0.050245
0.662255 0.184773 0.055530
0.700245 0.187745 0.067000
0.730200 0.194240 0.072235
0.758283 0.201911 0.076543
0.789430 0.202696 0.081219
0.818505 0.207820 0.092390
0.848269 0.213963 0.103194
0.882966 0.222304 0.110417
0.909789 0.226716 0.121002
0.942034 0.234126 0.127991
0.970182 0.242157 0.132797
0.996201 0.253696 0.142118
1.000000 0.258211 0.156250
0.060539 0.162500 0.012500
0.080392 0.162500 0.012523
0.097748 0.159513 0.009666
0.129657 0.161765 0.012799
0.147304 0.165288 0.011795
0.180507 0.166299 0.017525
0.209421 0.173392 0.016283
0.244202 0.174801 0.017440
0.280638 0.175245 0.019056
0.307889 0.181212 0.023529
0.342157 0.182108 0.025000
0.370596 0.181625 0.022564
0.403799 0.187286 0.034069
0.436604 0.185593 0.036750
0.469761 0.187745 0.036367
0.497427 0.191299 0.039828
0.532108 0.191912 0.045588
0.567402 0.197794 0.048208
0.597626 0.200981 0.052053
0.627275 0.203745 0.055300
0.664522 0.209283 0.066483
0.701340 0.212998 0.073767
0.728431 0.216897 0.076961
0.755798 0.222219 0.085746
0.788971 0.221139 0.090380
0.815893 0.227252 0.098859
0.851256 0.233961 0.106479
0.880024 0.238358 0.110800
0.910631 0.247120 0.119271
0.935470 0.254098 0.129113
0.970052 0.258288 0.136765
0.993015 0.266054 0.147718
0.999265 0.273775 0.156128
0.067525 0.186519 0.017402
0.091135 0.192578 0.020466
0.109452 0.192647 0.017731
0.132437 0.191502 0.019528
0.152711 0.195971 0.019884
0.183858 0.195956 0.022805
0.210670 0.197266 0.021239
0.249085 0.201831 0.024690
0.283793 0.204075 0.029228
0.309930 0.205890 0.024391
0.340564 0.208333 0.029389
0.371641 0.206618 0.028899
0.406097 0.209191 0.034360
0.439093 0.213113 0.039951
0.472917 0.215319 0.042762
0.503485 0.216632 0.044573
0.532230 0.218995 0.046630
0.564618 0.223441 0.049299
0.599502 0.225735 0.056618
0.630572 0.230270 0.061662
0.662040 0.233869 0.065686
0.695588 0.234632 0.077179
0.726471 0.240242 0.083257
0.757353 0.243382 0.090441
0.788573 0.247641 0.098376
0.818930 0.250800 0.100237
0.847350 0.253600 0.110340
0.879546 0.263959 0.117302
0.907843 0.268765 0.122534
0.936236 0.271894 0.131212
0.965931 0.280078 0.144347
0.990169 0.287649 0.150000
1.000000 0.292402 0.163848
0.087255 0.219608 0.026471
0.103492 0.219577 0.025429
0.113602 0.216851 0.019853
0.139889 0.225828 0.026471
0.160539 0.221323 0.031250
0.191360 0.223070 0.028278
0.216115 0.223529 0.029044
0.246783 0.224081 0.031802
0.277696 0.230392 0.032598
0.311703 0.233762 0.036152
0.343199 0.237316 0.034620
0.376930 0.237224 0.036918
0.405025 0.238481 0.043260
0.441299 0.239001 0.047059
0.474081 0.243689 0.051409
0.502451 0.245680 0.049663
0.532843 0.247549 0.053431
0.567555 0.250398 0.061581
0.600429 0.251409 0.063787
0.631495 0.257047 0.070803
0.663603 0.257353 0.073162
0.693658 0.261795 0.080790
0.727573 0.266666 0.087500
0.754963 0.266238 0.093413
0.784804 0.273284 0.100490
0.819669 0.274724 0.106311
0.844302 0.276225 0.107230
0.874632 0.283793 0.117892
0.907965 0.288235 0.124020
0.935968 0.292249 0.135049
0.965564 0.299081 0.148836
0.995251 0.305055 0.154381
0.997059 0.310784 0.169608
0.096936 0.247671 0.029657
0.115108 0.250490 0.034069
0.129672 0.250490 0.030270
0.144259 0.251225 0.027612
0.169501 0.249525 0.034191
0.197549 0.247671 0.037500
0.223407 0.253883 0.034398
0.252087 0.249150 0.033709
0.283180 0.255515 0.041483
0.312925 0.256308 0.040621
0.343995 0.262132 0.040931
0.377229 0.264104 0.046703
0.413603 0.268336 0.052191
0.441789 0.266176 0.055599
0.473284 0.270719 0.052696
0.503948 0.269363 0.056400
0.537807 0.275674 0.063052
0.567252 0.273625 0.063944
0.602803 0.280277 0.072166
0.633168 0.282311 0.074345
0.666835 0.285417 0.080591
0.693739 0.285784 0.085896
0.728186 0.289706 0.091789
0.755017 0.291119 0.094118
0.788787 0.295833 0.100551
0.817778 0.298652 0.110175
0.847181 0.300284 0.118704
0.880269 0.306495 0.123897
0.908808 0.310554 0.130040
0.935068 0.315705 0.142704
0.971936 0.322181 0.149265
0.992402 0.326260 0.160941
0.998897 0.332843 0.173162
0.113970 0.274755 0.041912
0.125375 0.276302 0.038159
0.136933 0.276072 0.038235
0.158203 0.277198 0.043988
0.180209 0.281220 0.046017
0.200858 0.279098 0.043788
0.228447 0.281373 0.043107
0.258088 0.282598 0.047939
0.287990 0.282353 0.046814
0.315587 0.286175 0.043850
0.348499 0.291529 0.050214
0.383387 0.292210 0.053255
0.412715 0.295282 0.057139
0.443612 0.297059 0.059919
0.472258 0.296232 0.060493
0.504366 0.301800 0.062745
0.540564 0.299632 0.066054
0.570052 0.300774 0.068582
0.604458 0.305254 0.076516
0.635049 0.308823 0.079304
0.667402 0.310049 0.084191
0.697779 0.312745 0.088044
0.726088 0.313971 0.090656
0.758111 0.315074 0.099020
0.786213 0.321813 0.104841
0.817570 0.324510 0.117547
0.850261 0.328431 0.122304
0.878186 0.332353 0.130652
0.908578 0.334283 0.136826
0.936512 0.340449 0.144608
0.966835 0.341421 0.155806
0.995014 0.345504 0.166337
0.998774 0.354412 0.175245
0.125368 0.305637 0.045711
0.142076 0.306905 0.044363
0.147503 0.305676 0.043221
0.169489 0.304171 0.041916
0.188327 0.308655 0.049632
0.216632 0.305760 0.051612
0.235892 0.308586 0.052819
0.262745 0.306323 0.044558
0.295067 0.313266 0.055576
0.317881 0.312255 0.054278
0.347618 0.314108 0.056633
0.382763 0.316219 0.058743
0.416176 0.321906 0.061397
0.444060 0.324020 0.065319
0.477359 0.327405 0.065472
0.511030 0.328573 0.068685
0.541850 0.328615 0.075122
0.573284 0.328657 0.081656
0.606595 0.333747 0.086374
0.636470 0.334509 0.088848
0.666820 0.338235 0.092570
0.699047 0.337132 0.094118
0.730431 0.339706 0.101877
0.762623 0.343628 0.108701
0.792157 0.343045 0.112776
0.820638 0.347844 0.121473
0.848751 0.350728 0.125360
0.882652 0.356740 0.136309
0.909237 0.359314 0.145160
0.940315 0.358570 0.151218
0.973200 0.364499 0.157024
0.998652 0.368585 0.168868
1.000000 0.372427 0.180392
0.146079 0.330392 0.050980
0.158977 0.335217 0.054381
0.167892 0.334222 0.053339
0.181158 0.334176 0.051210
0.198652 0.336764 0.058334
0.219991 0.335677 0.056740
0.245557 0.335570 0.056618
0.268674 0.335615 0.058946
0.294118 0.339216 0.059068
0.325980 0.339629 0.063358
0.357108 0.341912 0.064645
0.382843 0.343260 0.064951
0.418015 0.347059 0.070404
0.449985 0.350582 0.067264
0.482261 0.353523 0.073683
0.512224 0.356051 0.076593
0.545588 0.355392 0.078186
0.575658 0.357522 0.085586
0.606035 0.359467 0.087653
0.639323 0.359421 0.092647
0.673162 0.363296 0.098652
0.699847 0.366023 0.104105
0.732843 0.364982 0.106954
0.765472 0.368827 0.110769
0.792524 0.371691 0.117157
0.821354 0.373361 0.127650
0.853646 0.375980 0.138051
0.886014 0.378431 0.136627
0.912929 0.382537 0.147243
0.940288 0.385524 0.151088
0.975674 0.387745 0.164767
0.997105 0.394240 0.172274
1.000000 0.399510 0.180392
0.157598 0.360662 0.062745
0.168455 0.360589 0.060440
0.177060 0.364438 0.061206
0.193532 0.363848 0.066299
0.211121 0.359115 0.061826
0.235421 0.360539 0.064959
0.256778 0.363411 0.065495
0.283353 0.363848 0.066506
0.303523 0.366177 0.068873
0.330231 0.367850 0.070098
0.359811 0.371699 0.074517
0.390621 0.369298 0.076838
0.421553 0.373422 0.074112
0.449475 0.375612 0.076191
0.482437 0.378638 0.080637
0.517390 0.380381 0.081116
0.548223 0.383824 0.087010
0.576727 0.383701 0.090932
0.610984 0.388687 0.098162
0.641667 0.387676 0.098686
0.673423 0.390701 0.103110
0.701103 0.389771 0.108758
0.735409 0.394125 0.114959
0.765403 0.394244 0.121285
0.793719 0.396998 0.128584
0.825368 0.399142 0.130270
0.856809 0.399878 0.140441
0.885424 0.401719 0.143505
0.913511 0.410708 0.151838
0.942130 0.410758 0.161370
0.973238 0.412500 0.170910
1.000000 0.417206 0.182181
0.997671 0.420343 0.188235
0.174755 0.387010 0.066667
0.184559 0.390878 0.069240
0.190441 0.389491 0.067295
0.208946 0.390564 0.072710
0.222488 0.389491 0.072304
0.242058 0.391276 0.071545
0.263879 0.393122 0.074510
0.286765 0.394102 0.071071
0.311703 0.394240 0.077819
0.338970 0.394861 0.082843
0.365594 0.396370 0.085892
0.393160 0.395611 0.086443
0.422702 0.398131 0.084069
0.456288 0.401800 0.086765
0.485325 0.402420 0.087516
0.518367 0.408563 0.091965
0.552328 0.411642 0.095711
0.581970 0.413917 0.101417
0.614706 0.412469 0.105131
0.643673 0.414752 0.105155
0.676900 0.418382 0.110937
0.701226 0.417792 0.114047
0.736183 0.422350 0.119210
0.767402 0.422304 0.124387
0.795956 0.423958 0.128554
0.824762 0.425850 0.134199
0.856127 0.424832 0.142724
0.885417 0.428776 0.152252
0.915410 0.432353 0.160845
0.942410 0.432514 0.165517
0.979274 0.437990 0.173499
1.000000 0.441927 0.188411
1.000000 0.444117 0.198284
0.188481 0.420098 0.080515
0.198277 0.417957 0.076953
0.204052 0.419983 0.080645
0.215146 0.418015 0.075490
0.235692 0.421661 0.083931
0.250000 0.420098 0.080722
0.270221 0.420098 0.081618
0.295466 0.421534 0.082598
0.324111 0.422182 0.088419
0.348529 0.422699 0.088427
0.374134 0.423369 0.089698
0.401877 0.422814 0.090442
0.430193 0.425322 0.093689
0.459547 0.430871 0.096592
0.490372 0.430009 0.096063
0.524257 0.433816 0.099376
0.552022 0.435784 0.099081
0.584930 0.441544 0.102091
0.617823 0.441544 0.106932
0.648518 0.442390 0.110795
0.676792 0.445558 0.112056
0.708720 0.445466 0.121653
0.739668 0.447549 0.125452
0.769118 0.449633 0.133402
0.800459 0.448928 0.138817
0.830672 0.451015 0.138691
0.858992 0.451080 0.145833
0.891096 0.453922 0.153761
0.921844 0.457230 0.163404
0.942624 0.461325 0.176520
0.973759 0.459559 0.177321
0.998219 0.467272 0.194355
0.996324 0.466912 0.203922
0.200000 0.445098 0.084314
0.209620 0.445159 0.082476
0.213603 0.448897 0.086152
0.228860 0.449020 0.086643
0.245588 0.448775 0.086520
0.262868 0.449020 0.089890
0.282476 0.447059 0.091422
0.304412 0.449019 0.090196
0.325490 0.450000 0.095098
0.351593 0.449571 0.092709
0.379412 0.452941 0.096814
0.407659 0.452267 0.094792
0.430882 0.454167 0.098039
0.459130 0.453309 0.099204
0.490564 0.459069 0.105269
0.520220 0.458946 0.106005
0.551961 0.463726 0.104902
0.585662 0.466667 0.107843
0.619730 0.468383 0.114583
0.649878 0.468995 0.115257
0.679657 0.469363 0.119853
0.708027 0.473223 0.125551
0.739583 0.475123 0.132598
0.770527 0.477329 0.139522
0.797549 0.476961 0.141666
0.824571 0.474939 0.146385
0.857108 0.480392 0.151716
0.888726 0.483701 0.159436
0.919363 0.486520 0.170833
0.944791 0.488052 0.177022
0.979167 0.486397 0.186397
1.000000 0.492280 0.194240
1.000000 0.494117 0.200000
0.215441 0.477941 0.093872
0.219297 0.474085 0.088228
0.224878 0.477696 0.091789
0.242329 0.478359 0.094068
0.253906 0.477221 0.092004
0.270875 0.479492 0.096163
0.289584 0.477597 0.095221
0.309471 0.477941 0.098250
0.333670 0.479504 0.102635
0.356495 0.479439 0.102301
0.381617 0.481288 0.102328
0.411416 0.480657 0.105005
0.437883 0.483165 0.105315
0.464461 0.483946 0.110895
0.492770 0.485784 0.111519
0.522304 0.487868 0.113725
0.553983 0.488787 0.115686
0.587745 0.491544 0.117647
0.622810 0.496745 0.121431
0.651494 0.497695 0.123063
0.682690 0.500689 0.128799
0.708475 0.501471 0.131089
0.740480 0.500038 0.137584
0.771718 0.504071 0.141624
0.800000 0.505117 0.147457
0.824877 0.506618 0.153799
0.859337 0.507475 0.159436
0.890483 0.509314 0.167076
0.919608 0.514829 0.176961
0.948652 0.513653 0.182770
0.977336 0.515319 0.188610
1.000000 0.517222 0.198096
1.000000 0.525000 0.207598
0.226471 0.504902 0.101470
0.236397 0.504886 0.100230
0.244010 0.504764 0.103921
0.255883 0.505108 0.103516
0.264461 0.504902 0.104381
0.281817 0.504902 0.101884
0.296079 0.506388 0.104749
0.321569 0.510547 0.106365
0.342770 0.510049 0.106311
0.363113 0.510057 0.103814
0.391222 0.513281 0.106909
0.418137 0.512155 0.111519
0.442647 0.512010 0.113021
0.471776 0.512048 0.116345
0.501700 0.516176 0.117371
0.531074 0.515633 0.119731
0.557721 0.518627 0.118750
0.586344 0.523598 0.121339
0.619593 0.522794 0.127956
0.652535 0.526716 0.131740
0.683701 0.527604 0.138542
0.712301 0.528799 0.140318
0.741666 0.528968 0.143091
0.774755 0.529052 0.151218
0.803860 0.532292 0.155883
0.830875 0.531977 0.159919
0.866345 0.534972 0.172457
0.890709 0.534827 0.173430
0.917677 0.536826 0.182598
0.947013 0.540847 0.185746
0.979029 0.544608 0.195833
0.997863 0.546254 0.207981
1.000000 0.544118 0.215686
0.242402 0.535049 0.107475
0.251716 0.531839 0.109731
0.259881 0.535539 0.110493
0.272970 0.535934 0.112132
0.280637 0.535141 0.106663
0.296079 0.533820 0.109555
0.311382 0.536083 0.107774
0.335417 0.535784 0.110313
0.351226 0.536183 0.110232
0.377126 0.538396 0.113767
0.400016 0.538381 0.116927
0.426298 0.539706 0.118080
0.451501 0.543030 0.118061
0.477872 0.543191 0.121779
0.505836 0.543336 0.124586
0.537745 0.545956 0.127328
0.562377 0.546752 0.125919
0.594007 0.549387 0.132452
0.625360 0.549265 0.133739
0.655534 0.551470 0.142122
0.687362 0.555852 0.145680
0.711340 0.556193 0.146691
0.742655 0.555392 0.152336
0.774632 0.557721 0.157966
0.800398 0.558701 0.164706
0.832476 0.557721 0.169485
0.863220 0.562937 0.173284
0.894240 0.564951 0.184927
0.921845 0.562944 0.187408
0.948897 0.567007 0.195711
0.981771 0.565663 0.202528
1.000000 0.571741 0.217279
1.000000 0.571814 0.225858
0.259314 0.564216 0.112745
0.264063 0.558992 0.106572
0.268137 0.562745 0.110294
0.285448 0.565334 0.113495
0.294118 0.567769 0.110907
0.309436 0.567677 0.113342
0.323836 0.565472 0.113725
0.342080 0.567433 0.118413
0.363603 0.566054 0.119363
0.385708 0.567356 0.118842
0.411948 0.569118 0.121507
0.435156 0.569960 0.123545
0.459436 0.571568 0.124203
0.485892 0.573315 0.127957
0.513726 0.572304 0.129504
0.545649 0.573974 0.134176
0.571569 0.573774 0.136029
0.600046 0.577650 0.140027
0.629841 0.579504 0.142003
0.661750 0.578431 0.145573
0.689767 0.583272 0.149939
0.718137 0.582353 0.154075
0.746569 0.582353 0.155637
0.775613 0.581985 0.164706
0.807476 0.584804 0.168382
0.835019 0.582889 0.171492
0.867678 0.587807 0.184865
0.895098 0.588342 0.191789
0.925674 0.588051 0.200919
0.952849 0.592417 0.210570
0.980362 0.591728 0.214032
1.000000 0.595098 0.222779
0.998529 0.599020 0.232843
0.271936 0.593627 0.120343
0.278390 0.594975 0.116502
0.287217 0.596285 0.121408
0.294983 0.593869 0.122917
0.304657 0.597227 0.119976
0.321584 0.597338 0.117226
0.336650 0.597549 0.122182
0.356326 0.597844 0.122917
0.375858 0.598192 0.125827
0.400111 0.598518 0.127719
0.418750 0.597128 0.126961
0.442674 0.598897 0.128607
0.469976 0.599540 0.131602
0.496684 0.599943 0.133088
0.523575 0.600345 0.132966
0.551593 0.600980 0.134926
0.580454 0.604718 0.137929
0.607495 0.608108 0.145240
0.640932 0.609314 0.151126
0.665319 0.610294 0.149640
0.696155 0.611121 0.151409
0.728650 0.613235 0.161669
0.753922 0.611887 0.163358
0.784459 0.613013 0.172583
0.810478 0.612898 0.175521
0.837377 0.612940 0.184046
0.871699 0.613947 0.192149
0.899142 0.617157 0.200613
0.930193 0.613404 0.207521
0.959314 0.619374 0.212018
0.979979 0.617517 0.220052
0.998694 0.619772 0.230350
1.000000 0.626348 0.243260
0.286275 0.627206 0.125490
0.292647 0.626057 0.124303
0.301547 0.627298 0.128110
0.311887 0.624625 0.124525
0.321967 0.628431 0.123438
0.332054 0.627397 0.126294
0.346814 0.628201 0.122565
0.367647 0.628431 0.129779
0.388419 0.631372 0.129657
0.406640 0.629190 0.129457
0.430990 0.628814 0.135784
0.454657 0.628431 0.137132
0.479535 0.631342 0.139154
0.505883 0.632950 0.141307
0.531970 0.632889 0.141758
0.558502 0.633004 0.142364
0.587500 0.633701 0.146936
0.616996 0.636849 0.148736
0.646278 0.637990 0.153340
0.673169 0.636275 0.156993
0.705606 0.638419 0.163021
0.730637 0.641421 0.167662
0.763833 0.642892 0.171078
0.793114 0.639438 0.178110
0.815625 0.637868 0.177022
0.846032 0.639660 0.188825
0.873529 0.639200 0.197549
0.900681 0.642892 0.203255
0.926134 0.643628 0.211857
0.958334 0.643007 0.221316
0.986198 0.646645 0.232506
1.000000 0.645343 0.237783
0.997304 0.651961 0.250736
0.301348 0.656495 0.129902
0.310731 0.656548 0.130584
0.315617 0.658104 0.133157
0.326961 0.656759 0.133436
0.335539 0.659314 0.130515
0.348725 0.660244 0.130438
0.365525 0.659521 0.133908
0.379538 0.658697 0.136401
0.399418 0.662255 0.135141
0.418988 0.659314 0.133203
0.438090 0.661818 0.136596
0.466299 0.659904 0.137389
0.490824 0.663236 0.145803
0.515154 0.662581 0.147384
0.540571 0.663588 0.149992
0.570328 0.663997 0.152382
0.594363 0.667157 0.148713
0.626375 0.667674 0.154044
0.656342 0.668122 0.160646
0.683659 0.669444 0.162335
0.712454 0.673897 0.166176
0.740208 0.668505 0.170488
0.768383 0.670734 0.175636
0.794853 0.667950 0.182288
0.821538 0.671630 0.188481
0.843509 0.669118 0.196082
0.871400 0.665732 0.204044
0.900050 0.668432 0.214583
0.930331 0.669409 0.220527
0.961784 0.668524 0.230373
0.982406 0.671431 0.233211
1.000000 0.674965 0.251049
0.997181 0.675000 0.257108
0.319608 0.689216 0.136274
0.324479 0.689247 0.137255
0.333946 0.693137 0.143934
0.340533 0.690472 0.144118
0.347059 0.690196 0.141911
0.361366 0.689584 0.138848
0.374449 0.687255 0.141421
0.393505 0.691177 0.147182
0.410539 0.692647 0.142402
0.431158 0.690901 0.144271
0.447855 0.692096 0.143811
0.472090 0.690166 0.147396
0.497427 0.693015 0.150368
0.519731 0.694149 0.149847
0.546691 0.695098 0.155576
0.576042 0.696722 0.158027
0.600980 0.696569 0.159314
0.631863 0.698040 0.160846
0.658395 0.697671 0.162193
0.687929 0.699786 0.167678
0.717157 0.700123 0.173774
0.745956 0.703309 0.181372
0.777819 0.701960 0.185539
0.805975 0.700429 0.190503
0.828676 0.699510 0.193872
0.852359 0.700766 0.207751
0.878677 0.698897 0.208027
0.899969 0.694424 0.214124
0.930882 0.696201 0.226348
0.965533 0.697059 0.233885
0.988725 0.698101 0.244363
0.999969 0.698040 0.258824
0.996078 0.702941 0.267647
0.335049 0.721078 0.142034
0.335880 0.721909 0.141203
0.345902 0.721936 0.144240
0.350575 0.721159 0.144240
0.358579 0.721293 0.147503
0.373384 0.721557 0.145822
0.389752 0.724265 0.152367
0.405645 0.722124 0.150065
0.422641 0.722059 0.151072
0.438726 0.725000 0.150981
0.458946 0.727106 0.156495
0.485394 0.725785 0.155810
0.509559 0.726471 0.157430
0.531702 0.727328 0.158804
0.557345 0.725483 0.161635
0.584892 0.726628 0.163480
0.611091 0.729780 0.169485
0.641789 0.728519 0.171323
0.665687 0.729779 0.175123
0.699981 0.731599 0.178412
0.725000 0.734528 0.179948
0.756227 0.732648 0.188798
0.781963 0.732575 0.190050
0.813354 0.732227 0.201103
0.839093 0.733272 0.208609
0.859861 0.730262 0.213293
0.887010 0.729335 0.214790
0.912155 0.725245 0.222415
0.937392 0.718290 0.231480
0.965809 0.723855 0.239457
0.983540 0.725858 0.247143
0.999169 0.725000 0.266939
0.999142 0.728921 0.280147
0.345833 0.751226 0.149755
0.354166 0.751961 0.148016
0.363572 0.755836 0.152834
0.368926 0.750176 0.150789
0.378003 0.752604 0.154320
0.385792 0.752574 0.150981
0.403049 0.755147 0.156128
0.419202 0.754450 0.155683
0.437194 0.756434 0.159988
0.455883 0.755882 0.156174
0.473530 0.754197 0.159099
0.499747 0.758226 0.162385
0.515441 0.756158 0.163327
0.542387 0.755882 0.163710
0.563159 0.757996 0.164782
0.592233 0.758310 0.172135
0.619485 0.759804 0.175245
0.650490 0.762990 0.178554
0.676471 0.761106 0.182430
0.703853 0.762132 0.182721
0.733303 0.763725 0.191697
0.760164 0.765809 0.191666
0.792632 0.763955 0.199004
0.823331 0.763564 0.202045
0.848407 0.767218 0.211397
0.871247 0.762707 0.217118
0.895205 0.759804 0.225000
0.917884 0.759191 0.232223
0.945159 0.753248 0.237959
