luts/drone/teal-orange-satcontrast.cube
TITLE "Teal+Orange SatContrast"
LUT_3D_SIZE 9
0.000000 0.000000 0.000000
0.150980 0.018628 0.012255
0.315686 0.049019 0.024510
0.463726 0.080882 0.050000
0.603921 0.119608 0.086275
0.749510 0.169118 0.129902
0.868628 0.213726 0.178432
0.977942 0.267157 0.232353
1.000000 0.333333 0.301961
0.034804 0.123529 0.010785
0.170833 0.135294 0.010600
0.320588 0.148652 0.026961
0.461642 0.166666 0.062807
0.607598 0.190932 0.092402
0.744914 0.219914 0.136949
0.866789 0.256005 0.179657
0.978003 0.298162 0.235784
1.000000 0.356373 0.302451
0.093137 0.247058 0.017647
0.185417 0.254412 0.029657
0.323284 0.265686 0.046079
0.467524 0.277451 0.078431
0.608823 0.297059 0.107353
0.745588 0.315196 0.151716
0.863726 0.332353 0.189706
0.976470 0.363358 0.247181
1.000000 0.402941 0.310784
0.156373 0.367157 0.047059
0.221262 0.372917 0.056618
0.334191 0.379534 0.071936
0.468444 0.392647 0.100307
0.613480 0.409804 0.126471
0.747059 0.419118 0.164706
0.865686 0.431373 0.211397
0.976042 0.445221 0.258824
1.000000 0.481863 0.330392
0.217647 0.492157 0.078431
0.267402 0.492402 0.080882
0.360294 0.498530 0.097549
0.483088 0.504657 0.119853
0.617647 0.521568 0.149020
0.745833 0.530147 0.182598
0.868137 0.535784 0.227451
0.980147 0.548774 0.283333
0.998039 0.572549 0.350981
0.278922 0.615196 0.112745
0.324326 0.619792 0.118689
0.397181 0.620466 0.128922
0.506863 0.625490 0.148345
0.628431 0.634559 0.173284
0.753921 0.640257 0.210417
0.870221 0.638603 0.251593
0.976593 0.647243 0.310723
1.000000 0.665686 0.379412
0.343137 0.738235 0.152941
0.378309 0.741176 0.159559
0.442402 0.742157 0.169608
0.538358 0.744975 0.186029
0.652451 0.749020 0.214216
0.772672 0.755392 0.243627
0.887991 0.754412 0.290196
0.982721 0.751226 0.349388
1.000000 0.759804 0.425490
0.419608 0.864216 0.211765
0.440074 0.866912 0.212255
0.499632 0.864706 0.223284
0.585723 0.863235 0.242647
0.685294 0.866667 0.270098
0.799510 0.870405 0.306373
0.908579 0.876838 0.353431
0.993995 0.868138 0.403370
0.996568 0.856863 0.479902
0.501961 0.984314 0.294118
0.517647 0.988235 0.301961
0.571568 0.987255 0.319608
0.648039 0.992157 0.343627
0.735294 0.986274 0.372549
0.841176 0.988235 0.421078
0.941176 0.991177 0.467647
0.999510 0.988725 0.530392
1.000000 0.980392 0.603922
0.000000 0.000000 0.108824
0.107843 0.008211 0.120466
0.282966 0.025980 0.132108
0.438971 0.081066 0.147181
0.586765 0.127451 0.174755
0.734865 0.178922 0.205270
0.855024 0.224510 0.231128
0.968076 0.275981 0.274020
0.992647 0.344118 0.335784
0.000000 0.116176 0.121752
0.125781 0.126050 0.126172
0.288557 0.141820 0.139001
0.436711 0.164668 0.153730
0.588879 0.192647 0.175245
0.734758 0.222878 0.202313
0.858839 0.263710 0.236841
0.971775 0.306265 0.277849
0.999939 0.363726 0.335417
0.031618 0.243383 0.122794
0.152956 0.247426 0.130561
0.297365 0.255270 0.139093
0.445864 0.272840 0.158471
0.592402 0.291728 0.181924
0.734911 0.314721 0.209651
0.857874 0.335386 0.243750
0.971185 0.368811 0.282613
0.999142 0.414215 0.338725
0.116177 0.371201 0.138358
0.199089 0.370320 0.144731
0.317769 0.376792 0.154059
0.457728 0.392410 0.171216
0.602849 0.404535 0.190533
0.737699 0.416261 0.218612
0.856541 0.429396 0.252344
0.974280 0.454090 0.296232
0.997855 0.484927 0.355024
0.199755 0.491667 0.156863
0.246752 0.493658 0.158639
0.350490 0.497855 0.164828
0.474571 0.507935 0.182200
0.609436 0.520343 0.203677
0.742555 0.526532 0.229565
0.861030 0.536336 0.271201
0.972334 0.548744 0.318444
0.993137 0.572794 0.374265
0.263726 0.616177 0.170282
0.306740 0.617303 0.178945
0.389078 0.621079 0.183961
0.500191 0.623897 0.201241
0.622611 0.630208 0.219853
0.749241 0.638542 0.248276
0.863527 0.641498 0.286443
0.974785 0.648859 0.334896
1.000000 0.665013 0.406250
0.333210 0.737867 0.199387
0.369562 0.741452 0.204734
0.435325 0.743137 0.213511
0.534237 0.742249 0.226317
0.647978 0.746078 0.247243
0.766851 0.754672 0.282384
0.878768 0.752543 0.316666
0.977896 0.747641 0.366667
0.999632 0.763358 0.444485
0.405454 0.860049 0.240625
0.430745 0.863955 0.245565
0.489875 0.866621 0.259957
0.577305 0.868092 0.273752
0.682384 0.868383 0.303462
0.789254 0.870703 0.332667
0.908639 0.876318 0.377466
0.996568 0.867808 0.424847
0.999142 0.856863 0.496752
0.487255 0.984804 0.321569
0.520282 0.987806 0.328432
0.563358 0.986397 0.342279
0.642341 0.990564 0.362561
0.733088 0.986765 0.395098
0.831188 0.988541 0.431005
0.939706 0.985907 0.482966
1.000000 0.988664 0.538664
1.000000 0.981372 0.611275
0.000000 0.000000 0.220588
0.000368 0.005147 0.230269
0.223039 0.020833 0.238235
0.401471 0.066544 0.259559
0.562255 0.115196 0.271568
0.714583 0.164338 0.288725
0.842402 0.229657 0.317647
0.959927 0.287623 0.347549
1.000000 0.355882 0.389216
0.000858 0.127819 0.232598
0.002604 0.119914 0.237883
0.232292 0.128432 0.248223
0.406005 0.153814 0.261412
0.562561 0.181434 0.272855
0.716789 0.221216 0.296094
0.840809 0.265533 0.320098
0.963373 0.313450 0.348009
1.000000 0.375981 0.393505
0.000000 0.237745 0.236520
0.047304 0.239093 0.239951
0.252451 0.250797 0.251348
0.412561 0.265288 0.262408
0.565809 0.283946 0.278431
0.712040 0.310171 0.295650
0.841360 0.336152 0.320588
0.958058 0.373438 0.354994
0.993873 0.423284 0.400981
0.001103 0.360172 0.250735
0.128263 0.365610 0.249647
0.277512 0.372947 0.257935
0.426226 0.382966 0.266866
0.576777 0.398223 0.281373
0.718750 0.413863 0.302941
0.846477 0.431311 0.327053
0.962377 0.455837 0.360217
0.998529 0.492524 0.410662
0.115196 0.488235 0.255393
0.194914 0.488235 0.258027
0.317279 0.493383 0.267034
0.450061 0.502267 0.275551
0.589461 0.514706 0.286520
0.722059 0.522488 0.307782
0.848284 0.534436 0.341054
0.964338 0.549326 0.376716
0.998039 0.581373 0.426471
0.213113 0.611642 0.270098
0.266238 0.613587 0.270328
0.359835 0.619026 0.275398
0.478125 0.622258 0.288496
0.606250 0.631556 0.299387
0.735309 0.638373 0.323284
0.858119 0.640319 0.353248
0.967907 0.651655 0.394516
1.000000 0.673407 0.456127
0.294608 0.737990 0.277941
0.333058 0.737592 0.284283
0.411152 0.739338 0.296323
0.515196 0.742800 0.304259
0.633456 0.749755 0.324755
0.754534 0.752482 0.346293
0.870834 0.753554 0.375184
0.971936 0.754412 0.424357
1.000000 0.768137 0.483088
0.375368 0.864706 0.313112
0.404167 0.863526 0.319011
0.466667 0.861152 0.324969
0.559850 0.864430 0.337913
0.668015 0.865809 0.358885
0.785784 0.870098 0.390671
0.901256 0.875797 0.429350
0.988526 0.871262 0.468612
0.996568 0.861520 0.528799
0.464706 0.984314 0.376470
0.494853 0.985417 0.379167
0.544118 0.987255 0.392892
0.623897 0.986397 0.406495
0.722549 0.988235 0.432353
0.826470 0.988358 0.475858
0.933088 0.993137 0.517892
1.000000 0.988603 0.564583
1.000000 0.984314 0.627451
0.000000 0.001471 0.342157
0.004657 0.000000 0.346078
0.087990 0.015073 0.352941
0.337132 0.045037 0.364216
0.518137 0.103431 0.381127
0.682966 0.153676 0.398100
0.821078 0.212623 0.407108
0.947733 0.287684 0.432843
1.000000 0.375000 0.478922
0.000000 0.139706 0.342034
0.000077 0.131311 0.350191
0.108517 0.120741 0.357368
0.345290 0.139782 0.364591
0.518934 0.172212 0.380239
0.680522 0.206732 0.391360
0.822764 0.254197 0.407200
0.947419 0.322166 0.441920
1.000000 0.396630 0.478738
0.000368 0.239828 0.350367
0.003125 0.236014 0.353722
0.144424 0.240748 0.362347
0.356066 0.255178 0.367877
0.525858 0.275306 0.383456
0.682184 0.299234 0.395772
0.821538 0.335294 0.415288
0.943014 0.382889 0.441789
0.998897 0.441176 0.483701
0.001532 0.355821 0.359375
0.000345 0.359498 0.365694
0.189752 0.364062 0.364675
0.374854 0.375429 0.375429
0.537653 0.390196 0.386887
0.687393 0.406871 0.401616
0.826057 0.429825 0.419868
0.947128 0.462676 0.447779
0.998468 0.505698 0.489645
0.000000 0.479167 0.367647
0.018689 0.487040 0.366575
0.240748 0.488909 0.374081
0.402512 0.498652 0.383701
0.552819 0.508456 0.390441
0.696783 0.519853 0.407353
0.829657 0.533272 0.428922
0.949571 0.555239 0.458333
0.996813 0.590931 0.503677
0.044792 0.609436 0.372672
0.163511 0.608709 0.383080
0.297457 0.613419 0.381664
0.437385 0.618337 0.388971
0.575766 0.626226 0.398866
0.713120 0.633540 0.416644
0.836995 0.640487 0.439629
0.954534 0.656081 0.474946
0.998529 0.678309 0.523468
0.205270 0.734436 0.389951
0.259804 0.737071 0.388741
0.358333 0.736520 0.392831
0.478232 0.740487 0.403676
0.604963 0.746140 0.412990
0.736949 0.751792 0.436091
0.857996 0.754902 0.460570
0.965441 0.757889 0.500751
1.000000 0.771568 0.547304
0.316360 0.861275 0.402941
0.353837 0.861413 0.408486
0.426394 0.862485 0.415395
0.529764 0.866529 0.425567
0.644975 0.868291 0.445649
0.764338 0.870175 0.466299
0.882215 0.876578 0.496262
0.980515 0.873123 0.528753
0.998713 0.867647 0.578003
0.422549 0.988235 0.445098
0.448407 0.987745 0.451348
0.509804 0.988725 0.457721
0.594975 0.986704 0.471997
0.698774 0.988235 0.494608
0.807720 0.986765 0.523100
0.921078 0.989093 0.565564
1.000000 0.989522 0.609743
0.997549 0.985784 0.666667
0.000000 0.000000 0.460784
0.000000 0.000000 0.454902
0.001961 0.016667 0.463236
0.231863 0.024019 0.475000
0.452941 0.076471 0.488236
0.636765 0.135784 0.503186
0.792157 0.197059 0.515196
0.926226 0.272549 0.527451
1.000000 0.372549 0.560785
0.003677 0.128676 0.460784
0.003217 0.146293 0.466177
0.003248 0.108088 0.471814
0.236366 0.125429 0.479259
0.454044 0.156005 0.487868
0.635754 0.193107 0.503799
0.793443 0.241054 0.512193
0.927665 0.308486 0.531219
0.999755 0.401471 0.564216
0.000490 0.250980 0.468627
0.000184 0.244730 0.467708
0.001838 0.235417 0.480883
0.257169 0.241054 0.479534
0.464461 0.264706 0.491422
0.640993 0.287194 0.507169
0.792892 0.324019 0.513848
0.928002 0.380086 0.533823
1.000000 0.455882 0.575000
0.001226 0.354412 0.472549
0.001961 0.354013 0.471599
0.001226 0.361274 0.478615
0.283333 0.367310 0.485968
0.480637 0.380637 0.494363
0.648836 0.399694 0.506648
0.795527 0.428064 0.521936
0.926011 0.469056 0.546415
0.998039 0.520098 0.577206
0.000000 0.474510 0.481372
0.000981 0.477206 0.478554
0.030637 0.482353 0.479902
0.321201 0.487868 0.493505
0.500490 0.500490 0.500490
0.658701 0.515441 0.512255
0.800735 0.533333 0.528676
0.932230 0.564706 0.555270
1.000000 0.596078 0.586275
0.002696 0.602696 0.487990
0.003217 0.602788 0.485907
0.143321 0.607720 0.489706
0.359222 0.615962 0.496814
0.526348 0.620466 0.504779
0.677022 0.628340 0.519087
0.814277 0.642892 0.538909
0.939461 0.659069 0.562255
0.998774 0.686029 0.597549
0.000490 0.732353 0.492647
0.008946 0.732659 0.494363
0.241912 0.738358 0.499387
0.410539 0.739583 0.506985
0.558824 0.743382 0.515196
0.702022 0.749571 0.530270
0.833334 0.755147 0.548162
0.948529 0.761887 0.576470
1.000000 0.777451 0.613725
0.139461 0.857353 0.500735
0.214491 0.864062 0.506403
0.330453 0.862500 0.510907
0.470803 0.861642 0.517892
0.600245 0.867402 0.530392
0.733088 0.870098 0.545956
0.863236 0.877206 0.571508
0.969730 0.873989 0.595895
0.996568 0.872304 0.640441
0.309804 0.982353 0.523529
0.349755 0.983333 0.525981
0.434804 0.987745 0.538726
0.536274 0.990196 0.547549
0.655883 0.988235 0.561764
0.779167 0.989706 0.590686
0.897549 0.990196 0.619608
0.999510 0.990686 0.659314
1.000000 0.988235 0.701961
0.000000 0.000000 0.578921
0.000000 0.000000 0.582414
0.000000 0.015441 0.578186
0.000000 0.006066 0.597181
0.352451 0.034804 0.602451
0.568505 0.104902 0.614706
0.748407 0.171324 0.625122
0.900796 0.251287 0.629534
1.000000 0.355392 0.647549
0.000000 0.085907 0.578309
0.001256 0.110317 0.583655
0.001103 0.135432 0.588603
0.002321 0.105231 0.594309
0.362224 0.130453 0.603309
0.569684 0.169853 0.614721
0.750383 0.219118 0.625352
0.901218 0.286512 0.634237
0.998713 0.382047 0.650858
0.003677 0.260662 0.590441
0.000965 0.259544 0.585601
0.001103 0.239461 0.593995
0.004197 0.226685 0.596216
0.370894 0.244424 0.604167
0.578631 0.273958 0.616544
0.751317 0.308548 0.622488
0.901287 0.359681 0.634942
0.999632 0.440196 0.657843
0.000000 0.357843 0.589277
0.002857 0.356809 0.591115
0.002206 0.356786 0.592035
0.030982 0.357659 0.600360
0.385723 0.368965 0.605729
0.589989 0.386849 0.619164
0.759881 0.414338 0.630346
0.902390 0.455630 0.637868
0.999081 0.518689 0.663480
0.000000 0.475735 0.596569
0.000092 0.474418 0.598039
0.000552 0.476900 0.604351
0.104136 0.482200 0.607537
0.410662 0.489461 0.611642
0.604871 0.504075 0.620251
0.769117 0.526961 0.634743
0.907721 0.558670 0.645527
0.998039 0.605147 0.676961
0.000919 0.598407 0.605025
0.000069 0.599326 0.603041
0.000230 0.600950 0.602665
0.181334 0.606664 0.612883
0.439461 0.613021 0.615656
0.626409 0.625031 0.625261
0.782491 0.642188 0.637010
0.915671 0.660294 0.653638
0.999448 0.691299 0.682414
0.002942 0.727574 0.609927
0.001731 0.730040 0.609697
0.004871 0.732200 0.610631
0.254549 0.732185 0.612898
0.478615 0.739583 0.620588
0.652543 0.746017 0.631954
0.800153 0.755423 0.646660
0.931495 0.764844 0.664629
0.997549 0.787255 0.694608
0.001287 0.861091 0.607292
0.006756 0.857338 0.607184
0.002160 0.863480 0.612576
0.332828 0.862561 0.615564
0.525980 0.864920 0.630484
0.683019 0.869501 0.643383
0.825475 0.874050 0.656495
0.951065 0.879756 0.679082
0.999510 0.879902 0.713664
0.000000 0.992157 0.607843
0.000306 0.991851 0.610784
0.229657 0.990809 0.620956
0.422426 0.991176 0.629718
0.584558 0.989706 0.648039
0.732966 0.988787 0.665257
0.865809 0.990319 0.693628
0.987255 0.993934 0.721446
1.000000 0.998529 0.767647
0.000000 0.000000 0.706863
0.000000 0.000000 0.701716
0.000000 0.002942 0.709804
0.000000 0.000000 0.715196
0.135784 0.000000 0.726471
0.476961 0.041054 0.733333
0.685049 0.132108 0.735294
0.866667 0.216054 0.750858
0.999019 0.321569 0.746078
0.002574 0.000000 0.709436
0.000751 0.000046 0.714093
0.002604 0.076624 0.715012
0.000276 0.073361 0.717585
0.131740 0.087439 0.720527
0.480117 0.135692 0.733027
0.685570 0.191820 0.742218
0.861443 0.256985 0.748912
1.000000 0.351593 0.755637
0.000000 0.215931 0.709314
0.000031 0.226807 0.711826
0.004044 0.251103 0.714890
0.002696 0.209253 0.719853
0.145466 0.219117 0.726471
0.487194 0.248744 0.730453
0.693015 0.283885 0.740196
0.862500 0.337071 0.745220
0.997059 0.412745 0.754902
0.000000 0.360294 0.716176
0.004228 0.360616 0.717647
0.000460 0.351103 0.716452
0.000000 0.341146 0.724449
0.176532 0.345404 0.729657
0.497886 0.366391 0.735478
0.701226 0.394424 0.744822
0.867616 0.433195 0.749816
0.998897 0.494485 0.757230
0.000490 0.468627 0.718137
0.000000 0.468505 0.721691
0.002206 0.464338 0.723775
0.003554 0.461458 0.722181
0.195588 0.467647 0.725490
0.514706 0.488358 0.735478
0.711887 0.511520 0.742892
0.877512 0.544853 0.750796
0.999510 0.589216 0.766177
0.000000 0.588358 0.723897
0.000766 0.590840 0.720159
0.001992 0.591575 0.724265
0.000919 0.589308 0.730453
0.219179 0.593873 0.731066
0.529059 0.613251 0.738557
0.730699 0.631066 0.744822
0.886213 0.653248 0.755561
1.000000 0.691912 0.772549
0.000245 0.719853 0.722549
0.002696 0.722457 0.729014
0.000919 0.721998 0.730392
0.001072 0.726563 0.731863
0.299388 0.731985 0.738725
0.562806 0.738450 0.740349
0.750490 0.748836 0.749387
0.902972 0.765073 0.765594
0.997059 0.787500 0.781618
0.000000 0.860785 0.727206
0.001501 0.860264 0.726685
0.000000 0.862102 0.732537
0.000000 0.861336 0.734605
0.350245 0.861642 0.736826
0.594838 0.866131 0.744026
0.774509 0.870772 0.754228
0.921446 0.877650 0.768551
0.996568 0.887745 0.801103
0.000000 0.993137 0.707843
0.000000 0.995833 0.702696
0.000000 0.996323 0.705637
0.000000 0.993872 0.717034
0.405392 0.992157 0.735784
0.644118 0.992770 0.755760
0.810049 0.992892 0.770343
0.953554 0.993505 0.789461
0.999019 0.997059 0.835294
0.000000 0.000000 0.834314
0.000000 0.000000 0.839890
0.000368 0.000000 0.841177
0.000306 0.000000 0.841544
0.000000 0.001716 0.846814
0.309375 0.000000 0.854105
0.599877 0.017525 0.853431
0.800674 0.169607 0.866851
0.975981 0.277941 0.869118
0.000429 0.000000 0.841606
0.003003 0.002627 0.838549
0.000000 0.000444 0.842004
0.000184 0.001555 0.846507
0.000858 0.000245 0.850950
0.310026 0.010508 0.850023
0.600597 0.121997 0.864629
0.803722 0.215679 0.862186
0.979044 0.305392 0.872917
0.000123 0.031740 0.845588
0.000337 0.057797 0.841406
0.000735 0.129228 0.846722
0.002896 0.195634 0.846737
0.001838 0.156863 0.851532
0.313312 0.193076 0.854304
0.606649 0.242126 0.861489
0.805975 0.303201 0.860953
0.978554 0.377206 0.874142
0.000000 0.276961 0.842770
0.003914 0.284689 0.845512
0.000153 0.302956 0.844194
0.001034 0.315732 0.849632
0.003462 0.301532 0.857721
0.315794 0.324946 0.852366
0.611244 0.360585 0.863021
0.815112 0.406924 0.869501
0.985784 0.464093 0.871385
0.000000 0.424019 0.849020
0.003462 0.427267 0.852267
0.000000 0.430760 0.853064
0.001379 0.424602 0.852635
0.000858 0.423897 0.856618
0.324112 0.453401 0.858395
0.621752 0.483762 0.864829
0.826348 0.517678 0.870711
0.990686 0.565932 0.870588
0.000000 0.570588 0.852941
0.001287 0.569301 0.848170
0.004427 0.562040 0.852451
0.000375 0.554534 0.853531
0.002604 0.545435 0.860540
0.300934 0.569845 0.860271
0.637056 0.610294 0.862209
0.838136 0.638917 0.867854
0.993811 0.672243 0.872242
0.000000 0.702451 0.850490
0.000000 0.700199 0.854350
0.000429 0.698897 0.857047
0.002681 0.697350 0.860693
0.002022 0.698223 0.860845
0.297840 0.709130 0.859743
0.653799 0.733241 0.866759
0.854350 0.756051 0.872074
0.996936 0.779044 0.879167
0.000061 0.845159 0.856863
0.000375 0.844715 0.854274
0.002896 0.847886 0.859084
0.000291 0.851915 0.859345
0.001501 0.849724 0.853768
0.386558 0.855308 0.863029
0.679458 0.865196 0.865043
0.875621 0.876425 0.875245
0.999571 0.891667 0.888603
0.000000 1.000000 0.846078
0.000000 1.000000 0.846078
0.000000 1.000000 0.846078
0.004473 0.997855 0.841789
0.003431 0.998284 0.851961
0.368934 0.994791 0.851961
0.704166 0.993382 0.864828
0.903493 0.999081 0.884743
1.000000 0.993137 0.907353
0.000000 0.000000 0.972549
0.003432 0.003432 0.976961
0.000000 0.000000 0.974510
0.001471 0.000000 0.981863
0.000000 0.001961 0.982353
0.000000 0.002451 0.982843
0.445098 0.000000 0.987255
0.710294 0.003432 0.985294
0.921569 0.211765 0.992157
0.000490 0.000490 0.973039
0.000000 0.000000 0.973407
0.000000 0.000368 0.978309
0.002145 0.001287 0.981250
0.002206 0.000000 0.982843
0.000000 0.000000 0.988542
0.436029 0.006005 0.989338
0.720159 0.038787 0.995588
0.922059 0.250490 0.995588
0.002942 0.000000 0.983334
0.000368 0.000123 0.980882
0.004412 0.000735 0.982598
0.000000 0.000000 0.981005
0.001961 0.000490 0.983824
0.000368 0.001716 0.991911
0.431863 0.046568 0.986030
0.714951 0.212255 0.986152
0.925490 0.328431 0.995098
0.002451 0.000000 0.982843
0.001777 0.002145 0.986765
0.001103 0.000981 0.983088
0.002451 0.061581 0.986213
0.001226 0.184068 0.986274
0.000000 0.194118 0.990257
0.430147 0.253799 0.989093
0.726593 0.327267 0.989584
0.933333 0.423039 0.990686
0.001961 0.194117 0.984314
0.000490 0.198039 0.985049
0.002451 0.220098 0.986765
0.000000 0.258088 0.986519
0.000981 0.308824 0.989216
0.000000 0.345588 0.992892
0.419608 0.394118 0.990196
0.734559 0.463480 0.993872
0.937254 0.533334 0.990196
0.000000 0.436274 0.988235
0.002145 0.431985 0.992953
0.000613 0.428799 0.982108
0.003370 0.412868 0.994608
0.002451 0.412255 0.995343
0.002022 0.436581 0.995404
0.421079 0.539583 0.996323
0.746936 0.592464 0.997426
0.950490 0.646569 0.989706
0.000000 0.616667 0.991177
0.000000 0.614461 0.996691
0.003677 0.612990 0.995588
0.002206 0.607721 0.992892
0.002941 0.594608 0.994117
0.000000 0.568260 0.997916
0.244118 0.638971 0.997304
0.749877 0.725123 0.987990
0.961765 0.760784 0.998039
0.003432 0.790686 0.992157
0.003003 0.790257 0.992708
0.000000 0.784314 0.994853
0.002451 0.788419 1.000000
0.000000 0.787500 0.992647
0.003432 0.776164 0.999816
0.003554 0.790319 0.993995
0.748713 0.838603 0.998223
0.977451 0.879902 0.999020
0.000000 0.968627 0.996078
0.000000 0.968627 0.996078
0.000000 0.973530 0.997059
0.003922 0.980392 0.996078
0.000000 0.986274 0.998039
0.000000 0.990686 1.000000
0.000000 0.990196 0.988235
0.734804 0.995588 0.999510
1.000000 1.000000 1.000000
