luts/drone/teal-orange-satcontrast.cube
TITLE "Teal+Orange SatContrast"
LUT_3D_SIZE 5
0.000000 0.000000 0.000000
0.315686 0.049019 0.024510
0.603921 0.119608 0.086275
0.868628 0.213726 0.178432
1.000000 0.333333 0.301961
0.093137 0.247058 0.017647
0.323284 0.265686 0.046079
0.608823 0.297059 0.107353
0.863726 0.332353 0.189706
1.000000 0.402941 0.310784
0.217647 0.492157 0.078431
0.360294 0.498530 0.097549
0.617647 0.521568 0.149020
0.868137 0.535784 0.227451
0.998039 0.572549 0.350981
0.343137 0.738235 0.152941
0.442402 0.742157 0.169608
0.652451 0.749020 0.214216
0.887991 0.754412 0.290196
1.000000 0.759804 0.425490
0.501961 0.984314 0.294118
0.571568 0.987255 0.319608
0.735294 0.986274 0.372549
0.941176 0.991177 0.467647
1.000000 0.980392 0.603922
0.000000 0.000000 0.220588
0.223039 0.020833 0.238235
0.562255 0.115196 0.271568
0.842402 0.229657 0.317647
1.000000 0.355882 0.389216
0.000000 0.237745 0.236520
0.252451 0.250797 0.251348
0.565809 0.283946 0.278431
0.841360 0.336152 0.320588
0.993873 0.423284 0.400981
0.115196 0.488235 0.255393
0.317279 0.493383 0.267034
0.589461 0.514706 0.286520
0.848284 0.534436 0.341054
0.998039 0.581373 0.426471
0.294608 0.737990 0.277941
0.411152 0.739338 0.296323
0.633456 0.749755 0.324755
0.870834 0.753554 0.375184
1.000000 0.768137 0.483088
0.464706 0.984314 0.376470
0.544118 0.987255 0.392892
0.722549 0.988235 0.432353
0.933088 0.993137 0.517892
1.000000 0.984314 0.627451
0.000000 0.000000 0.460784
0.001961 0.016667 0.463236
0.452941 0.076471 0.488236
0.792157 0.197059 0.515196
1.000000 0.372549 0.560785
0.000490 0.250980 0.468627
0.001838 0.235417 0.480883
0.464461 0.264706 0.491422
0.792892 0.324019 0.513848
1.000000 0.455882 0.575000
0.000000 0.474510 0.481372
0.030637 0.482353 0.479902
0.500490 0.500490 0.500490
0.800735 0.533333 0.528676
1.000000 0.596078 0.586275
0.000490 0.732353 0.492647
0.241912 0.738358 0.499387
0.558824 0.743382 0.515196
0.833334 0.755147 0.548162
1.000000 0.777451 0.613725
0.309804 0.982353 0.523529
0.434804 0.987745 0.538726
0.655883 0.988235 0.561764
0.897549 0.990196 0.619608
1.000000 0.988235 0.701961
0.000000 0.000000 0.706863
0.000000 0.002942 0.709804
0.135784 0.000000 0.726471
0.685049 0.132108 0.735294
0.999019 0.321569 0.746078
0.000000 0.215931 0.709314
0.004044 0.251103 0.714890
0.145466 0.219117 0.726471
0.693015 0.283885 0.740196
0.997059 0.412745 0.754902
0.000490 0.468627 0.718137
0.002206 0.464338 0.723775
0.195588 0.467647 0.725490
0.711887 0.511520 0.742892
0.999510 0.589216 0.766177
0.000245 0.719853 0.722549
0.000919 0.721998 0.730392
0.299388 0.731985 0.738725
0.750490 0.748836 0.749387
0.997059 0.787500 0.781618
0.000000 0.993137 0.707843
0.000000 0.996323 0.705637
0.405392 0.992157 0.735784
0.810049 0.992892 0.770343
0.999019 0.997059 0.835294
0.000000 0.000000 0.972549
0.000000 0.000000 0.974510
0.000000 0.001961 0.982353
0.445098 0.000000 0.987255
0.921569 0.211765 0.992157
0.002942 0.000000 0.983334
0.004412 0.000735 0.982598
0.001961 0.000490 0.983824
0.431863 0.046568 0.986030
0.925490 0.328431 0.995098
0.001961 0.194117 0.984314
0.002451 0.220098 0.986765
0.000981 0.308824 0.989216
0.419608 0.394118 0.990196
0.937254 0.533334 0.990196
0.000000 0.616667 0.991177
0.003677 0.612990 0.995588
0.002941 0.594608 0.994117
0.244118 0.638971 0.997304
0.961765 0.760784 0.998039
0.000000 0.968627 0.996078
0.000000 0.973530 0.997059
0.000000 0.986274 0.998039
0.000000 0.990196 0.988235
1.000000 1.000000 1.000000
