luts/drone/teal-orange-basic.cube
TITLE "Teal+Orange Basic"
LUT_3D_SIZE 9
0.003922 0.000000 0.000000
0.131372 0.011275 0.003922
0.269608 0.025490 0.009804
0.395588 0.044118 0.013235
0.529411 0.068628 0.021568
0.660784 0.102451 0.052451
0.784313 0.132353 0.075490
0.903922 0.169117 0.109804
1.000000 0.207843 0.149020
0.034804 0.103921 0.011275
0.146079 0.108824 0.005392
0.275000 0.124755 0.013726
0.403125 0.131679 0.020159
0.535049 0.143627 0.033334
0.662684 0.164522 0.055821
0.789706 0.183579 0.085049
0.911275 0.207843 0.117586
1.000000 0.238726 0.153431
0.087255 0.219608 0.026471
0.160539 0.221323 0.031250
0.277696 0.230392 0.032598
0.405025 0.238481 0.043260
0.532843 0.247549 0.053431
0.663603 0.257353 0.073162
0.784804 0.273284 0.100490
0.907965 0.288235 0.124020
0.997059 0.310784 0.169608
0.146079 0.330392 0.050980
0.198652 0.336764 0.058334
0.294118 0.339216 0.059068
0.418015 0.347059 0.070404
0.545588 0.355392 0.078186
0.673162 0.363296 0.098652
0.792524 0.371691 0.117157
0.912929 0.382537 0.147243
1.000000 0.399510 0.180392
0.200000 0.445098 0.084314
0.245588 0.448775 0.086520
0.325490 0.450000 0.095098
0.430882 0.454167 0.098039
0.551961 0.463726 0.104902
0.679657 0.469363 0.119853
0.797549 0.476961 0.141666
0.919363 0.486520 0.170833
1.000000 0.494117 0.200000
0.259314 0.564216 0.112745
0.294118 0.567769 0.110907
0.363603 0.566054 0.119363
0.459436 0.571568 0.124203
0.571569 0.573774 0.136029
0.689767 0.583272 0.149939
0.807476 0.584804 0.168382
0.925674 0.588051 0.200919
0.998529 0.599020 0.232843
0.319608 0.689216 0.136274
0.347059 0.690196 0.141911
0.410539 0.692647 0.142402
0.497427 0.693015 0.150368
0.600980 0.696569 0.159314
0.717157 0.700123 0.173774
0.828676 0.699510 0.193872
0.930882 0.696201 0.226348
0.996078 0.702941 0.267647
0.381372 0.817647 0.169117
0.404841 0.821140 0.163112
0.458946 0.818505 0.168627
0.543628 0.819730 0.175797
0.642157 0.821569 0.188725
0.754596 0.829412 0.210355
0.867647 0.829289 0.229779
0.964522 0.818443 0.257843
0.996078 0.802451 0.310294
0.450980 0.949020 0.200000
0.462745 0.952941 0.206863
0.519608 0.955882 0.210785
0.596078 0.956863 0.223529
0.686275 0.956863 0.237255
0.798039 0.959314 0.265686
0.901961 0.960784 0.291177
0.999510 0.961274 0.333333
1.000000 0.945098 0.392157
0.003432 0.026961 0.119608
0.112255 0.027880 0.117463
0.257966 0.035662 0.121201
0.393628 0.065686 0.130086
0.520588 0.095833 0.139705
0.659191 0.124326 0.157537
0.781373 0.153431 0.165196
0.900919 0.184865 0.179963
1.000000 0.226961 0.213235
0.000858 0.123468 0.119669
0.127168 0.125467 0.126157
0.263787 0.134605 0.130775
0.392953 0.143834 0.136152
0.522733 0.159068 0.143995
0.659452 0.175077 0.153416
0.782568 0.199724 0.167080
0.903975 0.225988 0.186971
1.000000 0.253922 0.214216
0.056495 0.230882 0.125735
0.150597 0.229060 0.131587
0.271446 0.235570 0.131863
0.402957 0.243735 0.144807
0.528554 0.253125 0.148285
0.657598 0.264384 0.158119
0.782874 0.281066 0.174357
0.906219 0.297840 0.190487
0.996201 0.322426 0.221691
0.133394 0.336091 0.141850
0.193313 0.341659 0.148606
0.293980 0.342004 0.148131
0.411818 0.351547 0.153248
0.539001 0.358578 0.160600
0.664124 0.366958 0.167685
0.789905 0.374081 0.184390
0.908900 0.387584 0.202084
1.000000 0.403247 0.227206
0.194608 0.449020 0.157353
0.236489 0.450981 0.157384
0.321262 0.456618 0.162929
0.431618 0.460141 0.166636
0.551961 0.465931 0.171569
0.676869 0.474663 0.181036
0.798039 0.478677 0.195404
0.917157 0.486734 0.218597
0.998284 0.500245 0.246568
0.252757 0.571140 0.170772
0.286420 0.569263 0.175705
0.356357 0.571890 0.175751
0.455821 0.573292 0.183877
0.566943 0.577390 0.188879
0.688733 0.585654 0.204335
0.802543 0.585263 0.214369
0.922434 0.590074 0.241674
1.000000 0.605208 0.271262
0.312255 0.691912 0.191054
0.342494 0.693505 0.194363
0.406403 0.693566 0.196446
0.495466 0.695588 0.201731
0.600552 0.698468 0.209865
0.714736 0.702696 0.221155
0.829136 0.702267 0.240318
0.931327 0.697564 0.262240
0.996568 0.705515 0.300613
0.371446 0.816361 0.208762
0.406173 0.820765 0.214821
0.454688 0.821523 0.218091
0.540724 0.822197 0.226647
0.639706 0.823989 0.233762
0.748200 0.825429 0.244876
0.862991 0.828876 0.266897
0.966720 0.824938 0.291345
0.999510 0.809375 0.339889
0.447059 0.953431 0.249019
0.469179 0.953370 0.249509
0.513358 0.955882 0.248897
0.593259 0.960294 0.263726
0.682843 0.958578 0.275490
0.794424 0.959620 0.294547
0.904044 0.960049 0.321446
0.999571 0.962132 0.357292
0.996078 0.948530 0.407353
0.000000 0.081372 0.238235
0.011643 0.062623 0.230760
0.227451 0.080147 0.243627
0.376103 0.097671 0.245588
0.514216 0.119608 0.249510
0.648652 0.143873 0.261152
0.769608 0.181373 0.270098
0.899387 0.209681 0.283946
1.000000 0.250000 0.299020
0.006863 0.147427 0.239461
0.058962 0.150597 0.243490
0.237285 0.152665 0.249050
0.375934 0.166268 0.252405
0.512439 0.176164 0.251532
0.648575 0.192172 0.261673
0.773315 0.219700 0.269179
0.897519 0.243597 0.285738
1.000000 0.274265 0.297794
0.000735 0.243873 0.245588
0.109405 0.249050 0.248499
0.252267 0.250613 0.248039
0.386611 0.258027 0.253033
0.516667 0.265564 0.258456
0.647059 0.278646 0.265410
0.775613 0.291606 0.274755
0.897549 0.309191 0.284804
0.996323 0.338235 0.308333
0.079657 0.350245 0.251471
0.162025 0.350368 0.254581
0.276685 0.354749 0.258088
0.397825 0.360202 0.258395
0.526287 0.365625 0.266605
0.658701 0.375613 0.272105
0.782077 0.382537 0.281219
0.906281 0.398131 0.294746
1.000000 0.414093 0.312622
0.162255 0.460294 0.262255
0.213848 0.460846 0.263051
0.307598 0.463358 0.263848
0.419669 0.468076 0.266544
0.540931 0.473284 0.271814
0.666115 0.479473 0.280515
0.787623 0.486520 0.289706
0.909743 0.494975 0.303432
1.000000 0.508333 0.323039
0.231863 0.572304 0.270833
0.268505 0.576072 0.270451
0.346507 0.576164 0.273284
0.447396 0.578661 0.278937
0.561887 0.583885 0.281373
0.681204 0.589491 0.290181
0.799540 0.594700 0.301470
0.917218 0.596630 0.317157
1.000000 0.611275 0.341176
0.288480 0.695343 0.287745
0.321477 0.695711 0.285172
0.391299 0.697243 0.288603
0.485601 0.698131 0.293198
0.593505 0.700858 0.295711
0.707874 0.703125 0.304258
0.822059 0.704105 0.314890
0.924970 0.702757 0.337592
0.996078 0.709559 0.364951
0.356250 0.819975 0.298407
0.380576 0.819684 0.297948
0.438481 0.823162 0.297886
0.524372 0.826164 0.303952
0.627145 0.829228 0.313174
0.739859 0.831480 0.323392
0.855423 0.833640 0.339951
0.960126 0.821140 0.356648
0.999510 0.811520 0.395220
0.427451 0.956863 0.318628
0.447059 0.953309 0.317157
0.499510 0.957843 0.327206
0.578554 0.956863 0.331985
0.677451 0.958333 0.344118
0.786152 0.962622 0.362500
0.898039 0.963235 0.383333
0.999755 0.965564 0.411520
0.998039 0.946079 0.452941
0.001471 0.132843 0.358824
0.000000 0.121262 0.359008
0.164216 0.126103 0.362500
0.346569 0.142157 0.367586
0.492892 0.161765 0.369853
0.634804 0.178922 0.376042
0.759559 0.197304 0.373407
0.888420 0.238848 0.389216
1.000000 0.287255 0.407353
0.002145 0.187561 0.364338
0.002780 0.184045 0.368551
0.177742 0.185187 0.369684
0.346875 0.195956 0.370320
0.493627 0.208058 0.373621
0.633954 0.220083 0.374816
0.764920 0.239216 0.379519
0.891989 0.272595 0.395297
1.000000 0.308149 0.412439
0.000613 0.271323 0.366422
0.000184 0.272197 0.361520
0.205974 0.273376 0.370251
0.359559 0.276915 0.371523
0.501103 0.286520 0.375122
0.634865 0.296247 0.376133
0.763818 0.310294 0.382169
0.886612 0.336504 0.394148
0.999387 0.362990 0.412622
0.003309 0.367280 0.369056
0.073077 0.368497 0.372358
0.235938 0.369194 0.371691
0.374992 0.375636 0.374280
0.511121 0.380668 0.379351
0.643336 0.391230 0.384413
0.771691 0.399372 0.389614
0.896814 0.416996 0.401218
0.999081 0.436703 0.420098
0.083579 0.472304 0.373039
0.166084 0.470006 0.378125
0.274142 0.473836 0.380576
0.397917 0.481158 0.382996
0.523039 0.482475 0.381985
0.652451 0.489736 0.387806
0.777635 0.498223 0.396875
0.899847 0.508425 0.409712
0.998774 0.525245 0.422304
0.178615 0.584559 0.384437
0.228362 0.585317 0.384214
0.316697 0.587010 0.382093
0.427972 0.591958 0.388067
0.546078 0.593597 0.390931
0.670328 0.598269 0.395435
0.789476 0.600858 0.404504
0.907307 0.607453 0.417631
1.000000 0.621078 0.432353
0.249387 0.704167 0.393260
0.288312 0.699020 0.392494
0.361581 0.705699 0.393260
0.463097 0.704412 0.397411
0.574939 0.707230 0.400123
0.697289 0.710125 0.410080
0.814308 0.712898 0.416360
0.920527 0.712960 0.429381
0.995956 0.720221 0.453677
0.315196 0.825796 0.403554
0.348920 0.824548 0.401501
0.413220 0.827972 0.402221
0.506434 0.831802 0.404297
0.611152 0.834620 0.410294
0.724594 0.831005 0.417019
0.845573 0.836826 0.432705
0.954910 0.830837 0.450306
0.998713 0.819485 0.477635
0.388726 0.956863 0.413726
0.414951 0.958150 0.414890
0.470956 0.958823 0.419608
0.559314 0.959314 0.425490
0.660294 0.958824 0.434314
0.770588 0.961703 0.445405
0.883333 0.961152 0.461029
0.999694 0.966605 0.487929
0.997549 0.955392 0.518628
0.000000 0.186275 0.480393
0.000000 0.178431 0.484069
0.001961 0.173529 0.482843
0.291667 0.188725 0.484804
0.459804 0.206863 0.490196
0.609314 0.220588 0.493383
0.746078 0.240196 0.496079
0.878431 0.275735 0.503922
1.000000 0.327451 0.523529
0.001716 0.230637 0.483824
0.003033 0.227543 0.482782
0.025858 0.218934 0.485478
0.294608 0.227941 0.489246
0.464461 0.243015 0.494608
0.612500 0.254963 0.498315
0.750245 0.273345 0.499387
0.876042 0.302451 0.507751
0.999510 0.350735 0.523284
0.000000 0.304412 0.485784
0.001716 0.306189 0.481801
0.095588 0.302451 0.487500
0.314645 0.305453 0.491238
0.470588 0.311274 0.492157
0.611948 0.322243 0.497855
0.750245 0.335784 0.500245
0.878738 0.361826 0.509069
0.997059 0.405392 0.529412
0.000000 0.389706 0.485784
0.000153 0.390931 0.490533
0.164338 0.395772 0.491851
0.336765 0.396630 0.494271
0.482231 0.400245 0.493505
0.625031 0.408058 0.503492
0.753922 0.422917 0.505147
0.879381 0.441605 0.515503
1.000000 0.462990 0.528186
0.000000 0.489216 0.491177
0.009804 0.490196 0.493137
0.215441 0.492647 0.495588
0.362255 0.495711 0.498775
0.500000 0.500981 0.500490
0.634681 0.508211 0.504902
0.762500 0.514951 0.508578
0.891054 0.529289 0.522181
1.000000 0.542157 0.529412
0.038480 0.596814 0.496079
0.146569 0.594118 0.502022
0.263358 0.601348 0.500429
0.393873 0.601501 0.501593
0.523284 0.607108 0.506250
0.650245 0.608150 0.508119
0.776471 0.614583 0.516115
0.900705 0.622947 0.527911
0.996323 0.638235 0.534804
0.165196 0.709804 0.510784
0.216299 0.712806 0.502696
0.311887 0.712255 0.507475
0.431618 0.711029 0.508149
0.552206 0.717647 0.515441
0.676471 0.716728 0.516421
0.795956 0.720588 0.523529
0.909804 0.723897 0.535600
0.999510 0.732843 0.551961
0.244117 0.829902 0.512990
0.282659 0.829688 0.509008
0.364277 0.830943 0.510968
0.467892 0.834896 0.514093
0.583211 0.836274 0.519975
0.703278 0.840135 0.524694
0.823407 0.841912 0.528860
0.941176 0.838695 0.545864
1.000000 0.831617 0.564951
0.321569 0.962745 0.517647
0.352451 0.960784 0.524755
0.416667 0.963235 0.520588
0.520343 0.963970 0.527451
0.629412 0.961764 0.531373
0.749019 0.964706 0.545098
0.867647 0.967157 0.555882
0.986275 0.970343 0.573284
0.996078 0.960784 0.596078
0.000000 0.242157 0.604902
0.000306 0.241667 0.609620
0.002451 0.229166 0.606618
0.188787 0.239522 0.613664
0.410784 0.249265 0.605882
0.576899 0.265625 0.615564
0.725613 0.284191 0.617280
0.861091 0.319976 0.622917
0.983333 0.370098 0.630882
0.004657 0.276593 0.606005
0.000000 0.273629 0.609605
0.001792 0.267096 0.605637
0.204014 0.271653 0.612240
0.417402 0.282353 0.613358
0.581671 0.295213 0.620420
0.728064 0.311290 0.619792
0.860279 0.342930 0.624119
0.982475 0.393627 0.636642
0.000613 0.339338 0.609436
0.001961 0.340288 0.610708
0.003462 0.337776 0.610172
0.229106 0.337454 0.606082
0.425552 0.344730 0.612316
0.582583 0.356633 0.617234
0.731373 0.369056 0.616605
0.864476 0.395404 0.623790
0.989583 0.440196 0.640686
0.000919 0.422059 0.606863
0.001547 0.422825 0.607629
0.001072 0.421798 0.609329
0.267555 0.423223 0.615043
0.443658 0.425705 0.616085
0.596132 0.436022 0.618742
0.738465 0.449050 0.621385
0.863642 0.469416 0.629358
0.989400 0.504044 0.644853
0.001226 0.512500 0.610049
0.000306 0.512102 0.617402
0.059130 0.516789 0.616973
0.303033 0.518015 0.617034
0.463480 0.520098 0.618015
0.606955 0.527451 0.620466
0.744485 0.536887 0.623958
0.871661 0.552635 0.633119
0.994117 0.577941 0.644363
0.000000 0.613725 0.617708
0.000192 0.612737 0.617808
0.170144 0.613143 0.620910
0.336872 0.617739 0.619340
0.487990 0.619914 0.622794
0.625375 0.625146 0.625146
0.756526 0.633104 0.628033
0.883333 0.642096 0.639354
1.000000 0.655943 0.641728
0.001838 0.723284 0.625613
0.032659 0.722886 0.622503
0.231311 0.726318 0.626562
0.374326 0.724908 0.625061
0.515931 0.724878 0.627390
0.647564 0.728110 0.630469
0.779412 0.733609 0.634252
0.897840 0.739828 0.642249
1.000000 0.746568 0.653186
0.074020 0.843811 0.627451
0.165916 0.839047 0.627819
0.281924 0.841973 0.627834
0.408533 0.842716 0.627160
0.544118 0.842463 0.629932
0.674778 0.842762 0.637209
0.801026 0.846936 0.640120
0.923016 0.845833 0.648920
1.000000 0.844424 0.664400
0.175000 0.966176 0.629412
0.231250 0.965993 0.633456
0.332108 0.966666 0.636397
0.451287 0.969179 0.637071
0.582108 0.966912 0.640196
0.711765 0.971078 0.646569
0.837622 0.971936 0.656250
0.962255 0.972549 0.667525
0.997549 0.967647 0.685294
0.000000 0.300000 0.726471
0.000000 0.302941 0.729411
0.004412 0.290932 0.732843
0.000981 0.300245 0.733579
0.346078 0.312745 0.737745
0.534804 0.325000 0.737990
0.690442 0.342647 0.737010
0.837622 0.370098 0.740564
0.970588 0.417647 0.748039
0.001716 0.327328 0.731250
0.000322 0.325031 0.728631
0.002175 0.325643 0.731955
0.005791 0.325490 0.730882
0.351286 0.335110 0.735416
0.538496 0.348790 0.737454
0.697090 0.365380 0.737040
0.841927 0.386811 0.743214
0.970221 0.437622 0.749265
0.000000 0.380392 0.729902
0.000735 0.379840 0.733854
0.001471 0.379044 0.732414
0.041973 0.381679 0.732782
0.366912 0.390441 0.734559
0.544914 0.401593 0.736520
0.700122 0.417953 0.738051
0.840687 0.437899 0.740839
0.971569 0.480882 0.753677
0.000000 0.453554 0.731495
0.000000 0.455392 0.732368
0.000705 0.453860 0.736213
0.120696 0.457812 0.741467
0.389583 0.464461 0.735539
0.560141 0.474403 0.738450
0.708180 0.487470 0.743014
0.848437 0.503860 0.744562
0.975613 0.535294 0.756250
0.003432 0.537745 0.737745
0.003248 0.537561 0.737132
0.002329 0.535907 0.737990
0.165012 0.537071 0.738113
0.409068 0.546324 0.735294
0.577512 0.559007 0.742096
0.717157 0.564461 0.740441
0.854167 0.580760 0.749142
0.980392 0.605392 0.757353
0.002206 0.631495 0.739706
0.001747 0.632966 0.740211
0.001808 0.633762 0.738664
0.220021 0.637178 0.739507
0.424755 0.639522 0.743137
0.586734 0.645711 0.744332
0.731587 0.655331 0.743413
0.864691 0.664078 0.751026
0.989951 0.683823 0.759436
0.000000 0.736519 0.741667
0.000000 0.738450 0.743811
0.006311 0.738113 0.741544
0.290411 0.740625 0.745037
0.458333 0.743015 0.743750
0.609253 0.747059 0.743719
0.750122 0.749755 0.749755
0.879749 0.758302 0.752390
0.999755 0.767892 0.764951
0.001348 0.853308 0.749510
0.004733 0.852512 0.753967
0.107108 0.849112 0.756464
0.332337 0.853462 0.748116
0.488787 0.850552 0.751716
0.635815 0.854412 0.755515
0.769393 0.857139 0.756618
0.903018 0.857506 0.757843
1.000000 0.864338 0.772059
0.000981 0.977451 0.753922
0.001838 0.974020 0.752206
0.144363 0.978921 0.752941
0.350980 0.975000 0.755147
0.512745 0.972549 0.757843
0.655515 0.973162 0.757475
0.802206 0.976716 0.762990
0.938971 0.978309 0.771446
1.000000 0.972549 0.783333
0.000490 0.361764 0.853921
0.000000 0.359130 0.856863
0.000368 0.362745 0.860785
0.000184 0.374510 0.859314
0.263235 0.387745 0.856618
0.493260 0.405576 0.857047
0.660294 0.425000 0.857598
0.810723 0.452022 0.863297
0.945098 0.476471 0.856863
0.003432 0.380882 0.856373
0.003003 0.381204 0.856319
0.001072 0.384574 0.854121
0.000322 0.396538 0.848958
0.276348 0.405423 0.853217
0.498851 0.424188 0.857491
0.669623 0.443382 0.862822
0.811037 0.465518 0.859153
0.944179 0.495160 0.861275
0.000981 0.428554 0.857353
0.002375 0.427482 0.857353
0.000643 0.431587 0.858395
0.001608 0.440242 0.857614
0.304902 0.456434 0.862255
0.513664 0.468704 0.858762
0.673836 0.486275 0.861121
0.817877 0.505652 0.858992
0.946814 0.531005 0.863848
0.000306 0.484008 0.859252
0.001915 0.485402 0.858556
0.000536 0.488358 0.857460
0.004213 0.498438 0.862646
0.335110 0.519945 0.857782
0.527627 0.530522 0.858985
0.686213 0.543183 0.861581
0.821262 0.557131 0.862745
0.951164 0.575674 0.859988
0.001961 0.559314 0.864216
0.001747 0.559069 0.864399
0.001471 0.558578 0.863971
0.003860 0.562010 0.862378
0.331740 0.581495 0.866054
0.545772 0.602298 0.860203
0.695282 0.610784 0.862316
0.828370 0.619118 0.863634
0.958578 0.635785 0.867892
0.001287 0.651471 0.862071
0.001287 0.651938 0.862538
0.001333 0.647519 0.863220
0.001532 0.650146 0.863044
0.299694 0.655974 0.861765
0.544432 0.671699 0.864760
0.707261 0.685555 0.866161
0.841452 0.697136 0.867877
0.972181 0.709927 0.872917
0.000000 0.751716 0.865686
0.000475 0.752191 0.866161
0.001655 0.757659 0.868934
0.001700 0.754795 0.862271
0.346140 0.756679 0.868138
0.548499 0.762331 0.864277
0.711428 0.771140 0.869761
0.857353 0.779642 0.874617
0.983333 0.791666 0.876103
0.000061 0.860907 0.869179
0.000375 0.861214 0.869486
0.000429 0.863511 0.868888
0.139537 0.861367 0.874923
0.404442 0.865809 0.869118
0.579213 0.866039 0.873262
0.733196 0.866483 0.870680
0.875613 0.875667 0.875666
0.996568 0.880882 0.880821
0.003432 0.984804 0.877451
0.006434 0.987806 0.879595
0.000858 0.989951 0.882353
0.100490 0.983946 0.880514
0.401961 0.992157 0.877451
0.594117 0.982353 0.879105
0.752819 0.983456 0.877696
0.896508 0.985172 0.877451
1.000000 0.984314 0.884314
0.000000 0.431373 0.984314
0.000000 0.435294 0.986765
0.000000 0.443137 0.984314
0.000000 0.475490 0.982843
0.282353 0.511764 0.982353
0.504412 0.533333 0.984314
0.664706 0.549020 0.980392
0.805883 0.576961 0.980882
0.929412 0.600000 0.976471
0.000000 0.443137 0.991177
0.003432 0.446569 0.987745
0.002574 0.459681 0.981372
0.000000 0.486704 0.984742
0.303432 0.523529 0.982108
0.506679 0.544669 0.981434
0.669240 0.559191 0.985539
0.810233 0.588664 0.983395
0.929412 0.611765 0.976471
0.000000 0.473529 0.987255
0.000000 0.477083 0.985294
0.003677 0.484559 0.991177
0.004657 0.513113 0.987010
0.326961 0.559804 0.976961
0.519608 0.576716 0.982966
0.673284 0.595343 0.982598
0.810784 0.611765 0.982108
0.934313 0.633333 0.979412
0.000000 0.514706 0.985784
0.000184 0.517341 0.985845
0.000000 0.525858 0.982843
0.002390 0.547917 0.984865
0.306618 0.587745 0.978922
0.536397 0.620588 0.981802
0.688848 0.634926 0.982598
0.818750 0.650000 0.983149
0.941176 0.666176 0.982843
0.000000 0.560785 0.994117
0.001716 0.562745 0.992647
0.000000 0.569608 0.989706
0.000000 0.589216 0.987010
0.212745 0.623529 0.995098
0.542892 0.675980 0.981128
0.695098 0.682353 0.983823
0.823529 0.700245 0.983579
0.947059 0.715687 0.986274
0.000000 0.652941 0.996078
0.000000 0.650613 0.995527
0.000000 0.647182 0.993260
0.000919 0.647181 0.993995
0.002451 0.659804 0.994608
0.483885 0.706740 0.987194
0.703064 0.746936 0.984436
0.833640 0.756066 0.985478
0.952941 0.773039 0.985784
0.000981 0.756862 0.996078
0.000000 0.755882 0.995098
0.002942 0.750000 0.994363
0.000613 0.755392 0.994608
0.000000 0.757353 0.995588
0.361519 0.762132 0.991667
0.670833 0.798530 0.992402
0.845098 0.820465 0.988848
0.968627 0.834314 0.994117
0.003432 0.868628 1.000000
0.003432 0.868628 1.000000
0.000000 0.865196 0.995833
0.003616 0.869118 0.998775
0.000245 0.872549 0.996324
0.403554 0.875306 0.999326
0.646569 0.879534 0.999142
0.834866 0.895589 0.995159
0.983824 0.911275 0.996078
0.000000 0.988235 1.000000
0.000000 0.995098 1.000000
0.000000 0.995098 1.000000
0.001471 0.989706 1.000000
0.001961 0.992157 1.000000
0.454412 0.994608 0.998529
0.673529 0.990196 1.000000
0.843137 0.995588 0.993137
1.000000 1.000000 1.000000
