luts/drone/teal-orange-satcontrast.cube
TITLE "Teal+Orange SatContrast"
LUT_3D_SIZE 33
0.000000 0.000000 0.000000
0.042279 0.003799 0.000000
0.080882 0.011275 0.011275
0.119363 0.012133 0.008211
0.150980 0.018628 0.012255
0.199633 0.022916 0.022916
0.238725 0.029902 0.022794
0.278922 0.042279 0.031373
0.315686 0.049019 0.024510
0.355269 0.057721 0.034191
0.389951 0.061520 0.043137
0.428554 0.069240 0.043137
0.463726 0.080882 0.050000
0.501838 0.088603 0.058824
0.538235 0.098530 0.068873
0.575123 0.107966 0.078431
0.603921 0.119608 0.086275
0.644485 0.133333 0.098039
0.683578 0.144608 0.109804
0.712255 0.152206 0.114584
0.749510 0.169118 0.129902
0.774019 0.177819 0.141176
0.808824 0.191912 0.154167
0.839706 0.205025 0.165809
0.868628 0.213726 0.178432
0.894485 0.232231 0.189951
0.923040 0.240687 0.203922
0.950858 0.256127 0.216911
0.977942 0.267157 0.232353
1.000000 0.287010 0.243872
1.000000 0.302206 0.263480
0.996201 0.321814 0.282843
1.000000 0.333333 0.301961
0.007720 0.026961 0.000000
0.046320 0.034681 0.007479
0.077206 0.038121 0.003562
0.119719 0.042880 0.008065
0.155025 0.049418 0.015579
0.198955 0.057844 0.022219
0.240050 0.058433 0.020320
0.278064 0.069118 0.029588
0.313664 0.074204 0.025551
0.348617 0.078186 0.029358
0.391054 0.084804 0.034352
0.431089 0.091096 0.045791
0.460861 0.100123 0.047779
0.501716 0.108015 0.055170
0.535991 0.115632 0.064951
0.573284 0.123472 0.080695
0.607843 0.131127 0.084437
0.644485 0.142957 0.094233
0.681304 0.156603 0.107583
0.711665 0.163798 0.114679
0.749464 0.174372 0.130790
0.781863 0.188274 0.145178
0.808824 0.202206 0.155185
0.836941 0.212745 0.166789
0.866667 0.221538 0.180453
0.897454 0.236056 0.193777
0.923775 0.247794 0.207843
0.954553 0.259823 0.220608
0.981863 0.271568 0.235294
0.999866 0.290453 0.248262
0.999747 0.302689 0.263228
0.992517 0.318130 0.278914
1.000000 0.333210 0.301838
0.011765 0.061519 0.000000
0.053577 0.061642 0.007123
0.081357 0.068658 0.003922
0.123529 0.073530 0.011765
0.165410 0.077880 0.015931
0.203960 0.081825 0.021890
0.236428 0.084605 0.019608
0.282545 0.092280 0.027152
0.316483 0.096323 0.024019
0.354848 0.103868 0.033839
0.386198 0.104090 0.039308
0.428148 0.115403 0.048292
0.460938 0.115686 0.050061
0.496369 0.124900 0.057231
0.534313 0.131480 0.068873
0.569347 0.140801 0.076708
0.606128 0.148407 0.086520
0.644600 0.158326 0.101846
0.679902 0.166176 0.110018
0.715587 0.175391 0.119340
0.745680 0.186918 0.129351
0.775612 0.197181 0.140273
0.807675 0.209804 0.155392
0.842103 0.220290 0.171163
0.866421 0.230086 0.177696
0.896446 0.243750 0.190089
0.926716 0.252604 0.204060
0.951264 0.270749 0.217195
0.978462 0.278921 0.232353
1.000000 0.294585 0.240464
0.999755 0.309819 0.260019
0.999763 0.325490 0.286275
1.000000 0.341176 0.298529
0.019608 0.089093 0.003922
0.057832 0.091935 0.010796
0.088825 0.096323 0.010808
0.127539 0.103711 0.012064
0.169210 0.107123 0.012623
0.207411 0.114698 0.021683
0.236275 0.111956 0.022426
0.281128 0.119731 0.027083
0.319516 0.120466 0.028431
0.352348 0.128206 0.035294
0.388366 0.126486 0.034919
0.428313 0.134804 0.047059
0.465456 0.139491 0.051348
0.495439 0.145807 0.061370
0.532391 0.150283 0.067318
0.571568 0.159853 0.078849
0.611213 0.167708 0.093567
0.642425 0.175318 0.103604
0.682721 0.185087 0.113472
0.713848 0.193015 0.121500
0.750613 0.199847 0.131985
0.778182 0.213599 0.147794
0.814706 0.223399 0.166054
0.838810 0.233295 0.172021
0.869516 0.239553 0.183946
0.894198 0.252248 0.192808
0.924740 0.266598 0.204956
0.955637 0.275368 0.221079
0.981495 0.284099 0.235738
0.996446 0.299107 0.245274
0.996668 0.317448 0.264415
0.999977 0.333199 0.283533
0.996078 0.344730 0.298774
0.034804 0.123529 0.010785
0.069026 0.127344 0.015196
0.093076 0.127420 0.014920
0.131081 0.127941 0.011765
0.170833 0.135294 0.010600
0.211519 0.139629 0.016666
0.247549 0.145926 0.019700
0.282843 0.150490 0.017034
0.320588 0.148652 0.026961
0.358487 0.153723 0.035080
0.390441 0.154351 0.041912
0.428875 0.161734 0.048621
0.461642 0.166666 0.062807
0.501348 0.170879 0.070543
0.532384 0.175429 0.072733
0.569822 0.182797 0.084176
0.607598 0.190932 0.092402
0.644715 0.196676 0.105867
0.682874 0.203156 0.113297
0.714139 0.212178 0.126792
0.744914 0.219914 0.136949
0.780025 0.230239 0.150199
0.811183 0.238971 0.159314
0.841820 0.248147 0.171844
0.866789 0.256005 0.179657
0.897166 0.269118 0.196813
0.927788 0.275398 0.211275
0.954366 0.287087 0.220420
0.978003 0.298162 0.235784
0.999556 0.316544 0.251179
1.000000 0.325245 0.263909
0.999510 0.340931 0.289936
1.000000 0.356373 0.302451
0.053677 0.154412 0.012378
0.084437 0.151696 0.012952
0.108211 0.154450 0.015977
0.139280 0.155335 0.013186
0.174893 0.159022 0.012209
0.211588 0.167306 0.013412
0.248537 0.174135 0.019102
0.288626 0.177941 0.021714
0.322917 0.178554 0.032721
0.354511 0.178554 0.039656
0.391996 0.183716 0.045604
0.430515 0.187431 0.052730
0.463388 0.190089 0.062255
0.501953 0.196205 0.074632
0.537355 0.201471 0.082231
0.571201 0.204167 0.089622
0.608149 0.209927 0.096814
0.641789 0.219608 0.105637
0.678408 0.228776 0.115296
0.712496 0.233085 0.129408
0.749357 0.240058 0.138955
0.780426 0.246971 0.153466
0.810064 0.257177 0.162201
0.842352 0.264829 0.175368
0.867188 0.272978 0.182200
0.897894 0.281851 0.197047
0.920588 0.287140 0.208701
0.954875 0.298556 0.224142
0.985034 0.313066 0.242264
1.000000 0.328807 0.258579
0.996691 0.339828 0.266544
0.993589 0.352554 0.280128
1.000000 0.367402 0.298652
0.065196 0.184559 0.014951
0.092157 0.182131 0.013312
0.115288 0.182797 0.012010
0.143260 0.185662 0.018574
0.178339 0.188664 0.015625
0.206013 0.193757 0.019876
0.244715 0.200245 0.022196
0.289254 0.207231 0.033004
0.326348 0.209620 0.037500
0.357766 0.209031 0.042195
0.393137 0.212255 0.048790
0.429167 0.216920 0.054680
0.464154 0.217862 0.067555
0.498514 0.224946 0.075842
0.532521 0.227359 0.083425
0.569363 0.233134 0.092280
0.606618 0.237010 0.101961
0.646914 0.243359 0.115908
0.679565 0.247963 0.121078
0.713549 0.256181 0.128676
0.745159 0.262286 0.141452
0.780768 0.269960 0.152198
0.811520 0.276455 0.165702
0.837416 0.283747 0.174226
0.866422 0.291912 0.189216
0.894899 0.300613 0.202773
0.921186 0.305882 0.210049
0.951348 0.319478 0.228447
0.980117 0.328523 0.243382
1.000000 0.341107 0.258594
0.999801 0.351762 0.274265
1.000000 0.367302 0.296002
1.000000 0.380392 0.305882
0.076715 0.219240 0.017034
0.104561 0.213113 0.016613
0.123093 0.216177 0.015073
0.151758 0.217034 0.016054
0.181985 0.220741 0.019225
0.211899 0.220098 0.024912
0.244531 0.229695 0.026593
0.282656 0.232533 0.032043
0.324173 0.237316 0.043812
0.358816 0.241908 0.048158
0.391766 0.244585 0.053408
0.427796 0.243065 0.055565
0.466544 0.248376 0.069455
0.498426 0.251471 0.081495
0.537377 0.254052 0.089445
0.573897 0.259769 0.096412
0.605208 0.264522 0.102819
0.644485 0.272917 0.114074
0.679167 0.279780 0.122802
0.713660 0.280515 0.132411
0.744930 0.285401 0.145496
0.778994 0.289534 0.156863
0.809704 0.303309 0.169853
0.839706 0.305890 0.180882
0.869394 0.312898 0.189552
0.891234 0.316789 0.198652
0.924096 0.326999 0.216582
0.951950 0.338603 0.230883
0.973866 0.342953 0.241467
0.993382 0.359068 0.252941
0.999196 0.364392 0.268314
0.999115 0.375954 0.289583
1.000000 0.390441 0.306740
0.093137 0.247058 0.017647
0.116176 0.246109 0.016728
0.129289 0.247058 0.016789
0.159038 0.249724 0.025031
0.185417 0.254412 0.029657
0.213756 0.251961 0.027666
0.247610 0.257292 0.034375
0.281986 0.259589 0.035723
0.323284 0.265686 0.046079
0.357904 0.270864 0.049877
0.394547 0.272978 0.060539
0.428248 0.276440 0.065687
0.467524 0.277451 0.078431
0.503033 0.280607 0.084283
0.534498 0.285539 0.089032
0.568260 0.289737 0.095282
0.608823 0.297059 0.107353
0.644302 0.298499 0.120343
0.682475 0.303676 0.127941
0.712867 0.307261 0.139645
0.745588 0.315196 0.151716
0.779841 0.318321 0.162469
0.805637 0.320833 0.170098
0.837316 0.326869 0.178677
0.863726 0.332353 0.189706
0.890472 0.336152 0.202696
0.921385 0.348652 0.218566
0.951164 0.355362 0.234099
0.976470 0.363358 0.247181
0.997242 0.374786 0.262224
1.000000 0.382843 0.272304
0.999908 0.394301 0.293536
1.000000 0.402941 0.310784
0.104779 0.277941 0.019608
0.125682 0.278922 0.026172
0.138832 0.281794 0.022495
0.163500 0.280232 0.022530
0.194868 0.280898 0.032736
0.219363 0.282794 0.037232
0.251386 0.285784 0.041299
0.287010 0.286646 0.039216
0.321293 0.292095 0.049755
0.356062 0.293627 0.059436
0.394976 0.300245 0.066621
0.429902 0.304423 0.073564
0.468091 0.308900 0.081817
0.502286 0.312090 0.089300
0.537002 0.318742 0.098039
0.572373 0.319240 0.104331
0.609252 0.323591 0.110662
0.648066 0.326103 0.123407
0.680890 0.331740 0.128921
0.713929 0.336274 0.142769
0.745297 0.337577 0.153294
0.774398 0.341199 0.164227
0.804780 0.346592 0.176593
0.835784 0.353864 0.188235
0.863174 0.358731 0.198897
0.892766 0.363840 0.209314
0.923775 0.371078 0.229052
0.951299 0.379144 0.238898
0.975138 0.381633 0.248177
1.000000 0.394240 0.264848
1.000000 0.401892 0.278921
0.998931 0.412622 0.296147
0.998897 0.421323 0.313725
0.120343 0.310294 0.028922
0.141046 0.307552 0.030063
0.155239 0.308992 0.032766
0.175253 0.311382 0.033448
0.197641 0.312592 0.040748
0.225000 0.312745 0.042333
0.257843 0.316667 0.048284
0.291108 0.316667 0.048338
0.325184 0.320894 0.059865
0.357552 0.325391 0.069853
0.395343 0.327589 0.072518
0.431250 0.334926 0.080285
0.470374 0.337714 0.088266
0.501340 0.340702 0.093030
0.535876 0.341758 0.099020
0.574640 0.346201 0.107314
0.611152 0.351961 0.116421
0.648407 0.355025 0.127941
0.680729 0.357307 0.137791
0.711880 0.360532 0.145090
0.744148 0.363480 0.158333
0.774525 0.367647 0.170902
0.809452 0.372794 0.184773
0.837255 0.375077 0.192333
0.864154 0.380637 0.201287
0.894317 0.388480 0.216008
0.920588 0.392631 0.226425
0.950016 0.399211 0.242333
0.975582 0.406679 0.253401
0.995335 0.412492 0.267149
1.000000 0.423774 0.284084
1.000000 0.431778 0.299747
1.000000 0.440686 0.316421
0.137132 0.342280 0.040441
0.150042 0.338400 0.036642
0.166789 0.337293 0.039132
0.184436 0.341671 0.040567
0.211182 0.343459 0.048974
0.234069 0.343628 0.051593
0.263956 0.345718 0.056005
0.294903 0.347549 0.057966
0.328431 0.350153 0.064982
0.358222 0.353542 0.067770
0.394256 0.355093 0.075858
0.431591 0.360581 0.084042
0.467294 0.365809 0.092770
0.502631 0.371626 0.095646
0.540173 0.372258 0.104534
0.574877 0.378206 0.113584
0.611091 0.380270 0.122120
0.645137 0.384191 0.133268
0.679756 0.386596 0.143850
0.711952 0.389158 0.152884
0.748529 0.390931 0.164369
0.777014 0.394608 0.172549
0.806250 0.394485 0.182843
0.835440 0.400099 0.193015
0.865962 0.406373 0.201624
0.893038 0.409142 0.213186
0.922526 0.417042 0.228186
0.948686 0.421867 0.240039
0.974847 0.427176 0.252451
1.000000 0.435539 0.275360
1.000000 0.440686 0.288358
1.000000 0.449916 0.308701
1.000000 0.460049 0.322917
0.156373 0.367157 0.047059
0.174142 0.366713 0.046492
0.183486 0.368290 0.051869
0.202466 0.371691 0.052972
0.221262 0.372917 0.056618
0.244577 0.373499 0.060187
0.273683 0.375704 0.062653
0.305193 0.376746 0.065518
0.334191 0.379534 0.071936
0.365196 0.386275 0.077650
0.396783 0.384590 0.086275
0.431985 0.388725 0.092402
0.468444 0.392647 0.100307
0.505162 0.397166 0.107598
0.544608 0.401624 0.116667
0.577742 0.407031 0.122963
0.613480 0.409804 0.126471
0.649556 0.411274 0.135693
0.684773 0.413726 0.145987
0.717448 0.418643 0.158456
0.747059 0.419118 0.164706
0.777436 0.421109 0.175383
0.807353 0.423101 0.187285
0.837592 0.427007 0.199678
0.865686 0.431373 0.211397
0.890242 0.432675 0.221324
0.928677 0.440931 0.239216
0.951011 0.446186 0.248881
0.976042 0.445221 0.258824
0.997641 0.457001 0.273912
1.000000 0.462653 0.291606
1.000000 0.472717 0.310172
1.000000 0.481863 0.330392
0.170956 0.395956 0.052573
0.187967 0.399877 0.057893
0.197962 0.401471 0.060853
0.212921 0.400027 0.060336
0.231127 0.401471 0.064583
0.256124 0.402815 0.067031
0.280584 0.404956 0.069294
0.312971 0.406985 0.078657
0.340196 0.407537 0.080729
0.371036 0.409314 0.086397
0.404764 0.415204 0.091667
0.437492 0.416904 0.099020
0.471936 0.419623 0.104167
0.507353 0.425000 0.108647
0.543053 0.429818 0.118137
0.580281 0.432843 0.124142
0.616850 0.438726 0.134069
0.650590 0.439840 0.143405
0.683701 0.443099 0.151555
0.715230 0.444906 0.163323
0.747932 0.447671 0.170558
0.776160 0.449077 0.178367
0.811014 0.450620 0.191054
0.837378 0.452451 0.201103
0.866483 0.452696 0.211397
0.895033 0.460294 0.225915
0.922457 0.462761 0.240686
0.951586 0.468750 0.250613
0.976103 0.471615 0.261780
0.997671 0.480052 0.282939
0.999854 0.485562 0.296791
1.000000 0.493432 0.314142
1.000000 0.506618 0.335662
0.184804 0.430638 0.059314
0.196867 0.428485 0.063167
0.210432 0.432246 0.066560
0.224839 0.432307 0.066950
0.243873 0.435508 0.068873
0.267111 0.432621 0.076103
0.291667 0.435447 0.075567
0.322059 0.434551 0.078324
0.347304 0.439032 0.084375
0.375237 0.440066 0.092272
0.407552 0.444117 0.099020
0.441230 0.445297 0.102650
0.475000 0.449939 0.107690
0.510256 0.450651 0.112132
0.547534 0.456847 0.121308
0.584911 0.461627 0.134475
0.618995 0.466544 0.140318
0.650490 0.468819 0.149142
0.685294 0.471568 0.156174
0.717073 0.471768 0.165479
0.746814 0.475490 0.174755
0.776325 0.475322 0.180614
0.810493 0.477895 0.194072
0.837983 0.479274 0.203791
0.864461 0.482353 0.215809
0.894976 0.484191 0.230507
0.924188 0.488312 0.242816
0.953945 0.491444 0.257989
0.981648 0.494883 0.269148
0.996446 0.502818 0.284359
1.000000 0.506618 0.300383
1.000000 0.514445 0.319646
1.000000 0.525981 0.335049
0.206005 0.461152 0.074510
0.211830 0.461454 0.071078
0.221706 0.461167 0.070603
0.238335 0.462672 0.076030
0.254167 0.465058 0.074954
0.278676 0.464825 0.078677
0.303876 0.466031 0.085394
0.327029 0.466755 0.088814
0.356066 0.470159 0.098683
0.386152 0.470343 0.101103
0.415602 0.472917 0.104082
0.447833 0.472832 0.109229
0.479703 0.476930 0.115809
0.512611 0.480013 0.121668
0.546415 0.481097 0.126632
0.586025 0.490801 0.139583
0.621691 0.492525 0.144179
0.653435 0.497538 0.153918
0.686359 0.497250 0.165387
0.718114 0.499721 0.170320
0.749142 0.500368 0.181863
0.776490 0.500368 0.190215
0.808173 0.503508 0.203715
0.837175 0.504875 0.213454
0.865625 0.506372 0.225030
0.894539 0.507039 0.235892
0.923752 0.511788 0.252351
0.952045 0.515729 0.264178
0.978202 0.520465 0.277344
0.996496 0.530074 0.290809
0.997916 0.534053 0.306733
0.997924 0.537990 0.326046
0.997916 0.543505 0.339093
0.217647 0.492157 0.078431
0.227267 0.490319 0.076470
0.236887 0.492034 0.080269
0.250245 0.494302 0.086091
0.267402 0.492402 0.080882
0.288358 0.493812 0.084314
0.311887 0.498039 0.089461
0.337745 0.496079 0.094118
0.360294 0.498530 0.097549
0.392524 0.500551 0.106189
0.422549 0.502696 0.109926
0.454044 0.503922 0.116299
0.483088 0.504657 0.119853
0.516360 0.510968 0.124694
0.548897 0.512010 0.132476
0.585049 0.515564 0.141299
0.617647 0.521568 0.149020
0.653370 0.524448 0.158701
0.685049 0.526348 0.166422
0.718934 0.526287 0.171017
0.745833 0.530147 0.182598
0.776654 0.532047 0.194179
0.808824 0.532598 0.205760
0.837745 0.531924 0.215380
0.868137 0.535784 0.227451
0.895159 0.537255 0.238113
0.925368 0.537990 0.252083
0.949510 0.541789 0.267892
0.980147 0.548774 0.283333
0.996262 0.551348 0.298958
0.997916 0.556986 0.315809
0.999939 0.562868 0.329780
0.998039 0.572549 0.350981
0.231127 0.521323 0.082353
0.238783 0.521381 0.082173
0.252214 0.526593 0.087768
0.263775 0.523334 0.091985
0.277696 0.524770 0.085463
0.299590 0.525287 0.091422
0.319508 0.528922 0.093137
0.346848 0.527750 0.101313
0.371109 0.528922 0.104381
0.398748 0.530829 0.111301
0.426302 0.532192 0.117034
0.457843 0.533578 0.120137
0.486152 0.538848 0.128110
0.519018 0.541923 0.133234
0.551945 0.541966 0.142578
0.585665 0.542770 0.147928
0.616728 0.546569 0.153860
0.652328 0.551229 0.165322
0.684383 0.554396 0.171010
0.718761 0.558456 0.183724
0.749678 0.555683 0.192861
0.775858 0.557740 0.203818
0.807315 0.556373 0.213970
0.838454 0.559777 0.227057
0.868689 0.561581 0.238297
0.895519 0.564216 0.248127
0.925314 0.565954 0.262891
0.954286 0.571772 0.280595
0.978447 0.571829 0.288864
0.998112 0.574510 0.302818
1.000000 0.580032 0.319976
0.997982 0.587867 0.337738
1.000000 0.595588 0.360784
0.246568 0.551961 0.091912
0.256480 0.553745 0.095833
0.264185 0.554029 0.097901
0.281173 0.553722 0.101961
0.289431 0.555607 0.098744
0.312990 0.556495 0.103064
0.331051 0.559068 0.107674
0.359076 0.559804 0.112385
0.379167 0.559804 0.112500
0.408586 0.561389 0.115441
0.436856 0.563036 0.122243
0.463312 0.562967 0.127306
0.493443 0.567463 0.138235
0.522955 0.566950 0.141215
0.556817 0.572059 0.146553
0.588863 0.570765 0.153853
0.619608 0.575735 0.159681
0.652328 0.578240 0.170098
0.686535 0.582583 0.177160
0.719684 0.582315 0.187500
0.749081 0.584069 0.197549
0.778699 0.583334 0.207744
0.810294 0.585049 0.218627
0.840326 0.587255 0.230890
0.868505 0.589890 0.241177
0.891529 0.589078 0.250865
0.922396 0.591590 0.265947
0.952650 0.593237 0.284880
0.975919 0.597304 0.298468
1.000000 0.601225 0.312416
0.998391 0.603186 0.329442
0.999893 0.610922 0.348843
0.996078 0.616912 0.368137
0.265931 0.582843 0.098897
0.273652 0.582966 0.102819
0.283311 0.586519 0.103508
0.292716 0.586983 0.107326
0.303064 0.586274 0.103646
0.324632 0.587128 0.110535
0.341299 0.587201 0.108770
0.365035 0.588932 0.117873
0.386857 0.590288 0.120803
0.412132 0.590606 0.121936
0.438956 0.591184 0.129779
0.471756 0.594060 0.134632
0.500000 0.592280 0.141299
0.527907 0.597147 0.149529
0.561474 0.599548 0.156250
0.593494 0.600969 0.165307
0.621630 0.601287 0.168689
0.654266 0.605135 0.176080
0.689216 0.608287 0.184720
0.721691 0.610942 0.189093
0.749249 0.611290 0.200337
0.780270 0.611822 0.211282
0.811788 0.609191 0.226846
0.840361 0.612542 0.238645
0.869822 0.616728 0.250398
0.890280 0.617053 0.253780
0.922342 0.615089 0.268735
0.953071 0.621193 0.287243
0.978079 0.621860 0.300812
0.998407 0.624388 0.318382
1.000000 0.632085 0.337745
0.999927 0.634609 0.360172
1.000000 0.638480 0.375735
0.278922 0.615196 0.112745
0.287516 0.613817 0.108793
0.296477 0.617402 0.112500
0.304397 0.617877 0.114308
0.324326 0.619792 0.118689
0.336673 0.617647 0.116222
0.352482 0.617647 0.121324
0.374387 0.620098 0.122273
0.397181 0.620466 0.128922
0.422335 0.620098 0.129764
0.451930 0.621875 0.138511
0.479396 0.625965 0.143244
0.506863 0.625490 0.148345
0.538618 0.627941 0.156143
0.564706 0.628033 0.160049
0.599341 0.630024 0.168873
0.628431 0.634559 0.173284
0.658502 0.632031 0.182399
0.690870 0.638327 0.192800
0.722166 0.641774 0.201011
0.753921 0.640257 0.210417
0.781863 0.638220 0.219133
0.811979 0.637715 0.230607
0.841590 0.638358 0.240441
0.870221 0.638603 0.251593
0.895634 0.642479 0.263481
0.929963 0.647549 0.283088
0.954396 0.646109 0.295757
0.976593 0.647243 0.310723
0.998667 0.649387 0.321691
1.000000 0.654105 0.340686
0.999954 0.661811 0.360279
1.000000 0.665686 0.379412
0.292892 0.648529 0.118995
0.299268 0.646079 0.119037
0.308172 0.646033 0.127175
0.322423 0.643628 0.125490
0.331449 0.648529 0.123392
0.347495 0.646779 0.126225
0.367280 0.647181 0.129764
0.387868 0.647476 0.134413
0.411183 0.650521 0.138940
0.436152 0.650601 0.143405
0.460838 0.651226 0.145221
0.487500 0.652792 0.149483
0.516192 0.653294 0.153523
0.542950 0.655825 0.160041
0.573430 0.655683 0.169018
0.604573 0.657881 0.173568
0.632108 0.659681 0.182476
0.665461 0.662293 0.190705
0.696959 0.666789 0.197863
0.728489 0.666789 0.203972
0.758701 0.667295 0.214445
0.785784 0.668137 0.229806
0.814936 0.667210 0.239637
0.844976 0.669608 0.250858
0.869669 0.668444 0.259589
0.895933 0.667084 0.272331
0.925605 0.667042 0.286520
0.957162 0.673495 0.303799
0.978110 0.676884 0.320389
1.000000 0.676348 0.330637
0.998652 0.677489 0.349954
0.997388 0.680067 0.369121
0.998652 0.685171 0.389583
0.310784 0.677941 0.126471
0.317279 0.676838 0.129167
0.326225 0.675659 0.131786
0.340418 0.675237 0.135531
0.347396 0.680484 0.135968
0.359314 0.677957 0.138059
0.377221 0.679412 0.145588
0.398652 0.679312 0.144508
0.423775 0.681434 0.148162
0.446913 0.680170 0.152528
0.469991 0.682950 0.155009
0.496025 0.684260 0.161588
0.523070 0.687255 0.166146
0.549762 0.684926 0.168528
0.580392 0.685922 0.178033
0.611566 0.688687 0.184888
0.641054 0.690564 0.192769
0.671247 0.691100 0.199311
0.701180 0.693582 0.206863
0.734681 0.696323 0.215587
0.766207 0.698560 0.225000
0.792157 0.700789 0.238251
0.822273 0.695558 0.249127
0.849954 0.695098 0.257231
0.877022 0.693689 0.267157
0.898139 0.692724 0.275712
0.927007 0.695098 0.295113
0.953960 0.697794 0.309965
0.982016 0.699755 0.328431
1.000000 0.701716 0.340441
0.997472 0.701961 0.356464
0.999831 0.709643 0.381901
0.997304 0.713481 0.402451
0.324878 0.709191 0.140564
0.331442 0.707564 0.139530
0.339216 0.706480 0.142210
0.347304 0.710294 0.146201
0.363189 0.708655 0.143811
0.378382 0.707476 0.146691
0.388312 0.707269 0.151019
0.412362 0.712496 0.152190
0.434038 0.710294 0.159099
0.455032 0.710294 0.157966
0.476202 0.710294 0.165686
0.505515 0.712868 0.171714
0.534237 0.715977 0.176885
0.558291 0.716544 0.178884
0.585294 0.716421 0.183433
0.615617 0.716992 0.193681
0.645098 0.719546 0.198836
0.673625 0.720044 0.208375
0.705522 0.721438 0.217754
0.739706 0.723162 0.226225
0.768459 0.725981 0.237868
0.803320 0.729902 0.252328
0.830369 0.728799 0.260049
0.852574 0.723472 0.266054
0.882200 0.725000 0.281372
0.904289 0.722059 0.294976
0.929856 0.720634 0.304374
0.956150 0.724437 0.325268
0.977282 0.725981 0.339200
0.996342 0.725981 0.349567
0.997288 0.729902 0.370534
0.993382 0.731721 0.390897
0.997181 0.737745 0.416789
0.343137 0.738235 0.152941
0.347947 0.740104 0.149908
0.354657 0.740012 0.152757
0.366207 0.737622 0.148591
0.378309 0.741176 0.159559
0.388970 0.737408 0.154442
0.408149 0.740625 0.162010
0.425429 0.743597 0.164185
0.442402 0.742157 0.169608
0.466452 0.741452 0.170711
0.489399 0.741176 0.176226
0.510937 0.743168 0.178707
0.538358 0.744975 0.186029
0.566759 0.746660 0.191575
0.592708 0.747733 0.198958
0.622457 0.749203 0.208487
0.652451 0.749020 0.214216
0.681465 0.749939 0.223805
0.711642 0.752513 0.229473
0.741851 0.752942 0.237286
0.772672 0.755392 0.243627
0.803431 0.756862 0.255269
0.833763 0.756862 0.272120
0.860570 0.756158 0.279810
0.887991 0.754412 0.290196
0.901256 0.752084 0.303585
0.931802 0.750674 0.315992
0.960141 0.749479 0.332690
0.982721 0.751226 0.349388
0.996354 0.750184 0.364369
1.000000 0.753064 0.383394
1.000000 0.756924 0.408119
1.000000 0.759804 0.425490
0.359436 0.765931 0.158579
0.366299 0.772794 0.165441
0.373353 0.772005 0.165510
0.378026 0.768218 0.165564
0.389093 0.771783 0.162730
0.400969 0.768616 0.165430
0.418995 0.776341 0.174464
0.438358 0.773782 0.174935
0.455300 0.773039 0.177758
0.479902 0.774261 0.186270
0.503753 0.775391 0.188725
0.522867 0.773407 0.192524
0.549923 0.776072 0.199265
0.573981 0.778148 0.202225
0.602796 0.779420 0.210041
0.629569 0.778010 0.217138
0.658150 0.778799 0.223713
0.687814 0.780304 0.230603
0.717632 0.780278 0.239208
0.745381 0.782004 0.249284
0.777604 0.785294 0.256173
0.807403 0.786692 0.266104
0.837500 0.784681 0.274755
0.865572 0.787504 0.287757
0.890932 0.786550 0.305208
0.916969 0.780385 0.316969
0.943918 0.781656 0.328676
0.962488 0.776704 0.340920
0.978156 0.773085 0.357368
0.993873 0.778267 0.375080
0.996936 0.779044 0.396675
1.000000 0.782230 0.417892
1.000000 0.782966 0.439216
0.370833 0.802206 0.177206
0.382230 0.802918 0.181005
0.387010 0.803186 0.175490
0.391107 0.799754 0.174157
0.405147 0.806220 0.175551
0.417402 0.800252 0.174870
0.434099 0.805392 0.183717
0.451149 0.805431 0.186359
0.467341 0.804289 0.189338
0.488358 0.804335 0.190234
0.513940 0.806326 0.198254
0.536037 0.804772 0.203815
0.560294 0.804871 0.209099
0.583770 0.804971 0.212814
0.608900 0.806541 0.222304
0.636298 0.808356 0.231350
0.663358 0.805637 0.238726
0.691176 0.808946 0.246645
0.721308 0.810371 0.254488
0.752206 0.812676 0.265074
0.784283 0.813174 0.271875
0.811627 0.816054 0.283333
0.843122 0.815212 0.293628
0.873368 0.819156 0.305270
0.901899 0.817218 0.318505
0.925038 0.813848 0.331005
0.949969 0.810784 0.345374
0.968023 0.807483 0.354182
0.985876 0.806710 0.371078
