luts/drone/teal-orange-basic.cube
TITLE "Teal+Orange Basic"
LUT_3D_SIZE 5
0.003922 0.000000 0.000000
0.269608 0.025490 0.009804
0.529411 0.068628 0.021568
0.784313 0.132353 0.075490
1.000000 0.207843 0.149020
0.087255 0.219608 0.026471
0.277696 0.230392 0.032598
0.532843 0.247549 0.053431
0.784804 0.273284 0.100490
0.997059 0.310784 0.169608
0.200000 0.445098 0.084314
0.325490 0.450000 0.095098
0.551961 0.463726 0.104902
0.797549 0.476961 0.141666
1.000000 0.494117 0.200000
0.319608 0.689216 0.136274
0.410539 0.692647 0.142402
0.600980 0.696569 0.159314
0.828676 0.699510 0.193872
0.996078 0.702941 0.267647
0.450980 0.949020 0.200000
0.519608 0.955882 0.210785
0.686275 0.956863 0.237255
0.901961 0.960784 0.291177
1.000000 0.945098 0.392157
0.000000 0.081372 0.238235
0.227451 0.080147 0.243627
0.514216 0.119608 0.249510
0.769608 0.181373 0.270098
1.000000 0.250000 0.299020
0.000735 0.243873 0.245588
0.252267 0.250613 0.248039
0.516667 0.265564 0.258456
0.775613 0.291606 0.274755
0.996323 0.338235 0.308333
0.162255 0.460294 0.262255
0.307598 0.463358 0.263848
0.540931 0.473284 0.271814
0.787623 0.486520 0.289706
1.000000 0.508333 0.323039
0.288480 0.695343 0.287745
0.391299 0.697243 0.288603
0.593505 0.700858 0.295711
0.822059 0.704105 0.314890
0.996078 0.709559 0.364951
0.427451 0.956863 0.318628
0.499510 0.957843 0.327206
0.677451 0.958333 0.344118
0.898039 0.963235 0.383333
0.998039 0.946079 0.452941
0.000000 0.186275 0.480393
0.001961 0.173529 0.482843
0.459804 0.206863 0.490196
0.746078 0.240196 0.496079
1.000000 0.327451 0.523529
0.000000 0.304412 0.485784
0.095588 0.302451 0.487500
0.470588 0.311274 0.492157
0.750245 0.335784 0.500245
0.997059 0.405392 0.529412
0.000000 0.489216 0.491177
0.215441 0.492647 0.495588
0.500000 0.500981 0.500490
0.762500 0.514951 0.508578
1.000000 0.542157 0.529412
0.165196 0.709804 0.510784
0.311887 0.712255 0.507475
0.552206 0.717647 0.515441
0.795956 0.720588 0.523529
0.999510 0.732843 0.551961
0.321569 0.962745 0.517647
0.416667 0.963235 0.520588
0.629412 0.961764 0.531373
0.867647 0.967157 0.555882
0.996078 0.960784 0.596078
0.000000 0.300000 0.726471
0.004412 0.290932 0.732843
0.346078 0.312745 0.737745
0.690442 0.342647 0.737010
0.970588 0.417647 0.748039
0.000000 0.380392 0.729902
0.001471 0.379044 0.732414
0.366912 0.390441 0.734559
0.700122 0.417953 0.738051
0.971569 0.480882 0.753677
0.003432 0.537745 0.737745
0.002329 0.535907 0.737990
0.409068 0.546324 0.735294
0.717157 0.564461 0.740441
0.980392 0.605392 0.757353
0.000000 0.736519 0.741667
0.006311 0.738113 0.741544
0.458333 0.743015 0.743750
0.750122 0.749755 0.749755
0.999755 0.767892 0.764951
0.000981 0.977451 0.753922
0.144363 0.978921 0.752941
0.512745 0.972549 0.757843
0.802206 0.976716 0.762990
1.000000 0.972549 0.783333
0.000000 0.431373 0.984314
0.000000 0.443137 0.984314
0.282353 0.511764 0.982353
0.664706 0.549020 0.980392
0.929412 0.600000 0.976471
0.000000 0.473529 0.987255
0.003677 0.484559 0.991177
0.326961 0.559804 0.976961
0.673284 0.595343 0.982598
0.934313 0.633333 0.979412
0.000000 0.560785 0.994117
0.000000 0.569608 0.989706
0.212745 0.623529 0.995098
0.695098 0.682353 0.983823
0.947059 0.715687 0.986274
0.000981 0.756862 0.996078
0.002942 0.750000 0.994363
0.000000 0.757353 0.995588
0.670833 0.798530 0.992402
0.968627 0.834314 0.994117
0.000000 0.988235 1.000000
0.000000 0.995098 1.000000
0.001961 0.992157 1.000000
0.673529 0.990196 1.000000
1.000000 1.000000 1.000000
