luts/drone/xdeepgreen.cube
TITLE "XDeepGreen"
LUT_3D_SIZE 33
0.000000 0.000000 0.000000
0.042402 0.003922 0.000000
0.077451 0.007843 0.007843
0.111887 0.011765 0.007843
0.153922 0.019118 0.011275
0.199633 0.022916 0.022916
0.240196 0.030638 0.023529
0.278922 0.042279 0.031373
0.314706 0.050000 0.030392
0.356985 0.053799 0.033088
0.389951 0.062745 0.040686
0.422059 0.073162 0.043137
0.465686 0.079902 0.048529
0.501838 0.088603 0.055637
0.538235 0.098530 0.065441
0.575123 0.107966 0.078431
0.607843 0.119608 0.080393
0.646324 0.133333 0.093872
0.683578 0.144608 0.109804
0.712255 0.154534 0.116912
0.748529 0.166176 0.130392
0.777941 0.179167 0.137377
0.816667 0.193382 0.151471
0.842525 0.202206 0.165809
0.866667 0.210784 0.173530
0.900613 0.229167 0.189951
0.923775 0.241422 0.206128
0.946936 0.252206 0.219608
0.977942 0.267647 0.231373
1.000000 0.283456 0.251715
1.000000 0.302206 0.263480
0.996078 0.321692 0.282721
1.000000 0.333333 0.301961
0.003799 0.023039 0.000000
0.046197 0.026961 0.011279
0.077680 0.034559 0.011627
0.119719 0.042992 0.008310
0.157736 0.047136 0.014721
0.200245 0.057146 0.022464
0.239438 0.057821 0.019708
0.284069 0.066273 0.023502
0.313756 0.072304 0.029473
0.354166 0.078186 0.031496
0.391222 0.082070 0.036849
0.429784 0.092402 0.050697
0.467984 0.100123 0.054902
0.499460 0.107943 0.059463
0.536995 0.113549 0.067141
0.573104 0.119731 0.078734
0.604044 0.133088 0.087990
0.644608 0.142834 0.094233
0.679167 0.154519 0.107529
0.713258 0.165391 0.120783
0.754764 0.176746 0.134589
0.780515 0.186926 0.143830
0.810049 0.200973 0.155392
0.841334 0.213726 0.166877
0.866575 0.221446 0.180361
0.894485 0.233089 0.190809
0.923775 0.247794 0.201471
0.954695 0.259908 0.220673
0.981372 0.272043 0.234130
0.996446 0.287366 0.244251
1.000000 0.306005 0.266790
0.999881 0.318133 0.282598
1.000000 0.333333 0.301961
0.019118 0.038726 0.023039
0.046454 0.049885 0.026601
0.081143 0.054151 0.022809
0.127306 0.065219 0.015931
0.164736 0.076960 0.015625
0.207598 0.087822 0.019279
0.237408 0.086183 0.019164
0.282598 0.092333 0.033755
0.316912 0.096385 0.031557
0.354304 0.097480 0.030477
0.394700 0.100414 0.036934
0.427160 0.111887 0.048077
0.465686 0.113388 0.054657
0.497871 0.123552 0.057330
0.535815 0.133196 0.074617
0.569853 0.138963 0.080860
0.607843 0.148530 0.091789
0.644470 0.158195 0.101715
0.679795 0.166069 0.113266
0.715242 0.175536 0.119531
0.743290 0.184528 0.129718
0.775773 0.197342 0.140434
0.811351 0.213481 0.158992
0.839637 0.223108 0.173269
0.865502 0.228248 0.183763
0.893681 0.240878 0.187217
0.924173 0.255147 0.203968
0.952290 0.271117 0.217769
0.977942 0.279197 0.232721
0.993314 0.294608 0.247771
1.000000 0.313480 0.263695
0.999648 0.325605 0.279166
1.000000 0.340686 0.298284
0.042402 0.062010 0.038481
0.053565 0.073173 0.045734
0.077351 0.078040 0.031450
0.127206 0.081882 0.026383
0.166666 0.092050 0.026762
0.203856 0.107590 0.022238
0.239759 0.115510 0.020205
0.281986 0.119650 0.025528
0.314369 0.120374 0.031189
0.352715 0.128206 0.035294
0.391314 0.128562 0.037018
0.428313 0.134563 0.047542
0.460126 0.138603 0.054902
0.498284 0.147768 0.063630
0.540028 0.152045 0.071079
0.574728 0.158015 0.082008
0.609988 0.165747 0.091606
0.642425 0.175318 0.103259
0.679818 0.185455 0.109359
0.713182 0.192348 0.120833
0.746032 0.202206 0.132445
0.778435 0.213599 0.145224
0.809306 0.227206 0.161535
0.839867 0.234398 0.173020
0.869853 0.240441 0.179228
0.894324 0.252535 0.194570
0.924809 0.266667 0.205622
0.955082 0.274812 0.219413
0.984896 0.286719 0.233242
0.996446 0.299073 0.245240
1.000000 0.320757 0.267747
0.999989 0.333567 0.282809
0.999632 0.348652 0.301593
0.061274 0.080882 0.064216
0.064997 0.092310 0.065196
0.073775 0.103186 0.053738
0.119976 0.108732 0.043336
0.165625 0.108701 0.029657
0.208579 0.123698 0.030883
0.243383 0.138327 0.027298
0.284666 0.146308 0.023146
0.321446 0.147794 0.027696
0.360815 0.151118 0.034942
0.392432 0.154504 0.040533
0.430316 0.159313 0.050643
0.462071 0.165380 0.062439
0.498116 0.173116 0.074112
0.529596 0.174571 0.074448
0.571676 0.181005 0.084237
0.604657 0.190686 0.096078
0.642892 0.198499 0.105408
0.682874 0.203156 0.113725
0.713940 0.211979 0.124556
0.749203 0.216483 0.139154
0.779289 0.228998 0.148483
0.811520 0.239308 0.166514
0.838388 0.250475 0.174755
0.862377 0.254902 0.184069
0.894378 0.266652 0.192739
0.927696 0.278094 0.205607
0.954289 0.289905 0.216911
0.978003 0.298591 0.232353
0.999556 0.313480 0.248116
1.000000 0.325245 0.263909
1.000000 0.344240 0.283180
1.000000 0.352941 0.299019
0.073897 0.107353 0.089583
0.081108 0.108540 0.081147
0.082445 0.119891 0.076225
0.112385 0.127819 0.070891
0.161550 0.137775 0.055040
0.204779 0.142130 0.051934
0.247304 0.152934 0.045343
0.283077 0.162967 0.040931
0.320221 0.173346 0.033088
0.358184 0.178994 0.040587
0.395497 0.187025 0.046461
0.427941 0.185260 0.050559
0.465686 0.194455 0.063726
0.501589 0.197185 0.067651
0.535761 0.201739 0.076915
0.569443 0.205925 0.082353
0.604228 0.211581 0.094117
0.641464 0.219933 0.106288
0.677788 0.228845 0.115709
0.712496 0.233085 0.127447
0.748116 0.241069 0.134589
0.777819 0.246779 0.151907
0.810892 0.260486 0.161167
0.841472 0.265614 0.169902
0.864093 0.268015 0.180852
0.893873 0.281373 0.202696
0.926233 0.293015 0.214575
0.953228 0.304235 0.225900
0.973330 0.316084 0.234406
1.000000 0.321944 0.255335
1.000000 0.336520 0.269646
1.000000 0.352554 0.280089
0.996691 0.364093 0.295343
0.087990 0.132598 0.108333
0.092601 0.134927 0.103554
0.097457 0.142647 0.097013
0.112117 0.153922 0.091246
0.148652 0.165533 0.080974
0.194493 0.168367 0.069493
0.243520 0.166283 0.061274
0.283992 0.177903 0.061236
0.326532 0.190870 0.055699
0.357062 0.203638 0.052857
0.387761 0.211749 0.054442
0.427206 0.215931 0.057836
0.463051 0.220037 0.060815
0.503990 0.227137 0.073775
0.535049 0.226639 0.080637
0.572158 0.232943 0.093581
0.608578 0.238971 0.103921
0.641299 0.244462 0.109023
0.679167 0.251149 0.122472
0.713549 0.254289 0.133333
0.749448 0.264001 0.143168
0.778937 0.269600 0.151103
0.808318 0.274265 0.163970
0.839177 0.287462 0.176310
0.871752 0.288725 0.185233
0.894899 0.295060 0.202252
0.923637 0.308471 0.212638
0.950238 0.319976 0.226210
0.979810 0.325245 0.233518
0.994225 0.340441 0.257039
1.000000 0.348775 0.274020
1.000000 0.361864 0.285808
1.000000 0.379657 0.303676
0.114216 0.149510 0.129902
0.118900 0.157992 0.126988
0.116069 0.162692 0.123966
0.124184 0.170466 0.114583
0.146094 0.182384 0.101992
0.187523 0.195611 0.101382
0.236076 0.199096 0.088771
0.284191 0.197051 0.077573
0.327696 0.203738 0.076838
0.362255 0.217647 0.074272
0.393873 0.228163 0.067456
0.428259 0.240663 0.066200
0.465150 0.247258 0.068704
0.500915 0.252489 0.081307
0.536037 0.254910 0.093375
0.566108 0.260225 0.096010
0.602389 0.269118 0.101716
0.642647 0.271079 0.112236
0.677926 0.277198 0.121178
0.715253 0.282617 0.134804
0.749586 0.286228 0.146323
0.778899 0.293750 0.158605
0.805882 0.300881 0.167157
0.836891 0.303068 0.180396
0.869394 0.312255 0.189736
0.897174 0.314208 0.200475
0.924188 0.327413 0.216996
0.950992 0.338603 0.224276
0.974127 0.347044 0.237132
0.993382 0.359068 0.252941
0.996323 0.367264 0.274058
0.999973 0.379875 0.294432
1.000000 0.392157 0.305882
0.131372 0.180392 0.148039
0.134222 0.177543 0.148039
0.135478 0.185233 0.146140
0.145160 0.192769 0.143658
0.156863 0.207353 0.138725
0.180208 0.216054 0.125061
0.222059 0.228554 0.117035
0.269455 0.224050 0.100276
0.318382 0.226716 0.094853
0.353033 0.235876 0.089890
0.390257 0.244240 0.090870
0.428554 0.254167 0.092494
0.467157 0.270588 0.090074
0.502420 0.279412 0.085478
0.530944 0.282905 0.091544
0.570925 0.289277 0.101808
0.608823 0.295588 0.110294
0.644302 0.298499 0.121385
0.683456 0.304657 0.129473
0.714032 0.307077 0.134161
0.744608 0.313848 0.145956
0.775000 0.321568 0.156250
0.807476 0.320833 0.164215
0.838848 0.324632 0.182353
0.867892 0.329902 0.190931
0.889246 0.338878 0.203340
0.918995 0.346263 0.217769
0.956740 0.355515 0.234559
0.978554 0.361519 0.246324
0.996446 0.373897 0.261428
1.000000 0.381924 0.278737
1.000000 0.394362 0.295558
0.999019 0.404902 0.310784
0.151348 0.205637 0.169240
0.161152 0.205603 0.171971
0.158754 0.208632 0.169592
0.160604 0.215931 0.165261
0.163817 0.231051 0.160432
0.183310 0.237500 0.150858
0.221040 0.247510 0.139912
0.264824 0.250253 0.125862
0.318627 0.249510 0.121201
0.352141 0.251593 0.109804
0.391812 0.258969 0.109536
0.437278 0.273395 0.108689
0.469010 0.281771 0.110754
0.502535 0.294688 0.109149
0.537967 0.306985 0.099885
0.574387 0.317157 0.110267
0.610049 0.321078 0.121875
0.644091 0.325586 0.124904
0.681855 0.331258 0.128921
0.714545 0.333739 0.138235
0.747472 0.338695 0.150215
0.778688 0.340908 0.161998
0.807422 0.345711 0.174655
0.838913 0.349943 0.188545
0.866942 0.355086 0.201134
0.893627 0.362500 0.213346
0.921163 0.370136 0.221446
0.954952 0.377524 0.237450
0.978432 0.382996 0.250230
0.999897 0.393137 0.263641
1.000000 0.400858 0.277887
1.000000 0.413691 0.293961
0.997181 0.424142 0.310294
0.179412 0.225000 0.192402
0.184352 0.227658 0.196201
0.180806 0.231709 0.192662
0.180024 0.240204 0.190074
0.187806 0.243382 0.187806
0.199211 0.257422 0.182069
0.213726 0.270589 0.169348
0.258287 0.278087 0.160026
0.304718 0.287132 0.148713
0.349142 0.282476 0.136198
0.392861 0.276226 0.124341
0.437783 0.289392 0.127504
0.468719 0.301256 0.128278
0.503071 0.310049 0.126233
0.543520 0.323728 0.126118
0.575161 0.335700 0.117685
0.610539 0.347181 0.118995
0.645098 0.355882 0.128669
0.681863 0.356418 0.134069
0.713848 0.361772 0.148284
0.742126 0.364951 0.157414
0.772756 0.370221 0.163059
0.811520 0.372794 0.177696
0.836619 0.376715 0.194041
0.861887 0.380883 0.203493
0.896002 0.387255 0.213136
0.918888 0.390441 0.224234
0.951892 0.400667 0.244171
0.980821 0.404166 0.253585
0.996446 0.413603 0.268765
0.998682 0.422794 0.283012
0.997388 0.431778 0.299916
0.997304 0.444608 0.318873
0.197304 0.256005 0.218137
0.203718 0.254699 0.219405
0.205308 0.253271 0.217073
0.202689 0.261887 0.216674
0.202298 0.266866 0.212025
0.211029 0.277696 0.206775
0.228784 0.286512 0.195091
0.249165 0.296496 0.187355
0.292524 0.309681 0.170098
0.338860 0.319374 0.163748
0.383034 0.310868 0.153079
0.430664 0.303106 0.146324
0.474786 0.317356 0.145542
0.507605 0.328489 0.141169
0.542969 0.339338 0.145987
0.578328 0.351677 0.137680
0.608517 0.364645 0.139093
0.645776 0.376903 0.141525
0.682820 0.385317 0.146913
0.715196 0.389158 0.151340
0.744608 0.391835 0.162377
0.779289 0.395492 0.171201
0.806671 0.394569 0.179726
0.841020 0.400601 0.193761
0.862776 0.404105 0.199050
0.891027 0.411152 0.213186
0.918145 0.413473 0.228661
0.952083 0.419083 0.247672
0.980484 0.423897 0.258992
1.000000 0.434318 0.267770
1.000000 0.440686 0.285340
1.000000 0.452409 0.303715
1.000000 0.460049 0.322917
0.208333 0.281863 0.234804
0.223775 0.279488 0.240104
0.228493 0.279473 0.244179
0.222947 0.285279 0.244868
0.223039 0.288358 0.237071
0.230269 0.301302 0.229871
0.238725 0.311489 0.224571
0.260616 0.318306 0.216345
0.291299 0.328309 0.207476
0.334513 0.342402 0.199832
0.382353 0.347273 0.189583
0.426854 0.334712 0.166912
0.471753 0.332046 0.162132
0.509206 0.344347 0.163358
0.544056 0.357690 0.162040
0.580346 0.369072 0.161995
0.618137 0.379412 0.160294
0.652099 0.389752 0.157522
0.682751 0.403769 0.157843
0.713526 0.412868 0.157246
0.744056 0.419179 0.164154
0.775506 0.422074 0.176486
0.808824 0.425582 0.187745
0.837546 0.426961 0.198253
0.865196 0.430882 0.206128
0.892693 0.434804 0.221982
0.920588 0.439185 0.235294
0.952329 0.445098 0.250122
0.974019 0.447059 0.261765
0.997641 0.457138 0.273637
0.999908 0.462347 0.291667
1.000000 0.471247 0.308701
0.998529 0.477941 0.326471
0.231373 0.306618 0.256373
0.245221 0.303481 0.261715
0.244952 0.306962 0.265564
0.243873 0.306618 0.263630
0.238695 0.314415 0.258946
0.247181 0.317770 0.256250
0.253608 0.328117 0.247832
0.265112 0.342298 0.236888
0.287408 0.350705 0.234007
0.324594 0.362297 0.225655
0.373407 0.370826 0.214959
0.420163 0.372541 0.195278
0.455714 0.362331 0.181740
0.505024 0.361818 0.183456
0.546691 0.372143 0.182468
0.582966 0.386386 0.180281
0.616483 0.393689 0.178370
0.649154 0.407587 0.180871
0.685294 0.419853 0.177903
0.715441 0.429569 0.177206
0.744133 0.440702 0.181587
0.774632 0.445221 0.186642
0.807590 0.453317 0.195711
0.833904 0.456166 0.201551
0.864093 0.456189 0.209559
0.895381 0.460294 0.224896
0.923913 0.466108 0.238358
0.949629 0.468635 0.250249
0.973116 0.473208 0.262378
0.992743 0.479753 0.281196
1.000000 0.486910 0.297082
0.999950 0.493359 0.315564
1.000000 0.502696 0.330883
0.252696 0.332108 0.282843
0.258717 0.330392 0.284995
0.263511 0.328324 0.287255
0.265158 0.331901 0.286972
0.260570 0.335968 0.283609
0.270121 0.341743 0.279190
0.276471 0.350980 0.275077
0.278056 0.362247 0.262860
0.300980 0.372549 0.258149
0.327957 0.383709 0.250375
0.361274 0.392938 0.237546
0.413013 0.401348 0.225858
0.454565 0.402451 0.216636
0.495871 0.391705 0.206901
0.547595 0.389430 0.200766
0.582284 0.402221 0.199349
0.617892 0.414461 0.200122
0.652819 0.423652 0.198231
0.684543 0.435294 0.194378
0.717570 0.443015 0.191628
0.750000 0.452206 0.198101
0.774977 0.462010 0.199732
0.801180 0.475153 0.197748
0.836397 0.479274 0.205997
0.867341 0.481679 0.218750
0.891805 0.483716 0.228684
0.924602 0.485861 0.241100
0.954779 0.492969 0.259169
0.974786 0.496814 0.266146
0.996446 0.502818 0.288358
1.000000 0.508716 0.302589
1.000000 0.516560 0.318612
1.000000 0.524265 0.335049
0.275000 0.361030 0.300368
0.279037 0.355335 0.298529
0.288128 0.355270 0.305767
0.288580 0.355048 0.310049
0.283594 0.363955 0.306403
0.282598 0.364951 0.298936
0.287278 0.373797 0.297986
0.298215 0.384348 0.295221
0.303707 0.393045 0.288450
0.330093 0.402547 0.281373
0.364009 0.412906 0.268627
0.403025 0.422587 0.253451
0.447120 0.433379 0.238572
0.490173 0.434448 0.233801
0.533984 0.419033 0.222679
0.581974 0.417023 0.211995
0.622610 0.426777 0.210294
0.654527 0.440323 0.215070
0.689354 0.447848 0.216176
0.720197 0.458188 0.217222
0.745741 0.468842 0.217065
0.776103 0.479289 0.215196
0.806985 0.489584 0.217770
0.838795 0.498870 0.222522
0.867770 0.505208 0.227175
0.893819 0.509122 0.232299
0.925613 0.511374 0.252696
0.950651 0.519650 0.261275
0.973422 0.525766 0.274449
0.996496 0.530074 0.292697
0.999870 0.532100 0.306733
0.994297 0.539706 0.325981
1.000000 0.549265 0.343014
0.294118 0.378432 0.323529
0.298040 0.380393 0.321569
0.303799 0.378432 0.327083
0.311397 0.381985 0.327083
0.306863 0.381618 0.322059
0.305882 0.387316 0.321569
0.307475 0.396201 0.319240
0.313297 0.406986 0.321569
0.324020 0.413235 0.308334
0.337868 0.422426 0.297978
0.365686 0.435417 0.288725
0.397181 0.445037 0.280454
0.439461 0.455392 0.268873
0.484927 0.463910 0.261213
0.528676 0.462255 0.251838
0.574204 0.447855 0.239890
0.616667 0.443137 0.230392
0.657169 0.454657 0.233333
0.688971 0.467279 0.230515
0.719730 0.476103 0.233333
0.753431 0.485294 0.235294
0.783211 0.493505 0.235294
0.812132 0.504411 0.237868
0.837194 0.513726 0.237255
0.866177 0.524020 0.240686
0.897120 0.533333 0.247488
0.924510 0.540441 0.257598
0.949816 0.541176 0.266973
0.980392 0.547059 0.278676
0.998223 0.550980 0.298958
0.999877 0.558946 0.312255
0.997978 0.562929 0.329657
0.998039 0.572549 0.345098
0.318995 0.405515 0.344608
0.317157 0.401658 0.346806
0.317272 0.405385 0.348890
0.332158 0.403481 0.352646
0.326456 0.405209 0.352420
0.328554 0.410907 0.352084
0.327474 0.416199 0.347036
0.332633 0.425892 0.342138
0.336489 0.433364 0.332904
0.347603 0.442647 0.327600
0.369485 0.453393 0.313886
0.398530 0.466912 0.310746
0.432690 0.474020 0.302482
0.478297 0.482843 0.289561
0.523950 0.493719 0.275843
0.566548 0.487263 0.266062
0.610049 0.475981 0.257782
0.652328 0.472181 0.252704
0.688151 0.481618 0.251946
0.722082 0.490698 0.251225
0.756051 0.501256 0.252099
0.784992 0.510275 0.252593
0.811351 0.518459 0.253225
0.838278 0.529289 0.255243
0.868964 0.538511 0.257353
0.893574 0.548774 0.260873
0.924165 0.557743 0.266054
0.951758 0.568670 0.277493
0.979810 0.573881 0.289078
0.994608 0.576348 0.302474
0.999885 0.580147 0.319976
0.996143 0.586029 0.335784
0.997916 0.593505 0.358701
0.338480 0.430392 0.367647
0.340142 0.427068 0.365985
0.347717 0.425459 0.368137
0.349433 0.426961 0.373285
0.349326 0.427175 0.369853
0.346668 0.435639 0.373506
0.346002 0.444041 0.369531
0.350245 0.448284 0.362868
0.352206 0.454780 0.355514
0.364208 0.466521 0.351831
0.379167 0.477543 0.345144
0.401004 0.487010 0.333701
0.433241 0.496722 0.326685
0.468627 0.507146 0.315234
0.512730 0.518658 0.305438
0.565809 0.522794 0.290143
0.602451 0.515319 0.279657
0.644991 0.503623 0.270795
0.694853 0.497273 0.263220
0.726846 0.507185 0.269684
0.750490 0.518627 0.268628
0.785294 0.526348 0.271124
0.815487 0.534605 0.273330
0.844110 0.542410 0.274640
0.872794 0.551042 0.276164
0.900613 0.565073 0.279657
0.925888 0.572794 0.287087
0.951279 0.584168 0.295075
0.983578 0.593444 0.302757
0.994730 0.601593 0.310003
0.998391 0.605392 0.322089
1.000000 0.609314 0.347128
1.000000 0.614706 0.361275
0.359313 0.453431 0.390686
0.363897 0.455760 0.393015
0.361642 0.453431 0.390686
0.371446 0.456767 0.397005
0.374954 0.450996 0.392019
0.372790 0.456740 0.389821
0.372112 0.464024 0.389989
0.373058 0.471098 0.385681
0.370466 0.479504 0.377880
0.377370 0.491096 0.375655
0.394493 0.498169 0.372809
0.412917 0.508766 0.361650
0.434926 0.517631 0.351379
0.466456 0.529324 0.342666
0.509390 0.538725 0.334015
0.559425 0.549276 0.322526
0.602696 0.555821 0.312623
0.638726 0.543884 0.293628
0.681296 0.530024 0.288151
0.724965 0.526348 0.289549
0.760003 0.529688 0.285999
0.786397 0.541789 0.285539
0.820228 0.551103 0.285807
0.846611 0.557805 0.291219
0.876225 0.570619 0.300061
0.901310 0.578696 0.301922
0.930162 0.586941 0.308211
0.959065 0.597805 0.312259
0.982016 0.607644 0.316912
0.994853 0.621569 0.326716
1.000000 0.626815 0.337255
0.997744 0.632353 0.348702
1.000000 0.640074 0.367892
0.379412 0.477941 0.410784
0.386182 0.481863 0.414706
0.379902 0.481464 0.415993
0.393750 0.484176 0.421431
0.392341 0.482537 0.419792
0.397197 0.487393 0.418030
0.393382 0.489951 0.416177
0.395864 0.497350 0.410784
0.393260 0.501838 0.410417
0.395098 0.509467 0.400904
0.407322 0.524755 0.399877
0.422426 0.533961 0.389859
0.440135 0.541667 0.381924
0.472411 0.554749 0.371186
0.505239 0.564552 0.358334
0.551379 0.571982 0.347748
0.592647 0.584069 0.334314
0.638480 0.587117 0.327696
0.678033 0.573376 0.315686
0.722212 0.557705 0.312623
0.761826 0.551899 0.304902
0.789369 0.558058 0.308349
0.817586 0.567647 0.307843
0.844041 0.580515 0.315686
0.873039 0.586887 0.316054
0.902083 0.594041 0.323529
0.932874 0.607415 0.326440
0.956220 0.614936 0.332200
0.982476 0.624510 0.340135
1.000000 0.634912 0.343750
1.000000 0.644945 0.358578
0.999954 0.653140 0.371737
1.000000 0.664706 0.384804
0.401470 0.512500 0.435417
0.405350 0.511232 0.441870
0.411604 0.509765 0.445504
0.415809 0.509926 0.447181
0.420588 0.511106 0.446002
0.417368 0.512412 0.445833
0.412852 0.517769 0.443260
0.415246 0.525050 0.435712
0.418076 0.533762 0.434743
0.422549 0.543014 0.424755
0.429465 0.547495 0.425000
0.443057 0.555637 0.418845
0.454948 0.569730 0.408532
0.477083 0.574199 0.399192
0.513158 0.586589 0.391100
0.549039 0.597078 0.379780
0.588174 0.608579 0.366176
0.633843 0.614357 0.357230
0.680193 0.612699 0.345910
0.716479 0.599387 0.334724
0.752313 0.586520 0.324341
0.792402 0.581863 0.323503
0.824211 0.592241 0.332108
0.849242 0.593382 0.332108
0.878186 0.601746 0.331158
0.900245 0.612550 0.336715
0.931235 0.623292 0.344708
0.957755 0.632108 0.351084
0.981173 0.637577 0.359406
1.000000 0.648897 0.364453
1.000000 0.658088 0.376838
0.999920 0.673449 0.387259
0.998652 0.682475 0.397549
0.422059 0.539460 0.459804
0.428431 0.542157 0.463726
0.429810 0.538327 0.462500
0.435049 0.543153 0.467762
0.442800 0.539675 0.466238
0.445152 0.543191 0.468681
0.443857 0.544347 0.465457
0.441077 0.552106 0.463726
0.444363 0.562500 0.465932
0.442425 0.563404 0.455859
0.444577 0.572304 0.451501
0.459804 0.582177 0.448284
0.471569 0.591820 0.439308
0.492892 0.600988 0.433800
0.517800 0.609314 0.423529
0.550735 0.621691 0.412094
0.583578 0.628431 0.401593
0.625950 0.638687 0.392080
0.671278 0.649066 0.383334
0.715073 0.643881 0.364729
0.749081 0.628462 0.349295
0.790794 0.615196 0.353501
0.830668 0.604902 0.353079
0.857989 0.613381 0.351570
0.876287 0.622426 0.353002
0.904511 0.626248 0.356250
0.935999 0.639706 0.362975
0.954971 0.648897 0.366314
0.983272 0.660019 0.374418
1.000000 0.668152 0.387362
1.000000 0.676226 0.396079
0.997304 0.685049 0.409023
0.997304 0.697794 0.425735
0.453186 0.570221 0.490687
0.455392 0.569118 0.490687
0.459069 0.570726 0.493329
0.468505 0.569279 0.495297
0.473545 0.565548 0.501746
0.467253 0.568505 0.503381
0.464752 0.575651 0.500000
0.468018 0.580400 0.496082
0.473070 0.584528 0.493781
0.473104 0.591544 0.485531
0.469677 0.596446 0.479726
0.477574 0.610528 0.478175
0.491973 0.616881 0.474372
0.509352 0.626348 0.467479
0.525720 0.633448 0.453056
0.557529 0.642375 0.441694
0.584865 0.652022 0.433762
0.622794 0.659980 0.424387
0.669118 0.672174 0.414943
0.714296 0.677122 0.396243
0.750689 0.675306 0.388818
0.786029 0.656349 0.385037
0.828975 0.639805 0.376961
0.858349 0.633579 0.371626
0.886060 0.638051 0.377543
0.908938 0.646201 0.380393
0.934559 0.657843 0.387462
0.960417 0.666571 0.392329
0.985172 0.673560 0.403171
1.000000 0.683372 0.406702
1.000000 0.693643 0.416598
0.998897 0.704358 0.431093
1.000000 0.717034 0.446446
0.479412 0.601961 0.520588
0.485141 0.601991 0.520619
0.486152 0.600061 0.521446
0.493045 0.600888 0.531281
0.494853 0.599755 0.536275
0.495312 0.599540 0.530913
0.497426 0.601348 0.532721
0.500551 0.610478 0.526134
0.498774 0.614216 0.525980
0.495956 0.624264 0.517463
0.498040 0.627451 0.516176
0.507751 0.633946 0.511182
0.517892 0.642402 0.505392
0.529167 0.652328 0.493781
0.542770 0.661030 0.486029
0.566360 0.669332 0.479412
0.592157 0.678431 0.470098
0.624939 0.687133 0.464093
0.665012 0.692770 0.448345
0.712316 0.702175 0.436213
0.754289 0.708456 0.428431
0.785172 0.701930 0.415288
0.822426 0.684865 0.406618
0.862255 0.670068 0.403248
0.895834 0.661765 0.401716
0.917402 0.667862 0.402389
0.939890 0.669547 0.402512
0.965717 0.681005 0.413971
0.983578 0.688971 0.421446
0.999019 0.701532 0.428554
0.999939 0.708333 0.441422
0.996078 0.722702 0.449295
0.997059 0.735294 0.462746
0.507598 0.633946 0.551593
0.509260 0.634778 0.552425
0.516774 0.631074 0.546323
0.517157 0.630882 0.546323
0.524127 0.630990 0.556725
0.531618 0.630882 0.556372
0.539132 0.630721 0.559436
0.531307 0.637868 0.556178
0.529565 0.642647 0.556372
0.527095 0.648905 0.555270
0.527964 0.657376 0.547281
0.531495 0.660907 0.539928
0.538373 0.673606 0.538557
0.549227 0.677206 0.527451
0.563366 0.688956 0.519355
0.584034 0.696936 0.514093
0.608701 0.702328 0.512561
0.636064 0.710750 0.500892
0.667402 0.719355 0.490181
0.702367 0.728412 0.479534
0.747610 0.736612 0.467372
0.793359 0.741643 0.457479
0.824142 0.727818 0.447380
0.862140 0.710784 0.439959
0.892923 0.696109 0.428462
0.924142 0.687983 0.425425
0.949671 0.696408 0.430760
0.970500 0.699889 0.432866
0.994531 0.707720 0.445022
0.996446 0.722794 0.453921
0.996936 0.727642 0.464652
0.999904 0.736152 0.480269
1.000000 0.747672 0.494118
0.539461 0.664951 0.582598
0.541621 0.664974 0.583333
0.547947 0.661811 0.583333
0.551088 0.658647 0.583333
0.552359 0.658425 0.589399
0.562002 0.660647 0.588994
0.563725 0.661030 0.588726
0.561275 0.669929 0.595136
0.557414 0.670221 0.584865
0.555928 0.679534 0.586520
0.556847 0.684069 0.583380
0.560799 0.690211 0.579182
0.567371 0.699694 0.573774
0.573460 0.706794 0.564882
0.586673 0.716345 0.558425
0.603730 0.720098 0.551570
0.621324 0.728431 0.544853
0.645810 0.739215 0.537944
0.670665 0.749020 0.527773
0.707039 0.753117 0.518137
0.746079 0.758088 0.510784
0.784812 0.769248 0.490074
0.828891 0.770343 0.477941
0.860915 0.758334 0.471079
0.887071 0.745037 0.470098
0.922472 0.722886 0.462217
0.959345 0.719715 0.457981
0.977826 0.721086 0.464346
0.993842 0.728676 0.473682
