luts/drone/xdeepgreen.cube
TITLE "XDeepGreen"
LUT_3D_SIZE 5
0.000000 0.000000 0.000000
0.314706 0.050000 0.030392
0.607843 0.119608 0.080393
0.866667 0.210784 0.173530
1.000000 0.333333 0.301961
0.131372 0.180392 0.148039
0.318382 0.226716 0.094853
0.608823 0.295588 0.110294
0.867892 0.329902 0.190931
0.999019 0.404902 0.310784
0.294118 0.378432 0.323529
0.324020 0.413235 0.308334
0.616667 0.443137 0.230392
0.866177 0.524020 0.240686
0.998039 0.572549 0.345098
0.479412 0.601961 0.520588
0.498774 0.614216 0.525980
0.592157 0.678431 0.470098
0.895834 0.661765 0.401716
0.997059 0.735294 0.462746
0.756863 0.862745 0.796078
0.779412 0.869608 0.806863
0.792157 0.905882 0.786274
0.920588 0.956863 0.752941
1.000000 0.925490 0.729412
0.000000 0.000000 0.220588
0.216177 0.019608 0.238236
0.560784 0.116667 0.274510
0.842892 0.230147 0.314215
0.999019 0.352941 0.389216
0.000000 0.233823 0.233333
0.251287 0.249510 0.247794
0.567770 0.283334 0.274632
0.841728 0.333701 0.319731
0.996323 0.427451 0.398775
0.289216 0.425980 0.358333
0.364461 0.415196 0.382598
0.586765 0.462255 0.326961
0.850123 0.534804 0.336642
1.000000 0.578431 0.428431
0.476716 0.627206 0.528431
0.528064 0.619056 0.557230
0.585539 0.678064 0.526471
0.880331 0.672733 0.457905
0.991911 0.746569 0.515441
0.749020 0.874510 0.792157
0.778186 0.874755 0.809069
0.792647 0.902941 0.803432
0.915931 0.950245 0.765441
1.000000 0.931372 0.751961
0.000000 0.000000 0.460784
0.000490 0.014216 0.465686
0.451961 0.077451 0.486274
0.795098 0.198529 0.514216
1.000000 0.376471 0.560785
0.002451 0.250000 0.469118
0.002941 0.235539 0.479044
0.466912 0.262010 0.491912
0.791912 0.323652 0.518137
0.997549 0.455392 0.571569
0.000981 0.474510 0.478432
0.027941 0.481863 0.480883
0.500490 0.498039 0.503431
0.803431 0.534069 0.530882
1.000000 0.596078 0.588235
0.332843 0.693627 0.568137
0.455882 0.689338 0.587500
0.616667 0.669608 0.633579
0.831740 0.705269 0.581740
1.000000 0.772549 0.621078
0.701960 0.903922 0.788235
0.734804 0.901471 0.805392
0.817647 0.893138 0.841176
0.890196 0.949020 0.817157
1.000000 0.943137 0.801961
0.000000 0.000000 0.706863
0.000000 0.000735 0.712010
0.133823 0.000490 0.728431
0.681862 0.134069 0.730637
1.000000 0.320588 0.749020
0.000000 0.215931 0.709314
0.004044 0.249265 0.718198
0.145834 0.219363 0.722549
0.690012 0.285049 0.739277
0.998529 0.414951 0.754167
0.000000 0.467647 0.720588
0.004044 0.465074 0.724142
0.192892 0.470098 0.728676
0.710294 0.512255 0.742524
0.999510 0.590686 0.763235
0.000245 0.718382 0.726961
0.000919 0.723652 0.731495
0.300981 0.732843 0.735294
0.751777 0.748468 0.752512
0.996813 0.791912 0.777696
0.000000 0.972549 0.774510
0.209804 0.967157 0.786519
0.656373 0.952941 0.837255
0.888971 0.933578 0.901225
0.996078 0.972549 0.872549
0.000000 0.000000 0.972549
0.000000 0.000000 0.974510
0.000000 0.001961 0.982353
0.445098 0.000000 0.987255
0.921569 0.211765 0.992157
0.002942 0.000000 0.983334
0.004412 0.000735 0.982598
0.001961 0.000490 0.983824
0.431863 0.046568 0.986030
0.925490 0.328431 0.995098
0.001961 0.194117 0.984314
0.002451 0.220098 0.986765
0.000981 0.308824 0.989216
0.419608 0.394118 0.990196
0.937254 0.533334 0.990196
0.000000 0.616667 0.991177
0.003677 0.612990 0.995588
0.002941 0.594608 0.994117
0.244118 0.638971 0.997304
0.961765 0.760784 0.998039
0.000000 0.968627 0.996078
0.000000 0.973530 0.997059
0.000000 0.986274 0.998039
0.000000 0.990196 0.988235
1.000000 1.000000 1.000000
