luts/drone/xdeepgreen.cube
TITLE "XDeepGreen"
LUT_3D_SIZE 9
0.000000 0.000000 0.000000
0.153922 0.019118 0.011275
0.314706 0.050000 0.030392
0.465686 0.079902 0.048529
0.607843 0.119608 0.080393
0.748529 0.166176 0.130392
0.866667 0.210784 0.173530
0.977942 0.267647 0.231373
1.000000 0.333333 0.301961
0.061274 0.080882 0.064216
0.165625 0.108701 0.029657
0.321446 0.147794 0.027696
0.462071 0.165380 0.062439
0.604657 0.190686 0.096078
0.749203 0.216483 0.139154
0.862377 0.254902 0.184069
0.978003 0.298591 0.232353
1.000000 0.352941 0.299019
0.131372 0.180392 0.148039
0.156863 0.207353 0.138725
0.318382 0.226716 0.094853
0.467157 0.270588 0.090074
0.608823 0.295588 0.110294
0.744608 0.313848 0.145956
0.867892 0.329902 0.190931
0.978554 0.361519 0.246324
0.999019 0.404902 0.310784
0.208333 0.281863 0.234804
0.223039 0.288358 0.237071
0.291299 0.328309 0.207476
0.471753 0.332046 0.162132
0.618137 0.379412 0.160294
0.744056 0.419179 0.164154
0.865196 0.430882 0.206128
0.974019 0.447059 0.261765
0.998529 0.477941 0.326471
0.294118 0.378432 0.323529
0.306863 0.381618 0.322059
0.324020 0.413235 0.308334
0.439461 0.455392 0.268873
0.616667 0.443137 0.230392
0.753431 0.485294 0.235294
0.866177 0.524020 0.240686
0.980392 0.547059 0.278676
0.998039 0.572549 0.345098
0.379412 0.477941 0.410784
0.392341 0.482537 0.419792
0.393260 0.501838 0.410417
0.440135 0.541667 0.381924
0.592647 0.584069 0.334314
0.761826 0.551899 0.304902
0.873039 0.586887 0.316054
0.982476 0.624510 0.340135
1.000000 0.664706 0.384804
0.479412 0.601961 0.520588
0.494853 0.599755 0.536275
0.498774 0.614216 0.525980
0.517892 0.642402 0.505392
0.592157 0.678431 0.470098
0.754289 0.708456 0.428431
0.895834 0.661765 0.401716
0.983578 0.688971 0.421446
0.997059 0.735294 0.462746
0.606863 0.730882 0.641177
0.623223 0.724081 0.649204
0.625735 0.734314 0.650980
0.628247 0.757659 0.643934
0.662745 0.784069 0.620588
0.756801 0.815012 0.597855
0.902451 0.831128 0.549510
0.999571 0.772794 0.528064
1.000000 0.800980 0.566177
0.756863 0.862745 0.796078
0.761764 0.866667 0.799020
0.779412 0.869608 0.806863
0.776471 0.886275 0.791176
0.792157 0.905882 0.786274
0.840686 0.928431 0.771078
0.920588 0.956863 0.752941
0.999510 0.959313 0.721569
1.000000 0.925490 0.729412
0.000980 0.000000 0.109804
0.107843 0.007353 0.120037
0.285907 0.029044 0.138112
0.441728 0.077451 0.149877
0.584559 0.131127 0.167892
0.735601 0.178738 0.206372
0.860907 0.221569 0.230638
0.968873 0.276838 0.274878
1.000000 0.341176 0.336275
0.000000 0.116115 0.120894
0.125513 0.125728 0.125942
0.286750 0.142693 0.138220
0.440212 0.165525 0.158394
0.592433 0.190901 0.174847
0.732698 0.226624 0.203202
0.861918 0.264905 0.238879
0.974027 0.311144 0.278600
1.000000 0.366728 0.335294
0.131250 0.214584 0.171201
0.174311 0.205331 0.185340
0.296323 0.232169 0.161305
0.446048 0.273468 0.162224
0.593137 0.294363 0.184253
0.736121 0.311902 0.210187
0.857322 0.336213 0.238266
0.976869 0.368060 0.281863
0.996201 0.416667 0.341176
0.217463 0.300797 0.251287
0.246300 0.296714 0.263504
0.282568 0.328508 0.240135
0.456648 0.341238 0.207644
0.600888 0.384743 0.209038
0.737201 0.416299 0.216046
0.858716 0.433073 0.249755
0.972488 0.450858 0.298913
1.000000 0.487071 0.357169
0.296814 0.395833 0.335294
0.318260 0.390227 0.339645
0.331740 0.416666 0.337009
0.430300 0.456189 0.300766
0.610907 0.449755 0.266422
0.743842 0.489400 0.265747
0.861152 0.527880 0.272794
0.974265 0.545098 0.305147
1.000000 0.572304 0.367892
0.378370 0.492647 0.418934
0.399678 0.490518 0.424058
0.408165 0.503677 0.423392
0.445634 0.542455 0.401700
0.589338 0.583517 0.358640
0.755155 0.558280 0.328247
0.866207 0.591268 0.336780
0.976180 0.628140 0.355186
0.997549 0.667157 0.405515
0.482108 0.609437 0.524510
0.494654 0.610861 0.535141
0.508027 0.614583 0.539951
0.523039 0.641851 0.521400
0.590809 0.677757 0.494547
0.745512 0.709635 0.444393
0.891728 0.664155 0.416207
0.982675 0.691973 0.438741
0.993995 0.738848 0.487255
0.606250 0.731802 0.642586
0.617042 0.731380 0.652137
0.638848 0.734957 0.662914
0.629465 0.756296 0.651899
0.665043 0.782537 0.631342
0.750819 0.814269 0.604320
0.899663 0.832246 0.563894
0.999885 0.775429 0.538971
1.000000 0.806985 0.576532
0.756863 0.870588 0.792157
0.768566 0.864583 0.799081
0.785662 0.869853 0.810784
0.783885 0.887929 0.795711
0.792402 0.906127 0.792156
0.841789 0.928063 0.777574
0.917892 0.953431 0.755883
0.996568 0.955883 0.726470
1.000000 0.925490 0.741176
0.000000 0.000000 0.220588
0.000000 0.002574 0.228554
0.216177 0.019608 0.238236
0.400368 0.065809 0.258089
0.560784 0.116667 0.274510
0.713971 0.164461 0.291789
0.842892 0.230147 0.314215
0.962132 0.287378 0.345221
0.999019 0.352941 0.389216
0.001838 0.126471 0.235172
0.004335 0.120037 0.238342
0.231403 0.129320 0.245128
0.401593 0.156280 0.260876
0.561704 0.180208 0.274204
0.709758 0.221308 0.288205
0.839859 0.263787 0.318352
0.958057 0.320113 0.346415
0.999877 0.375981 0.394975
0.000000 0.233823 0.233333
0.047825 0.238818 0.239001
0.251287 0.249510 0.247794
0.412867 0.262837 0.263879
0.567770 0.283334 0.274632
0.716452 0.308456 0.294608
0.841728 0.333701 0.319731
0.961489 0.373162 0.350674
0.996323 0.427451 0.398775
0.132598 0.340073 0.269731
0.214017 0.340564 0.290304
0.303033 0.331127 0.310141
0.428692 0.350904 0.284727
0.575858 0.392157 0.288787
0.716284 0.413434 0.300536
0.842862 0.432721 0.326563
0.959115 0.456710 0.367448
1.000000 0.493015 0.413725
0.289216 0.425980 0.358333
0.312622 0.424326 0.359620
0.364461 0.415196 0.382598
0.413480 0.456373 0.352757
0.586765 0.462255 0.326961
0.728922 0.495956 0.331189
0.850123 0.534804 0.336642
0.966605 0.549632 0.369914
1.000000 0.578431 0.428431
0.380147 0.519240 0.432353
0.391560 0.517662 0.442617
0.431005 0.513143 0.458578
0.449127 0.542034 0.445726
0.571446 0.584069 0.410845
0.740824 0.565334 0.379918
0.857904 0.599265 0.389706
0.970619 0.641422 0.408287
0.997794 0.676226 0.454902
0.476716 0.627206 0.528431
0.491759 0.625613 0.540748
0.528064 0.619056 0.557230
0.540747 0.639522 0.553615
0.585539 0.678064 0.526471
0.731311 0.710570 0.489614
0.880331 0.672733 0.457905
0.976593 0.703615 0.483640
0.991911 0.746569 0.515441
0.598406 0.746323 0.648652
0.612699 0.741345 0.654994
0.631955 0.742156 0.665901
0.653585 0.754197 0.670986
0.670772 0.781250 0.655024
0.743704 0.814660 0.627650
0.885172 0.838603 0.593566
0.999203 0.781909 0.566023
0.999019 0.810539 0.600858
0.749020 0.874510 0.792157
0.752329 0.874878 0.793260
0.778186 0.874755 0.809069
0.790441 0.879902 0.809681
0.792647 0.902941 0.803432
0.836887 0.928799 0.792524
0.915931 0.950245 0.765441
0.999877 0.958578 0.740318
1.000000 0.931372 0.751961
0.000000 0.003922 0.339216
0.000000 0.000000 0.346446
0.092647 0.012500 0.352574
0.336213 0.044118 0.362194
0.516912 0.103431 0.378676
0.681495 0.153493 0.393750
0.825858 0.211887 0.403431
0.948346 0.287377 0.433149
0.998529 0.376471 0.478922
0.000000 0.141054 0.346875
0.001915 0.129274 0.346584
0.102696 0.120083 0.358456
0.346952 0.142409 0.367233
0.521048 0.173254 0.381618
0.683969 0.208195 0.392616
0.827803 0.254473 0.410294
0.944141 0.321676 0.435746
0.998407 0.397549 0.479534
0.000000 0.240564 0.353554
0.005117 0.237638 0.353661
0.143352 0.240962 0.361826
0.357276 0.254871 0.368505
0.527206 0.277328 0.385539
0.684252 0.299234 0.399448
0.821691 0.337163 0.413542
0.949969 0.382859 0.445358
1.000000 0.442279 0.483701
0.000000 0.355821 0.355760
0.005155 0.356679 0.363771
0.187148 0.365135 0.361734
0.377344 0.372672 0.378446
0.536581 0.389736 0.388205
0.684329 0.409666 0.403454
0.823775 0.433471 0.422595
0.946592 0.461183 0.453990
0.998468 0.509313 0.488235
0.050490 0.464706 0.381863
0.160110 0.467739 0.387653
0.316238 0.462868 0.404902
0.424020 0.457230 0.430790
0.555147 0.479902 0.410172
0.698774 0.513511 0.411244
0.828860 0.534375 0.428003
0.948775 0.554259 0.452635
0.998039 0.589461 0.507598
0.332598 0.559191 0.461336
0.369876 0.557652 0.473323
0.417770 0.555147 0.480025
0.486099 0.539376 0.505767
0.544179 0.579381 0.481894
0.710593 0.581824 0.450628
0.839537 0.613817 0.458425
0.953646 0.653439 0.474854
0.998529 0.679473 0.516544
0.467525 0.658824 0.549510
0.482475 0.654488 0.558777
0.516575 0.651593 0.567953
0.569072 0.640472 0.592907
0.589461 0.673468 0.575184
0.708471 0.713327 0.545159
0.863266 0.684865 0.519271
0.967571 0.715931 0.539537
0.997059 0.758578 0.563603
0.584314 0.761765 0.653431
0.591705 0.766659 0.663511
0.623590 0.760616 0.673192
0.662493 0.755453 0.691422
0.682445 0.777604 0.691575
0.733257 0.813902 0.662600
0.869118 0.839844 0.631265
0.994631 0.794547 0.608533
0.997671 0.822917 0.631557
0.728431 0.892647 0.791176
0.746079 0.884253 0.789828
0.760049 0.889216 0.799142
0.793444 0.883272 0.822549
0.807843 0.900490 0.825735
0.831373 0.926348 0.811765
0.896936 0.951103 0.788970
1.000000 0.966360 0.764093
1.000000 0.933333 0.773529
0.000000 0.000000 0.460784
0.003431 0.000000 0.460784
0.000490 0.014216 0.465686
0.229657 0.024265 0.476226
0.451961 0.077451 0.486274
0.635539 0.137010 0.502206
0.795098 0.198529 0.514216
0.923774 0.274020 0.524265
1.000000 0.376471 0.560785
0.005392 0.130147 0.458823
0.001501 0.147610 0.467279
0.001042 0.113296 0.465319
0.238572 0.121967 0.479442
0.454657 0.153432 0.494240
0.637316 0.192249 0.502696
0.796201 0.237316 0.510661
0.924510 0.310264 0.530852
1.000000 0.401471 0.564951
0.002451 0.250000 0.469118
0.001961 0.244608 0.469914
0.002941 0.235539 0.479044
0.257476 0.241360 0.478677
0.466912 0.262010 0.491912
0.642525 0.289890 0.507291
0.791912 0.323652 0.518137
0.931311 0.379841 0.537500
0.997549 0.455392 0.571569
0.001226 0.356372 0.469608
0.001318 0.356373 0.471783
0.002574 0.359926 0.482843
0.285294 0.364890 0.486305
0.479902 0.381372 0.492770
0.644148 0.400306 0.509375
0.792953 0.426042 0.517402
0.925552 0.471998 0.545037
1.000000 0.520588 0.580882
0.000981 0.474510 0.478432
0.000981 0.473775 0.481373
0.027941 0.481863 0.480883
0.325123 0.486397 0.493015
0.500490 0.498039 0.503431
0.659804 0.514706 0.508823
0.803431 0.534069 0.530882
0.931985 0.564706 0.551838
1.000000 0.596078 0.588235
0.001961 0.597794 0.496814
0.015686 0.597641 0.496997
0.233395 0.595711 0.505515
0.430882 0.589798 0.525521
0.547549 0.580147 0.553431
0.677267 0.601103 0.538205
0.816973 0.633272 0.541176
0.939583 0.662010 0.557935
0.998774 0.687500 0.597549
0.332843 0.693627 0.568137
0.373468 0.692402 0.571139
0.455882 0.689338 0.587500
0.545527 0.682966 0.608701
0.616667 0.669608 0.633579
0.672488 0.712500 0.611213
0.831740 0.705269 0.581740
0.953983 0.736948 0.598101
1.000000 0.772549 0.621078
0.545343 0.795343 0.675490
0.566237 0.791942 0.679044
0.592096 0.789277 0.683885
0.645435 0.782659 0.699878
0.697059 0.772916 0.723039
0.727819 0.805882 0.709191
0.839829 0.840809 0.682660
0.984007 0.808242 0.655576
0.996323 0.843382 0.682598
0.701960 0.903922 0.788235
0.710784 0.905882 0.791912
0.734804 0.901471 0.805392
0.765686 0.902941 0.814951
0.817647 0.893138 0.841176
0.832353 0.919118 0.839461
0.890196 0.949020 0.817157
0.994363 0.970343 0.796814
1.000000 0.943137 0.801961
0.000000 0.000000 0.586274
0.000000 0.000000 0.578431
0.000000 0.013235 0.580882
0.004534 0.003064 0.594792
0.356127 0.031618 0.607108
0.566606 0.107353 0.613297
0.750980 0.171324 0.621814
0.904411 0.246569 0.636704
1.000000 0.353922 0.647549
0.007169 0.084620 0.578309
0.000360 0.111320 0.583157
0.000000 0.136749 0.587255
0.001953 0.105277 0.596484
0.358150 0.130576 0.600521
0.571155 0.169807 0.614353
0.752558 0.218781 0.624157
0.901647 0.287010 0.634007
0.997855 0.378615 0.649081
0.000368 0.262010 0.589583
0.001379 0.256924 0.583640
0.003033 0.242923 0.593260
0.006174 0.226302 0.598085
0.366850 0.246875 0.604657
0.575812 0.273407 0.614522
0.753278 0.306862 0.628155
0.904350 0.358042 0.633885
1.000000 0.436152 0.655882
0.000000 0.357843 0.591115
0.000069 0.356809 0.591598
0.003125 0.357031 0.593964
0.030140 0.360815 0.599073
0.386765 0.367770 0.608487
0.589323 0.387860 0.620083
0.760662 0.412500 0.625551
0.899832 0.457958 0.639476
0.997549 0.515686 0.662684
0.001226 0.472549 0.594118
0.002788 0.474510 0.598652
0.001655 0.477451 0.602328
0.103983 0.480882 0.602114
0.409436 0.489706 0.612745
0.604565 0.504841 0.619945
0.765747 0.528554 0.630944
0.911183 0.555637 0.646048
1.000000 0.605638 0.678922
0.001532 0.595588 0.605576
0.000184 0.599648 0.605844
0.001471 0.600720 0.606572
0.182299 0.607935 0.614828
0.442953 0.612500 0.614920
0.625337 0.623307 0.628715
0.782231 0.640855 0.639890
0.920826 0.659498 0.655982
1.000000 0.692218 0.678554
0.000000 0.727696 0.610049
0.003676 0.730698 0.611612
0.002788 0.728094 0.616177
0.319087 0.723790 0.626256
0.542831 0.717402 0.645221
0.676777 0.707736 0.680561
0.804963 0.727359 0.661305
0.932583 0.756296 0.672641
0.998529 0.785294 0.694853
0.243934 0.825674 0.670772
0.304151 0.824556 0.674494
0.410187 0.824387 0.681847
0.546959 0.819861 0.706380
0.666268 0.811857 0.735570
0.747105 0.798292 0.761405
0.803615 0.837408 0.740686
0.956748 0.829312 0.711412
0.997855 0.856679 0.742953
0.586765 0.935784 0.790686
0.616728 0.928921 0.792831
0.666299 0.928676 0.805270
0.725980 0.926348 0.819056
0.784069 0.920343 0.836765
0.850000 0.911826 0.869608
0.878431 0.944608 0.860785
0.973713 0.973039 0.841177
1.000000 0.958333 0.835784
0.000000 0.000000 0.706863
0.000000 0.000000 0.701716
0.000000 0.000735 0.712010
0.000000 0.000000 0.712132
0.133823 0.000490 0.728431
0.479902 0.039093 0.730637
0.681862 0.134069 0.730637
0.864093 0.218750 0.745098
1.000000 0.320588 0.749020
0.002574 0.000000 0.709436
0.001394 0.000000 0.713052
0.004351 0.078462 0.716483
0.001501 0.070711 0.720343
0.131862 0.085111 0.728248
0.482001 0.134681 0.731863
0.690135 0.189644 0.741973
0.863894 0.254580 0.753263
0.999142 0.351348 0.754779
0.000000 0.215931 0.709314
0.000031 0.226807 0.713113
0.004044 0.249265 0.718198
0.002421 0.209620 0.717034
0.145834 0.219363 0.722549
0.484834 0.247794 0.729963
0.690012 0.285049 0.739277
0.866514 0.334988 0.746630
0.998529 0.414951 0.754167
0.000000 0.361397 0.716176
0.004550 0.360294 0.717647
0.000460 0.353125 0.717371
0.001379 0.343000 0.720818
0.175919 0.345894 0.727206
0.498024 0.366835 0.736382
0.703554 0.394363 0.734283
0.864859 0.435631 0.745680
0.999019 0.499510 0.755760
0.000000 0.467647 0.720588
0.000000 0.465809 0.723468
0.004044 0.465074 0.724142
0.002513 0.459191 0.729902
0.192892 0.470098 0.728676
0.514093 0.486581 0.735846
0.710294 0.512255 0.742524
0.879657 0.542953 0.749142
0.999510 0.590686 0.763235
0.000000 0.589583 0.721446
0.000536 0.590763 0.719087
0.000153 0.588603 0.724602
0.001149 0.591376 0.731143
0.221998 0.594608 0.727757
0.532368 0.611275 0.738419
0.727635 0.633395 0.747059
0.885861 0.655974 0.759589
0.999387 0.687132 0.771936
0.000245 0.718382 0.726961
0.000950 0.723560 0.730852
0.000919 0.723652 0.731495
0.001287 0.725705 0.729289
0.300981 0.732843 0.735294
0.561948 0.737776 0.743045
0.751777 0.748468 0.752512
0.899663 0.764890 0.761979
0.996813 0.791912 0.777696
0.000000 0.863358 0.729779
0.000751 0.858762 0.726685
0.000643 0.861673 0.727604
0.001103 0.860586 0.733670
0.400674 0.856127 0.742279
0.658731 0.845343 0.772717
0.803217 0.832353 0.806526
0.921860 0.850797 0.784559
1.000000 0.880637 0.803799
0.000000 0.972549 0.774510
0.000368 0.972181 0.776471
0.209804 0.967157 0.786519
0.464093 0.961397 0.803186
0.656373 0.952941 0.837255
0.800858 0.948285 0.872059
0.888971 0.933578 0.901225
0.949265 0.969975 0.886152
0.996078 0.972549 0.872549
0.000000 0.000000 0.834314
0.000000 0.000000 0.839890
0.000368 0.000000 0.841177
0.000306 0.000000 0.841544
0.000000 0.001716 0.846814
0.309375 0.000000 0.854105
0.598161 0.017525 0.852573
0.801103 0.169179 0.860846
0.975981 0.277941 0.869118
0.000429 0.000000 0.841606
0.003003 0.002627 0.838549
0.000000 0.000444 0.842004
0.000184 0.001555 0.846507
0.000214 0.000245 0.851164
0.309536 0.010547 0.850260
0.598713 0.123345 0.864476
0.803370 0.216054 0.862194
0.978921 0.305392 0.873039
0.000123 0.031740 0.845588
0.000337 0.057797 0.841406
0.000735 0.129228 0.846722
0.002896 0.195634 0.846737
0.001900 0.156924 0.851593
0.314492 0.191789 0.855269
0.607169 0.242647 0.861949
0.807154 0.302129 0.861596
0.979412 0.377206 0.874142
0.000000 0.276961 0.842770
0.003914 0.284689 0.845512
0.000153 0.302956 0.844194
0.001034 0.315732 0.849632
0.003554 0.300889 0.854320
0.316437 0.324809 0.855078
0.610463 0.359942 0.862653
0.815227 0.407031 0.868620
0.983824 0.464277 0.871569
0.000000 0.424019 0.849020
0.003462 0.427267 0.852267
0.000000 0.430760 0.853064
0.001379 0.424602 0.852635
0.000858 0.424142 0.856863
0.324755 0.454228 0.858027
0.623407 0.485294 0.862929
0.824418 0.519424 0.869822
0.987500 0.566422 0.870343
0.000000 0.570588 0.852941
0.001287 0.569301 0.848170
0.004427 0.562040 0.852451
0.000375 0.554534 0.853531
0.002451 0.545588 0.860846
0.299479 0.570075 0.857705
0.637515 0.609452 0.860294
0.835402 0.637308 0.870910
0.993811 0.674081 0.879289
0.000000 0.702451 0.850490
0.000000 0.700199 0.854350
0.000429 0.698897 0.857047
0.002681 0.697350 0.860693
0.003493 0.696753 0.858088
0.299495 0.713036 0.864016
0.652880 0.732598 0.866238
0.857307 0.755147 0.871492
0.999877 0.779412 0.878677
0.000061 0.845159 0.856863
0.000375 0.844715 0.854274
0.002896 0.847886 0.859084
0.000291 0.851915 0.859345
0.004933 0.851440 0.859559
0.387094 0.858150 0.857989
0.679136 0.863373 0.863971
0.871760 0.875192 0.875299
1.000000 0.891238 0.881311
0.000000 1.000000 0.846078
0.000000 1.000000 0.846078
0.000000 1.000000 0.846078
0.004473 0.997855 0.841789
0.003676 0.998284 0.852696
0.451471 0.985294 0.865870
0.777451 0.976471 0.893382
0.937806 0.962255 0.943811
0.993137 0.984314 0.927451
0.000000 0.000000 0.972549
0.003432 0.003432 0.976961
0.000000 0.000000 0.974510
0.001471 0.000000 0.981863
0.000000 0.001961 0.982353
0.000000 0.002451 0.982843
0.445098 0.000000 0.987255
0.710294 0.003432 0.985294
0.921569 0.211765 0.992157
0.000490 0.000490 0.973039
0.000000 0.000000 0.973407
0.000000 0.000368 0.978309
0.002145 0.001287 0.981250
0.002206 0.000000 0.982843
0.000000 0.000000 0.988542
0.436029 0.006005 0.989338
0.720159 0.038787 0.995588
0.922059 0.250490 0.995588
0.002942 0.000000 0.983334
0.000368 0.000123 0.980882
0.004412 0.000735 0.982598
0.000000 0.000000 0.981005
0.001961 0.000490 0.983824
0.000368 0.001716 0.991911
0.431863 0.046568 0.986030
0.714951 0.212255 0.986152
0.925490 0.328431 0.995098
0.002451 0.000000 0.982843
0.001777 0.002145 0.986765
0.001103 0.000981 0.983088
0.002451 0.061581 0.986213
0.001226 0.184068 0.986274
0.000000 0.194118 0.990257
0.430147 0.253799 0.989093
0.726593 0.327267 0.989584
0.933333 0.423039 0.990686
0.001961 0.194117 0.984314
0.000490 0.198039 0.985049
0.002451 0.220098 0.986765
0.000000 0.258088 0.986519
0.000981 0.308824 0.989216
0.000000 0.345588 0.992892
0.419608 0.394118 0.990196
0.734559 0.463480 0.993872
0.937254 0.533334 0.990196
0.000000 0.436274 0.988235
0.002145 0.431985 0.992953
0.000613 0.428799 0.982108
0.003370 0.412868 0.994608
0.002451 0.412255 0.995343
0.002022 0.436581 0.995404
0.421079 0.539583 0.996323
0.746936 0.592464 0.997426
0.950490 0.646569 0.989706
0.000000 0.616667 0.991177
0.000000 0.614461 0.996691
0.003677 0.612990 0.995588
0.002206 0.607721 0.992892
0.002941 0.594608 0.994117
0.000000 0.568260 0.997916
0.244118 0.638971 0.997304
0.749877 0.725123 0.987990
0.961765 0.760784 0.998039
0.003432 0.790686 0.992157
0.003003 0.790257 0.992708
0.000000 0.784314 0.994853
0.002451 0.788419 1.000000
0.000000 0.787500 0.992647
0.003432 0.776164 0.999816
0.003554 0.790319 0.993995
0.748713 0.838603 0.998223
0.977451 0.879902 0.999020
0.000000 0.968627 0.996078
0.000000 0.968627 0.996078
0.000000 0.973530 0.997059
0.003922 0.980392 0.996078
0.000000 0.986274 0.998039
0.000000 0.990686 1.000000
0.000000 0.990196 0.988235
0.734804 0.995588 0.999510
1.000000 1.000000 1.000000
